/* XPM */
static char *e4f9cc4df6e54b26be3c8faf54104300oqgcHWUlnG4ekMR5[] = {
/* columns rows colors chars-per-pixel */
"16 16 256 2 ",
"   c #0C0201",
".  c #090606",
"X  c #130202",
"o  c #1A0706",
"O  c #191819",
"+  c #141010",
"@  c #270707",
"#  c #370808",
"$  c #271818",
"%  c #381616",
"&  c #31100F",
"*  c #2E221D",
"=  c #1C1E22",
"-  c #2A1E22",
";  c #1D2225",
":  c #1F2631",
">  c #232325",
",  c #2B2B2C",
"<  c #272628",
"1  c #372828",
"2  c #2B2D32",
"3  c #2C3236",
"4  c #333334",
"5  c #3B3B3C",
"6  c #383738",
"7  c #35302F",
"8  c #1D211E",
"9  c #470809",
"0  c #560809",
"q  c #480E11",
"w  c #570E12",
"e  c #481618",
"r  c #541314",
"t  c #5C151A",
"y  c #5C1B1C",
"u  c #571618",
"i  c #4D110E",
"p  c #64151A",
"a  c #631A1D",
"s  c #6B1A1D",
"d  c #681417",
"f  c #741B1D",
"g  c #7B1B1D",
"h  c #771518",
"j  c #690B0E",
"k  c #4F231D",
"l  c #70221E",
"z  c #591D22",
"x  c #491D22",
"c  c #6C1C22",
"v  c #641D22",
"b  c #741D22",
"n  c #7B1D22",
"m  c #781A24",
"M  c #482726",
"N  c #582627",
"B  c #463938",
"V  c #573936",
"C  c #50322D",
"Z  c #6B2224",
"A  c #672628",
"S  c #742324",
"D  c #7C2224",
"F  c #78272B",
"G  c #792C32",
"H  c #683737",
"J  c #783637",
"K  c #6B302F",
"L  c #3D413E",
"P  c #46423D",
"I  c #58443B",
"U  c #6B453B",
"Y  c #3B3D42",
"T  c #2D3542",
"R  c #453E42",
"E  c #733C42",
"W  c #3E4244",
"Q  c #3F4A50",
"!  c #434344",
"~  c #4B4B4C",
"^  c #484748",
"/  c #564A48",
"(  c #57524D",
")  c #4B4D52",
"_  c #4D5254",
"`  c #535354",
"'  c #5B5B5C",
"]  c #585757",
"[  c #514F50",
"{  c #674946",
"}  c #67544B",
"|  c #665A57",
" . c #77524D",
".. c #67625C",
"X. c #76645B",
"o. c #7C614E",
"O. c #5C5D62",
"+. c #4F5160",
"@. c #655E62",
"#. c #5D6264",
"$. c #636364",
"%. c #6B6B6C",
"&. c #686767",
"*. c #756B66",
"=. c #76726C",
"-. c #777777",
";. c #6D6F72",
":. c #5C615D",
">. c #831B1D",
",. c #89181B",
"<. c #961A1D",
"1. c #850C0F",
"2. c #A81B1D",
"3. c #8D211E",
"4. c #841D22",
"5. c #8B1D23",
"6. c #871C27",
"7. c #931D23",
"8. c #9B1D24",
"9. c #A61D24",
"0. c #B61E25",
"q. c #842225",
"w. c #8B2225",
"e. c #84242A",
"r. c #8C242A",
"t. c #8C2A2C",
"y. c #842A2B",
"u. c #942225",
"i. c #9B2225",
"p. c #94242A",
"a. c #9C252B",
"s. c #932A2D",
"d. c #9C2A2D",
"f. c #962926",
"g. c #892C32",
"h. c #942C32",
"j. c #9C2C32",
"k. c #982934",
"l. c #883537",
"z. c #9C3234",
"x. c #973539",
"c. c #90312E",
"v. c #A32326",
"b. c #A3252B",
"n. c #AB252B",
"m. c #A42A2D",
"M. c #AB2A2D",
"N. c #AB2425",
"B. c #B3252C",
"V. c #B32A2D",
"C. c #BB2A2D",
"Z. c #B92528",
"A. c #A42C32",
"S. c #AC2C32",
"D. c #A82935",
"F. c #B32C33",
"G. c #BB2C33",
"H. c #B82A36",
"J. c #A43234",
"K. c #AC3235",
"L. c #AC343A",
"P. c #A6373B",
"I. c #B43235",
"U. c #BB3235",
"Y. c #B4343A",
"T. c #BB343B",
"R. c #B83A3C",
"E. c #B0312E",
"W. c #AA211E",
"Q. c #C32B2D",
"!. c #C7272B",
"~. c #D62A2C",
"^. c #C32D33",
"/. c #CB2D33",
"(. c #C62D38",
"). c #D62D34",
"_. c #C33235",
"`. c #CB3235",
"'. c #C4343B",
"]. c #CC343B",
"[. c #CC3A3D",
"{. c #C43A3C",
"}. c #D33235",
"|. c #D3343B",
" X c #DB353B",
".X c #D43A3D",
"XX c #DC3A3D",
"oX c #DB3335",
"OX c #CC312E",
"+X c #E3353B",
"@X c #E43A3D",
"#X c #E93639",
"$X c #F43639",
"%X c #E72D32",
"&X c #C61E24",
"*X c #9A423D",
"=X c #D7413E",
"-X c #943B42",
";X c #A93B42",
":X c #B83B43",
">X c #BE2E41",
",X c #C43C43",
"<X c #CC3C43",
"1X c #C83844",
"2X c #D33C43",
"3X c #DC3C42",
"4X c #D73945",
"5X c #CD2F41",
"6X c #E33C43",
"7X c #EB3C43",
"8X c #E73A45",
"9X c #F33D44",
"0X c #8F4D4D",
"qX c #A84448",
"wX c #B84348",
"eX c #AF5056",
"rX c #896659",
"tX c #847B77",
"yX c #8E706B",
"uX c #AD6E70",
"iX c #9F5C62",
"pX c #C94448",
"aX c #DC4245",
"sX c #DC444A",
"dX c #D54549",
"fX c #D94B52",
"gX c #D05155",
"hX c #E44146",
"jX c #E4444A",
"kX c #EB444B",
"lX c #E9464A",
"zX c #F3444B",
"xX c #F44449",
"cX c #EC4C52",
"vX c #E54B52",
"bX c #F44B53",
"nX c #E95358",
"mX c #F55459",
"MX c #EC6367",
"NX c #7D817C",
"BX c #8A837C",
"VX c #AB877A",
"CX c #D1827E",
"ZX c #7C7E81",
"AX c #957C83",
"SX c #C97B84",
"DX c #7E8284",
"FX c #878787",
"GX c #969797",
"HX c #928F8D",
"JX c #A99490",
"KX c #ADACAC",
"LX c #A2A19F",
"PX c #CDA6A0",
"IX c #D6D2CD",
"UX c #CAC4BD",
/* pixels */
"x e q q q q q e r r r t t w w u q e # e q % & % & @ @ @ o X $ 6 , ~ ] 5 Y #.#.T ^ ^ _ ] ^ ~ ^ O.T $.] W O.' ~ %.&.*.BXUXLXBXyXC | BXHX*.*.-.%.' ~ GX` ! ] ] ~ ! _ ^ _ ~ 6 ( / V C M M C { H C x H -X-X;XwXI.R.V._./.~.).H.z.r r y.u.b.F.S.i.p.z.h.4.e.D g w.7.b.T.T.V.T.n.K.Y.K.u.7.u.u.j.x.r.w.b.F.:X8.a.J.a.A.b.i.R.T.<X'.'.<X2X1X2XdX{.T.T.I.T.T.R.L.D.j.h.t.G K M < R { J l.c.J.Y.H.1X<X[.[.[.sXjXjXcXlXlXbXkX6X6XkXjXsX].4XsXdXT.Y.pXpXP.qXt.eXx.x.x.x.x.x.l.-Xg.x.;Xt.eX0XeXiX0X0XiXuXiX-XqXeX0X9 -XeXpXdX4XsXfX4X4X].|.jXsXdX[.2XvXnXjXjXjXvX.XaXvXaXvXvXcXjXjXvXnXfXpXY.gXgXdXaXcXcX2XnX3XjXaXaX2XaX3XjXvXnXsX2XsXsXdX[.,X9.R.Y.pXpXY.L.qXg.9 G gX:Xn.pXdXdXdXfX[.fX_.T.pXpXpXpX,XT.{.pXP.>.L.wXi.J.wXL.:X,X:XS.wXpXfXnXgXMXMXMXmXvXvXfXpXwXwXwXwXqXx.l.x.x.A.:XdXdX.XlXhXaX[.pXR.dXbXzXxX9XxXxXlX6XXXaXdXU.[.fXJ.3.fXaX@XhXkX@XzXlXaXdX[.[.aX}.hXXXaX`.|.3X3X6X XhXhXlXlXhX|..XhX|.Q.`.C._._.`././.). XXX X X).). X+X+XoX}.'.<X1X'.T.,XT.Y.:Xh.0 P.dX}.XX@X@X@X+X@X+XoX@XoXoXoX+X@X+X+X+X+X6X6XXX.X`.C.C.T.{.{.pXV.2.B.^.[._.Q._.Q.^.`._.^.C.^.G.C.C.C.`./.^.C.C.Q.Q.Q.^.S.t.d # F x.S.F.N.C.G.B.Y.:Xh.l.J N % V C H rXN q K V N C { B ..( | =.*.' ' *.BX&.%.HXFX] ~ ~ &.^ _ O.#.^ ^ Y ! FXLXFX[ %.-.! 5 %.-.' _ _ W 5 _ W L L ~ ! ^ ^ 5 ! 5 5 W 5 6 5 2 3 5 6 $     o o @ @ @ & @ & % q q q q r r w w w t t t u u u r e e e ",
"N e q q q q q i u u t t t t t t e e & e e e e e % & & & @ X X + B 5 ~ ` ! 5 ] ZX) Y ] ) O.) ~ ^ O.W 5 ' &.] ' ' ` &...tXKXKXVXBX} ( tXtX=.=.$.] $.! ;.' ] ` ] _ W ' W ! ~ ^ / R C M M M C H H V N J -X-XP.b.Y.I.'.].).].F.x.r y t.i.b.F.S.b.j.P.h.r.t.D g w.a.S.T.{.U.T.M.M.Y.Y.i.u.u.u.s.s.r.s.b.F.pXb.m.J.a.J.m.b.T.T.'.,X1X<X<X'.[.1X'.T.{.T.,XT.S.b.A.J.k.t.l.H B 1 { E J g.t.J.>X1X4X1X[.`.].sXjXhXlXkXlXzXkXhXhXlXlXjX|.sXvXdX{.R.gXR.P.qXg.eXx.h.c.g.c.x.l.l.g.qXqXg.0X-X0XiXiX0XiXSXuX-XeXeX0X9 J eXpXdX].sXfXfX4X3XaXlXvXsX.X2XsXvXvXvXjXvX.XaXvXaXvXvXbXlXjXmXnXfXY.Y.wXI.1XvXcXjX2XnXaXvXaXaX3XjXaXjXaXvXsXdXsXsXdX[.pXI.wXwXR.pXY.L.qXl.9 F gX,XI.pXdXdXdXfX[.dX_.{.fXpX:X:X,XpXpXY.P.>.:XwXi.J.wXL.pX:X:XI.R.pXvXnXgXMXPXMXmXvXvXfXgXeXqXqXqX;Xx.x.x.;XA.I.,XdX.XhXXXaXdXpXE.pXlXzXxX9X$XxXlX6XXXaXdX_.dXgXJ.3.fXjXhXlXkXkXkXjXaX2XC.[.vX|. X!..X|.}.XX3XhX3XjXhXjX3X3X|.|.hX.X`.[._.'.].].|. X3X3X X XXXXX+X@X+X+X~.}..XdX,XF.n.V.F.L.;Xh.0 z.[.}.XX@X@X@X@X@X+X+X@X+XoX+X+X@X+X+X@X@X6X@X|.|.].C.C.'.T.T.{.B.N.U._.`.Q.Q.^.Q._.`.`.^.C.^.^.C.C.^.]./.^.C.C.C.Q.^.G.S.t.a 9 F z.b.n.C.G.B.F.m.h.l.G z N V U rXrXe y J H N V C I *.B =.LX-./ ( BXBX%.-.FX%.' ] ~ ! ] $.#.] ;.) T W $.%.-.] ] $.5 ~ ] ] ~ ' ' Y W _ ) ] _ ` 6 5 6 ^ ^ ! Y ! ! 5 3 3 6 6 , +     X X @ @ & & & @ % % q q q w t w w t p p p t t r u r e e e ",
"N u q q q e i i u u u t t p p t e e q e e e q e e % & % & @ X X   6 6 7 ` ) 6 ^ ;._ 3 W ~ #._ _ ^ O.#.W _ $._ ' &.! *.} yXKXPXLXBX( B ..=.&.&.&.~ ;.O.] ' ` ^ ~ ) 6 ~ ^ R ^ ^ B V C V C % M { U N N G l.x.w.d.J.T.'.].].S.z.r y c.a.M.I.F.A.j.P.j.s.h.t.q.s.A.F.I.T.U.T.n.N.K.Y.K.a.d.p.p.r.r.P.I.T.:Xi.a.d.f.J.a.A.:XT.,X,X,X1X<X'._.'.T.T.{.{.F.I.R.Y.L.j.p.r.G H M 1 { E l.y.s.K.,X1X4X<X.X`.].jXvXhXlXcXkXlXkXhXhXlXlXjX2XjXvX2X{.R.pXv.J.s.h.eXz.h.g.y.h.x.l.l.g.qXqXx.l.J 0XuXiX0XiXSXSX0XeXeX0Xq J qXpXdX^.2XfXfX4XsXvXaXvXsXaXaXjXjXjXvXjXvX3XaXvX3XjXnXlXjX3XnXfXfXm.L.R.Y.dXvXjXjXjXaXsXvXaXsXaXjXaXjX2XjXsX2XsXsXdX1XdXpXpXpXR.pXR.Y.:Xx.9 l wXpXT.pXfXdXdXfX[.dX{.pXpXgXpXR.I.:XpXwXz.5.:XpXa.P.wXL.:X:XpXY.I.pXMXnXMXMXMXMXmXjXsXfXpXwX:XwX:XP.c.c.x.;XA.S.T.dXaXaX3XhXsXpXI.[.lXxX9X$X#X@XkX6XXXXXjX[.dXfXK.u.fXlXhXkXkXkXzXlXaXdX_.[.jX|.6X4XaX.X.X4X4XjX6XjXhXlX3X6XXXXXlXhX.X.XaX[..X.X3X6X6XXX XXXXXXX@X8X@X+XoX}.[.<X'.G.C.G.U.:X:Xk.j J.2X@XXXXX XXXXXXX+X+X@X+X+X+X+X+X+X+X@X+X@X X}.`.`.C.B.U.U.U.I.N.N._._.Q.C.Q.Q.Q.].^.].^.C.^.^.C.C.^.]./.^.Q.C.C.C.C.G.S.t.s 9 S j.8.<.N.M.b.j.x.l.F v z H rX{ K A K K H H C C C } ..BX=.*.' =.....%.FX-.] :.;.[ ` _ O._ ' ) W ) ' ^ &.%.^ ` ' ~ ;.#.! L ` ] ] ] ! ) W W _ L ! 6 ! L ! W 5 6 2 2 4 3 4 8 .     X o @ @ # & & % @ % e q r w w t t t t a a p p u u u u e x % ",
"z e q q q r r r u u t u t p p u r r q r u r r r q q % % % % & @ o   1 ^ 6 ) $.6 W #.%.^ W _ O._ _ W ^ ] W _ ZX~ ~ | &.&.} | KXUXLXKXBXI ..FX&.=.%.! &.ZX;.) ) ! ^ ] ! ! ` 5 ^ / 1 / V C { C % V  .N r c l.x.c.s.J.Y.(.1XS.z.w u c.b.M.U.F.m.j.P.k.p.h.h.t.s.K.Y.F.U.I.T.n.v.K.Y.L.m.d.d.s.w.r.P.:XT.Y.8.m.d.a.m.8.b.R.T.,X'.'.'.<X'.'.'.{.,X,X{.U.'.,XY.A.j.j.x.g.E M M  .E 0Xc.d.K.,X'.4X2XaX.X.XvXvXhXlXbXkXkXkXhXhXlXjXjX2XjXvXdXT.R.,X8.A.4.t.eXP.z.x.l.c.x.g.l.l.x.x.qXl.l.qXiXiX0XiXuXuX0XeXeX0Xe J qXpXdX].2XvXnX3XsXlXXXjXvXjXjXvXjXjXvXjXvXaXaXvXaXjXnXbXvXjXvXfXgXa.J.pXgXnXvXjXcXjXaXsXjX2XsXaXvXaXsXsXvXsX2XdXsXsXdXdXpXpXR.T.pXpXY.;Xx.9 d wXpX,XpXdXdXdXfX<X[.{.pXwXpXgXwXK.Y.pXwXj.w.wXpXa.P.wXJ.Y.:XpXY.Y.pXMXMXnXMXMXMXmXjXfXfXgXwXwXwXpX;Xz.x.qX;XA.F.I.pXaXjXhX6XdXpXT.[.jXkXxX$X@X@XhX@X+X@XlX.X3XsXK.<.sXkXhXkXkXxXzXlXaX2XZ.[.vX3XXX|.aXaXjX3X3XhXhXhXjXcXjXlXjXhXlXjX3X.XaX2X.X.X6X6XXXoX@XXX X X+X+X#X+X@XoX`.'.[.'.'.1XG.>X:X6.j A.].@XXXXX XXX X XoX+X+X+XoX%X+X#X#X#X+X+X XoX/.`.].C.B.G.U.F.n.9.N._._.C.C.^.C.C._.Q.].^.C.^.G.C.C.C././.Q.Q.C.V.V.C.F.A.y.a 9 S h.8.b.b.A.j.t.g.F q H  .rX0XA A A K N H V N V I | tX| ] =.%.&.:.-.BX%.[ %.:.` ^ ] ;.%.] ! ^ ' #.:.] -.' ' W &.$.5 _ [ #.' :._ ! _ W 6 5 6 W ! ` ~ ! W Y 5 6 4 R ! 4 O .     o o @ & # # % & % # e q q r w w p p p d s s p p t t t y e x % ",
"z e q q r r r r r t t w t p p t t y w r y t t r u r q q % % & & X o X o 1 1 , ! _ ^ _ ] ) 3 Y O.W _ _ Y _ _ Y ;.&.[ $.=...| ..JXUXKXUXKX/ / GXFXHXHX&.O.;.$.' #.) O.^ ~ ' 5 ~ [ ^ / B B R V M M I I K N a F l.l.x.P.L.>XD.x.w t c.m.F.U.F.b.a.j.J.p.p.h.c.s.A.I.I.I.U.T.F.N.I.Y.K.m.d.d.d.w.5.J.K.T.R.m.J.d.f.f.i.i.S.R.,XI.T.{.1X[.[.1XpX<X'.'.1X,XT.Y.Y.L.P.x.-X0XM M  .J x.h.J.I.'.^.4XsXaX.XXXlXlXhXkXbXkXkXkXjXjXlXjXjX2XvXvXdXT.pX,XI.:Xp.s.wXP.P.-Xx.x.x.g.l.x.z.z.qXl.0XqX0XiXiXuXSXuXiXeXiX0Xq J qXpXdXsXsXnXnXvXjXjXhXlXvXvXvXvXjXjXvXvXvX3XaXvXjXjXvXvXjXvXvXnXgXJ.qXgXgXdXsXvXjX2XmXaXsX2XsXaXvXaXsXjXvXvXdXsXsXfXsX<X<X:XI.pXgXpXY.:Xg.9 s wXpXpXdXdX4X4XsX[._.T.R.pX:XP.;X:X:X:XY.z.r.wXpXp.J.wXd.Y.gXgXL.Y.wXfXnXgXMXMXMXMXvXfXfXgXwXwXwX:X:XP.P.qXqXL.Y.I.<XaXlXkXXX2X[.{.'.3XkXxXxX7XkXzXkX7X7XjXXX3XdXE.<.aXkXzXxXxXxXxXhX.X_.C..XvX3XXXXXsXsXvXaXaXaXjX3XjXlXkXkXlXjXlXlX6X|.XX.XXXXX6X@X@X+X@X@X@X X+X+X#X+X+XXX.X<X5X'.^.U.G.T.;X6.0 A.].XX6XXXXXXX@XXX+X+X+XoXoX%X#X#X+X+X+X+X+X X}..X].G.C.U.'.U.C.N.B._.G.C.Q.'.C.Z._.C.^.C.C.^.^.C.C.C././.Q.Q.C.V.V.V.S.j.e.p 9 S h.a.A.J.s.y.G A N K { yX .A J l.s Z A H N k V X.yX| =.=.] ~ ;.-.$.' &...` $.-.;.-.` ^ W ~ #.#.] ] :.-.&._ ~ ` 6 L ^ %.! ~ [ ` ~ 4 ! ! ! W ~ ! ^ ! ^ Y 6 5 R R B , +   . X X @ & & @ & q q q q # e e r t p p a p d d s s p p p t t y e x & ",
"z e r r r r r r w t t t t p p t t y u w v p p w r r q q q q # # & @ @ o X $ 7 4 6 W 3 ) _ #.^ 2 ^ ) ^ ) ! ) &.! O.%.[ ..HXtX( *.HXPXUXKXUXFX/ tXLXFXZXHX&.FX&.] O.^ ] ` ~ [ ^ ^ [ | / M M C C C 1 M V H N z y K l.x.A.;Xj.x.w d c.m.F.U.F.n.a.a.Y.m.u.d.s.r.A.I.T.I.T.T.I.N.F.F.K.m.m.d.d.p.w.A.b.T.:Xm.m.i.d.J.A.m.S.R.,XF.{.pX'.5X1X<XdX[._._.'.1X1X,X:X:XL.;XqX .M 1 H G l.z.J.Y.'.(.2XsXaX|.3XkXkXhXcXbXkXkXlXkXlXlXjXjX2XvXvXsX{.,X'.:X:Xd.j.eXP.z.x.x.x.x.l.g.x.;XP.x.l.0XqX0XiXiXiXSXuX0XiXiXrXe J eXpXdX4X4XsXvXvXjXlXkXcXvXlXjXvXjXjXvXvXvXaXaXvXvXjXcXvX3XvXnXnXR.f.qXwXpXpX4XcXvX4XvXaXsXaXsXsXvXaXjX3XjXjXaXsXsXsXdXdX,X,XM.pXfXpXY.wXx.9 s wXpXdXdXsXsXaXdX<X_.R.Y.gXP.p.j.P.:XpXgX;Xr.wXgXa.J.qXd.Y.gXgXD.:XwXdXfXMXMXMXnXnXfXfXgXwXqX;X:X:X:XP.z.qX;XY.R.I.[.aXlXkX6XjX2X{.G..XkXkXkXkXhXkXkX7XzXkX6X6XsXE.<.aXkXxXxXxXxXxXhXXX_.].aXaX3X6XjXsXdXaX3XaXaXlX6X6X6XhXhXhX6XkXlXjXXX3X3XhX6X8X@X+X@X8X8X@X@X8X7X#X+XoXoX3X2X].^.C.G.'.T.:X7.j J.2X@XXX X XXXXXoXoX+X+X+X+X#X@X#X#X@X#X+X+X X}.|.`.C.C._.{.{.G.Z.C._.C.^._.[._.Z.C.C.C.Z.C.^.G.C.C.^.^.!.Q.Q.C.V.B.V.S.j.y.s 9 S h.a.P.>.y.J u H rXI  .H H J A v F G U N k { rX{ B ( *.] [ ' $.&.#.' ..L :.=.:.:.[ L L :.#.:.%.NX-.NX$.^ ~ ^ 6 ! %.' ! ' ` [ L 7 ^ ^ ! 5 ^ 5 ^ 4 W W ! 5 R ^ 7 O       X o @ @ # & % 9 q q q q # e u w p p p s d d d b f s p p p t t e x & ",
"z e e r r w w r t t t p p p p p p a t w c p p w w w w r r q q e @ e # o @ X + ^ 6 5 Y 3 ~ ~ O.) 2 W ) W ) ) ^ &.~ ^ %.%...BXtX=.BXPXKXKXUXUXKX( ' GXZX$.HX-.ZX%.O.&.^ ~ ] ~ ^ ! ! ! | | B M C M M & & C H H e e K G g.-Xh.x.w w s.m.F.G.F.n.b.m.I.K.a.d.f.u.K.S.Y.F.I.I.I.9.S.S.K.M.A.a.p.p.u.J.M.{.T.i.i.i.J.L.K.K.K.T.,XF.pXdX[.2X<X<XdX<X_.'.<X2X<X'.F.I.:XeX0X .V M H J x.P.K.I.'.^.2X3XaXXXhXkXjXjXbXkXhXkXjXjXhXjXsXsX2XvXvXdX<XT.,XT.Y.j.j.eXP.P.x.c.h.;Xg.y.h.;XqXz.l.0XqX-XiX0X0XuXiXJ iXuXyXe E eXwXdX].4X3X3XsXjXjXkXbXcXjXhXlXlXvXvXvXvXjXaXvXvXhXvXmXvXvXnXdXK.u.d.wXwXpX2XjXcXjXjXdXsXaXvXjXvXaXvX.XsXsXaXsXsXdXdXdX<X,XM.,XfX:X:XwXx.9 s wXgXgXdXsXvXjXaXdX[.pXL.gXP.z.P.P.;XgXMXqXg.wXgXa.J.qXJ.L.:XpXY.:XpXfXnXMXMXMXfXsXsXgXgXqXqXqX:X:X:X;Xx.;X:X:X:XI.[.sXkXkXzXcX2X<X'.3XlXhXlXhXhXkXzX7X7X8X6X6XaXE.<.aXkXkX#X9XxXxXkXhX`.C.aXvXaX/.`.aXsX.X.XaX.XlXhXjX3XjX6X6X6XkXlXjX3X6XhXkXkX@X+X+X@X@X@X@X@X@X@X#X#X+XoX.X[.[.'.'.'.^.U.:Xp.0 J.2X X|.}.}. XoXoXoX+X#X+X#X@X#X#X#X#X#X+X+XoX}.}.`.C.C.C.'.'.G.G.G._.C.Q.C._._.C.C.C.G.C.C.G.G.C.G.^.Q.Q.Q.C.C.B.B.n.F.A.g.S 9 Z t.r.g.qXF z { { V } I V H A K F J J k H  . .V } } / | | ` ] FX-.] ~ ` FX%.&.;.( 7 ' &.' ] :.:.HXHX] ! W W W ' ;.] [ &.&.` , P $.( 5 6 B 6 ^ 5 ^ L W ! ^ R 1 +     o o o @ & & # # e 9 q r q r 9 r t w p p d s d d h f f s d p p t u e x & ",
"e e e r r w w w t w t p p t t a v v t w c p p w w 0 w w u r q q e # % % @ @ o   7 ^ Y W Y ~ _ ) _ Y Y ^ ^ ) _ ^ ' _ ` $.' ` FX*...BXJXKXIXUXKXUX..! FXHX-.-.&.ZXFX' ] _ W :.~ W W ! ! / ( M * C M M M x e H V V e A G -Xl.l.i w s.b.n.F.F.M.m.S.v.I.S.A.f.d.Y.m.I.S.I.Y.I.9.F.F.M.m.b.7.7.7.u.L.F.,XT.i.m.m.J.f.A.K.K.I.T.F.,X,X<XdX2X2XdX2X[.2X2X2X1X'.,X:X:XqX-XE V M J l.t.J.m.I.G.0.'.2XaXaXlXlXhXkXbXlX6XlX3X3X3XaX3XaX.XvXvX.XpXT.<XT.R.Y.j.eX;X;Xx.c.z.qXy.y.h.P.;Xz.-Xl.eX-XiXiXiXuXiX0XiXuXyXe  .eXwX<X2XjXsX4XjXvXkXkXkXlXjXlXcXcXlXjXvXcXvXaXvXvXhXcXvXvX3XvX<XgXwXqXgXY.,XfXvXvXjXvX4XsXaXvXsXjX3XvXjXvXvXsXsXsXsXsXfXpX,XI.T.fXT.:XwXx.9 d ;XgXfXdXsXlXhXaX2X[.pXL.pXwXwXeXwX;XwXgXeXg.wXwXa.d.wXJ.:X:XpX:XwXpXnXnXnXMXMXnXnXfXgXpXqXqX;X;X:X:X;XP.x.:XwXwXV.pXjXhX7XzXkX].pX<XaXXXhXlXlXhXlXkX7XxX8X6X6XaXE.<..XkXxX@XxXxXxXkXhX`.`.sXvXhX|.3XaXdX.X.X3X|.jXjXlX6XbXkXkXlXkXkX6X3XXX6X7X7X8X@X@X7X@X@X+XoX+X+X#X@X@XoX`.[.4XdX[.G.^.F.:Xj.0 J.dX X|.}.}. X XoX+X@X%X%X+X#X#X%X%X%X#X+X+XoX}.|.|.^.C.C._.'._.^._._.C.C.Z.C._.C.C.C.U.G.G.C.B.B.B.G.C.C.C.C.V.B.B.B.F.D.h.S 9 Z G F G Z A  .X.C 1 } V H U H U U U K U rXI C } | I | ....&.' &.^ ] ;.HX%.-.HX[ [ ] ..;.-.-.FXNX:.L ~ ~ ~ ~ $.] ) ` $.P ^ 5 ! ] [ ! ! 5 ! ) ! ^ ^ ~ ^ 4 5 >     o o o @ # & # # 9 q 9 q r r r u q t y t d d d f f h h g f f s s s a y x x & ",
"e q r r q u w t w p t w t t t t v v t 0 c c c w w w w w t u u r q r q % & & @ o   1 ! 5 ^ 5 Y ] W ~ _ ~ ! T ^ O.^ ~ #.5 ^ AX;.=.=...tXJXKXUXLXKXIX%.4 ] ZXHXZX$.O.&.O._ O.^ _ W W ! 5 ^ ( / B $ C M M x % 1 C { H K z J J J q w t.d.S.S.S.S.m.b.9.n.m.m.i.m.i.8.8.b.Y.Y.S.v.F.Y.b.M.b.m.m.7.u.L.I.U.T.M.b.i.u.m.L.M.I.S.M.I.{.pX<X2X2XdXdX2X].^.2X2X2X1X,X:X:XP.-XH C x E G q.d.J.R.1X1X<X<X[..XhXjXjXjXlXhX3X3X3X2X/.sXjXaX|.vXvX2X<X'.1X1X:XS.J.gX:X;Xh.t.z.;Xg.-Xh.P.;XP.g.l.-XeXiX0XiXuXiX-XiXiXyXx 0XeXgX1XvXcXvX3XvXcXkXbXbXkXkXcXcXcXlXlXjXvXlXjXvXvXlXcXvXnXaXfXfXY.L.wXpX:XU.sXvXvX3XvX2XdX2XsXsXvXaXvXjXaX3XjXvXdX2X2XfX,XT.pXfXpXpXgXgXx.9 l :X<XdX[.4XjXjXjXaX[.pXR.gXgXgXeXwXwXwXwXx.g.wXwX,.P.qXJ.Y.:XpX:XL.pXnXnXgXPXMXgXfXgXgXeX;XeXqXj.;XJ.qX;X;X;XwXpXpXpXaXkX9X9X6X`.[.[.aX|.aX.XXXXXhXkXzXzX8XXXjX[.M.<.dXkXzXxXxXxXxXzX3XQ.`.aXlX3X4X3XaXsX[.].`.`.sX3X6XlXcX6XjX6XkX6X6X6XhX@XhXzX+X+X8X@X@X@X@X@X+X+X#X#X+X}._._.]._.^.G.B.V.L.6.0 J.].!.|./.!.}.XX X%X+X#X+X%X#X#X#X%X%X#X#X+XoXoX|.|.`.^.Z.[.<X0.0._._.Q.Q.N.C._._.Z.B.G.C.B.B.C.G.G.G.G.G.G.Q.C.U.C.B.V.Y.r.F 9 A G Z A  . .V V 1 } } / {  .U H N k yXVXU I rXX.*.X.*.&.=.$.&.] &.HX&.` FX-.( ;.=.%.;.&.-.GXHX-.' L [ ! _ #.] ;.] ` [ 7 4 [ *.~ ^ P 5 ~ ^ ^ Y 5 ! W 4 < O     X o @ @ # # # # q i i r t w w r w q v t p p s f f h g g h h f d d s p u e x & ",
"e q e r q w w w t p p t t t r r y y w w c p s p p p p p p t w r r r r i q % & @ @   $ 6 B 5 ~ 5 ] ^ Y _ ) ) Y 6 ~ Y ^ ;._ ~ FX-...tXtX*.HXLXKXUXLXUXLX^ 5 O.-.FXLX%.) &._ #._ Q _ ] ^ B ^ / ] B 1 V M % M 1 1 1 M  .H z z J # r l.s.d.L.L.K.L.wX9.M.b.m.u.d.i.8.8.<.b.S.I.b.M.F.F.F.S.S.S.i.a.R.F.G.U.M.m.m.b.L.Y.K.Y.F.M.{.pXdX2X4X2X[..X2X2X2X3X2X2X1X,XR.:XP.-X .M M K F r.J.L.I.1X1X,X<XdXaX3XlXjXjXcXjX2XaXsXaX|.sXsX3X.XvXvXdXpX{.2X<X,XK.S.gX:X;Xh.t.z.;Xc.x.s.P.:XP.g.x.qXeX0X0XiXiX0X-X0X0XyX% E 0XpXdX2XjXjXvXcXcXkXkXbXkXkXcXkXlXlXcXjXlXjXjXvXvXvXvXvXnXsXsXfXT.L.wXgXR.G.sXvXjXjXmX2XsX2XsXaXvXaXvXjXjXaXaXdXdX2X<XdXpX,XpXdXdXpXpXgXx.9 S wXdXfXdX3XvXjXvXaX[.,XR.pXeXeXwX:X:X:XwXh.r.wXwX,.L.wXP.:XpXpX:XY.pXnXfXMXPXPXgXgXfXgXeXqXqX;Xx.wXP.qXqXqXqXwXpXpXdXaXkX9XzXjX`.{.[.hX6X}.!.!.}. XoXoX+X X|.6X.XK.<.dXjXzXxXxXxXxXzX6X/.^.3XhX X X3XaXdX.X[.].`.jXaXlXlX6X3X6X6XkX6X6X X6X@X7X7X+X+X7X@X7X7X@X+X+X+X7X@X+XoX].].].]._.'.C.F.:Xp.0 J.[.!..X|.}.}.@X@X+X#X#X%X#X#X#X#X%X%X#X#X+XoX X X}.Q.Q.Z.].].Z.Z.`.`.Q.Q.Z.Q._._.B.V.B.G.U.G.B.N.B.F.n.F._._.C.N.C.T.T.D.g.Z # N K N K H V M V B | /  . .rX{ C o.rXyXI yXX./ *.=...tXtX..( ..GXLX%.%.GX( [ ..-.BX-...%.] :.NX-.[ 6 W ~ _ ` ~ :.] ~ 6 ` ' ] P 5 6 [ [ 5 ! ~ ! 6 4 , 8 .     X @ & & # # # 9 q i r r w t w t t u w v a t p f f f g g g g g h f d p p t e x & ",
"q e e u r q w w t p p t t t r r u t r w a w p d d d s s p p t t p w r r r q q % & & X   B ! 5 ~ 4 ~ _ 6 _ ~ ^ Y W ] ^ 5 _ O.~ ~ ' ..=.*.&.LXGXLXUXLXGXGX&., Y ;.HXKXGX&.] ^ ] ^ _ ^ Y ~ ~ ! [ ] V % M M M M 1 1 M % H H e N % q S D h.P.j.d.P.wXb.D.b.m.u.d.a.u.5.i.P.S.S.v.M.F.F.S.n.n.b.8.i.K.F.U.U.n.m.A.m.K.I.I.T.F.F.<XpXdXdX3X2X[..X3XsXsXsX4XsX1X,XR.:XP.G  .C V K S 4.u.K.K.,XpXU.'.dX.XXXkXjXhXvXaX2XsXsXsX3XsXaX3X4XvXvX2X[.'.2XdXpXL.S.gX:XL.h.t.z.;Xl.l.r.P.:XP.c.qX-XeX-X0XuXiXiX0X0XrXAXx H 0XpXdX|.6XvXvXcXkXkXkXbXzXkXlXkXlXvXvXhXjXaXaXvXvXvXvXvXvXvXsXfXdX:XwXgXT.2XvXcX6XjXnXaXvXsXvXjXvXlXvXlXvXjX4X2XdXdXdXdXdXT.S.U.pXgXpXwXh.9 f :X<XfXdX4XjXjXjXaX[.pXpXgXgXgXwX:X:XwXpXj.s.wXwX,.L.wXJ.:XpXpX:XR.pXvXfXMXPXMXgXMXfXgXwXeXqXeX;XwXP.qXeXeXeXpXfXfXaXhXkX9XzXjX_.{.[.lXkXhX}.}.hXkX6X@X8X6X6XjXsXR.<.dXjXzXxXxXxXxXzX6X`./.aXhX X X3X3X[.2X[.].`.sXaXsXjX4X3XjX6XkX6X6XXX@X@X7X7X+X+X8X@X6X6XXXoX X+X8X+X+XoX`.].^.^._.'.C.T.:Xs.j J.dXXX|.3XXX X@X@X+X#X#X#X#X#X#X#X#X%X#X#X+XoX+X X/.!.^.Q.^.^.Z.Q.`.`.`./.Z.^.^.U.B.B.C.U.'.U.B.0.B.F.F.F.G.G.C.n.n.F.Y.a.e.w # N C  . .V V I C B | X.{ rX} { } X.=.yXX.( X.BXX.=.-.=.-.LXKXKXFX' ' ' 6 ] -.=.HXHX%.-.$.:.[ ( ! 4 ~ [ #.:._ 5 L ^ ~ ~ ' ` 5 6 ' [ ! 6 ~ L ! [ ^ , +       X @ & # # # 9 9 q i r w w t t t a t t w v t w p f b g g n 4.4.4.n f d d p y e x & ",
"q e e u r q t w w t t w t u u u r y r u a p p s d d s f s p p p s p t p t r i e e @ @ o X $ ~ B R 5 ! ' 5 ~ _ O.3 3 ) ' W ^ &.$.' ] =.&.&.&.GXHXtXKXGXFXHX%.6 6 ^ O.HXGX;.#.~ ) W ) _ ~ ) _ ` ^ B { 1 % M 1 C C % C M x V V @ & K F e.g.x.x.x.s.a.b.i.d.p.j.p.u.w.p.P.K.K.8.M.T.T.I.F.S.M.b.S.R.'.{.T.n.v.m.i.b.M.M.T.'.'.dXdX2XaXaX3X2X2XaXsXsXsX3XsX1X,XR.:Xz.0XyXV M A F r.d.J.K.,X<XF.F.{.`.3XlX3X.XjXaX2XsX<XsX4X2X2X2X3XcXjX].'._.2XdXpXI.S.pXwXL.h.h.z.;Xl.x.t.z.:XR.c.x.-XeX-XiXuXiXiX0X0X0XJXx H qX:X[. XjXvXvXvXkXkXzXzXzXkXlXlXlXvXvXjXjXaXaXvXvXvXvXvXvXcXaXsXnXpXgXpX'.vXbXcX6XvXvX.XsXaXjXaXjX3XjXjXvXvXaX<XdXdXdXpXdX,XF.U.dXgX:XwXh.9 s ;X,XdXdX4XsXsXjXsXaXdXdXpXpXpXwX:X:X:XpXA.p.pX:X<.L.wXA.:X,X,XR.:XdXvXfXMXPXMXMXMXgXpXwXqXqXeX-X;X;XqXeXeXeXgXgXfXaX6XzXzXkXaXU.U.[.lXbXcXlXlXlXbXkX7XkXhXhX4XdXK.1.pX3XzXxXxXxXxXxXhX|.|.lXjXXXXX3X.X].<X'.'._.aX2X3X.X4X4X3X}.3X3X6X X6X7XzX7X@X@X@X@X6X6X@X6X8X8X8X+X7X@X2X2X|.].`.[.`.1X:Xk.0 j.'./.}.3XXX X X@X+X#X#X%X#X#X#X#X#X#X#X#X+X+X+XoX/.Q././.Q.C.Q./././.`.`.Z.Q._._.B.B.U.F.n.n.n.F.F.F.S.M.n.B.V.E.M.A.j.6.l.A % U X.} { { C 1 1 } | B / X.} | =...P =.} =.=.tX*.*...GXKXIXKX%.' ` ~ ..LX=.HXGXGXGXFX] $.[ ^ ` ~ ^ ' $.$.] ~ ~ ~ ~ ^ ^ P [ ! ~ ! P 7 ~ ^ ^ ^ 5 8       o o @ # # # # # q i i w w w t t t p a w t r z t w p b m m g 4.6.4.4.n f f s s a e x & ",
"e e e e y r y r w t t r u u u y r N t t a c c s d f b b f d d d s d d p p t w u q & & @ @   + , ! ^ ! 6 ] ^ ~ _ O._ Y ^ _ ^ W ) ` ~ ` %.-.HX%.tXKXKXUXKX%.$.;.~ ) _ O.DX;.) ' O._ ^ ^ _ _ W W ) ( / / B $ 1 1 M C % M V 1 V V % N z c G l.l.g.x.p.a.8.k.t.t.w.5.r.h ,.d.L.8.b.pX,XT.I.I.S.M.I.,X'.{.'.n.v.m.i.v.M.N.G.1X2X2X4XsX3X3X3X3X3XaXaX3X3X3XsX<X,XR.:Xx.iXrXR % A e.w.i.i.I.,X:XH.F.C.[.aXlXaX2XsXsX2XdX^.<X2X].2X2XaXnXsX].{.'.2X2XpXY.L.pXpXL.z.c.x.qXl.x.h.j.P.wXt.l.;XeX-XiXiX0XiX0X0XrXJXM K qXwX2X3XkXlXlXcXkXkXzXzXzXzXkXlXcXvXvXvXvXaXaXvXvXvXvXvXlXbX3X3XvXfXfXU.'.cXcXkXhXnXvX.XsXaXjXaXlX6XlXlXjXvXsXdXpXpXdXdXdXpXpXpXpXpX:XwXx.9 S :XpXfXdXfXjXvXjXsXaX4XdX1X,X:X,X,X,X,XpXj.7.:X,X<.R.wXL.:X,X,X:XpXfXvXnXPXPXMXMXMXfXpXwXeXqXeXz.;XqXqX-XiXeXeXpXsXhX8XzXzXjX2XI.T.<XkXzXzXkXkXhXhX6X7XkX6X3X|.<XK.1.dXjXxXxXxXxX9XxXkXXX3XlXkX8X@X X|.2X[.'.[.].aXaX3X|.3X3X3X|.4X4X6X X8XkXzX7X7X8X8X8X6X3XXXXX6X6X8X@X@X+X|.2X4X2X|..X/.G.:Xp.j d.].}.}.XXXXoXoX@X+X#X+X%X%X%X#X#X#X#X#X#X#X#X XoX/./././.Q.C./.]./.`.|.`.Z.Q._._.B.N.F.n.9.9.F.G.F.n.8.b.V.n.v.d.j.h.n e.A H  ./ / I I B * V } X.} ( *.=...BX..~ ..] ..-.BXFXBX&.-.KXBXGX..( / ` LXUXKXKXLXLXLX=.' ..~ ~ ~ 6 ! ;.-.$.` ~ ` $.` L L [ ' [ ^ 5 P :.P 6 ! ^ 4 o     o X @ # # # # 9 q q w w r w t t p p t p a t y r z z w p b S b m 4.w.5.4.m f b b s y e e @ ",
"e & M q y u t w t a t r u u e u r N u t t c c d f f m m f f f f f d d d d p p t u q e & & X   . $ 5 ! ! , ~ ) 6 W ] _ Y 5 W W ~ ) ] ` _ $.' BXFX&.FXLXKXKXGX;.%._ W ' W DXFX;.#.' ' ' ^ W ) ^ W B [ B ^ / * % M % C & % V M C / M e u Z A Z G -Xr.p.u.j.t.t.4.4.g 4.5.,.a.8.m.R.T.F.F.F.n.b.F.T.G._._.M.M.S.M.I.,XF._.<X2X2X2XsX3X3X.X|..X3XaX3X3X2XsX<X,X:X:Xx.iX .R % K l.5.<.v.I.T.U.H.F.U.dXaXjXsXsXsXsXdXdX<XdXdX<XaX2XaXvXsX[.<X'.2X2X<XI.L.pXpXA.z.x.P.qXc.x.x.d.J.qXt.l.;XeX-XiXiXiXiXiXiXyXJXM A qXpXvXXXhXlXvXbXbXkXkXzXbXbXkXlXcXvXsXvXjXaXaXvXvXlXvXcXcXbXlX2X4XdXdX'.dXcXkX6XlXnXvXaXvXjXvXlXcXjXcXlXjXvXsXdXdXdXdXfXdXpXpX{.T.T.:XwXg.9 l :X,XgXpXfXsXvXsXaXjXsXsXdX<X<XpXpXpXpXpXj.p.:X,X<.R.pXL.,XpX,X,XpXfXvXnXPXPXMXMXMXpXpXpXeXqXqX;X;XqXqX0XiXqXwXpXsX6X7XzXbXlXpXI.R.<XkX9XxXxXxXkX7XzXzXkX6X4X4XdXL.1.2XcXzXxXxX9X9XzXkX3X3XjXkX6X6X X.XaX[._.[.[.aXaXsX|.3X3XjX4XjX3X6X X X8X8X+X8X@X@X6XhX.X|.|. XXXXX@X+XoX|.4X3X3XXX.X/.G.Y.a.j J.]. X}.XX XoX+X@X#X#X%X%X%X%X#X#X#X#X#X#X#X+X XoX}.|./.^.Q.Q./.`./.|.}./.Z.Q._._.B.N.n.n.n.M.F.I.F.n.b.b.n.N.i.r.y.S F Z K rX} B / B P } } | | *.*.=.GX-.-.NX] ..*...%.HXHX~ ' -.KXKX-.6 ( ..=.KXKXKXUXIXKXBXFX=.' ~ ^ 6 ~ &.-.;.) ! ' ~ ` ' ( P ( *.] ! ] ! ! ` ~ ! 5 - .     o & @ @ # # 9 9 q r w r w w t p p p p p a a y A y N z w p b b f m 4.6.r.4.g f f b s t x % @ ",
"% # N q u y r r t a t u r r e r e z r t p c s f f h h g g h h f f b f d d f s p a r e & & o o   . O 6 P ~ 4 5 _ Y ] ^ _ ^ 3 ) ) _ ^ ) ' ` &.$.&.FX%.-.GXKXKXKXFX-.' _ #.) O.;.-.;.$.&.O.] _ ) _ 5 5 ~ ^ ! / C 1 % 1 M 1 $ 1 R * { V N z N K Z s q.5.5.h.y.e.D e.h s.h.>.7.7.m.Y.T.F.T.I.n.n.U.{.G.^.'.F.F.I.F.T.dX'.1X2X4X4X|.3X3X.X|.|.3XaXhX3X3X2XsX<X,XR.wXx.iXyXR x G -XJ.Y.m.M.T.1XH.F.{.dXaXaXsXaX2XdXsXdXsXfXsX<XsX2XaXvXsX[.[.'.4X<X,XF.S.:X:Xa.z.x.P.x.c.x.x.s.J.R.e.x.eXeX-X0XiXiX0X0X0XuXJXM N -X:XsX@XkXlXlXbXbXkXkXbXbXbXcXkXcXlXaXvXsXaXaXjXvXvXvXvXcXbXbX6X].<X<XsXnXcXlX6XcXvXsXaXvXjXvXvXcXjXlXhXvXvXdXdXdXfXdXfXpX,XR.F.F.T.wXwXg.9 s ;X,XpX,XdXdXvX3X3XlXjXjXvXsXdXdX<X1X<XdXA.a.pXpX<.R.wXS.pXdX<XpXfXfXvXnXMXMXMXMXnX<XdXpXeXeXeXeX;XeXeXiX0X0XqXpXjX8X7X9XbXhXpXI.wXdXkX9X9XxX9X9XzXzX7X7X6X|.3X2XK.1.'.8XkXkXxXxX9XzXkXXX3XlXkX6X6X6XXXaX[._.[.[.2X4XsX|.|.|.2X|.3X|.4X|.).@X@X+X8X8XXX6XlX3X|.3X3X X3X8X@X+X6X8X6X6X6X6X3X2X1XD.j A.].). XXX}.oX+X8X#X#X#X%X%X%X#X#X#X#X#X#X#X#X+XoX}.}./.Q.^././.Q./.|.}./.Z.Q.^._.B.B.N.n.M.F.F.F.F.F.S.b.v.v.f.q.S A K rXrX .( ( ( ( ..} | *.X.| | -.FXNX#.$.:.:.$.| %.` ' %.GXFXFX[ P ( =.BXKXKXKXUXGXBX-.=.BX=.] ^ [ ;.FX-.' ~ ~ ' ' ^ ( ` ......( [ ! ^ ! ! 6 ! ! +     o o X @ & # # q q w w w w t t t p p p p p p p y A K z z z t p s b f g n 6.r.6.n h f b c t e % @ ",
"e # V q u y w u t a t u u e e e e N r v a a s b m m m g g h h d f m m f h m m s w r q % x o   + o   X 7 B 6 6 Y ) T ) W _ O.3 ^ _ O.W ~ #.` ] %.` %.%.%.FXLXKXUXKX-.#.#.#.' ) %.%.&.;.] _ O._ _ _ ^ 6 ^ ` P B C M % * 1 1 $ * B $ C H M e N A v b m g y.D D m e.y.e.q.w.J.7.i.R.T.G.U.G.n.b.I.T._.'.{.T.U.F.F.{.,XU.1X2X4XsX3X3X3X3X2X4XsXjXjX4XaX4XdX[.,XR.wX;X0XyXV N G x.P.R.S.M.,XpXY.F.<X[.aX.XaX2XG.{.dXdXdXdX2X].sX2XaXvXsX[.[.'.2XdXpXY.S.Y.L.7.z.;XP.x.x.c.c.s.z.P.q.x.eXqXl.0XiXuX0X0X0XuXAXM H qXpX4XhXkXcXlXbXzXkXzXbXbXbXcXkXvXjX2XvXsXaXaXvXnXnXnXvXcXbXmXcX].2X[.vXnXvXvXkXbXvXvXvXvXjXvXcXbXkXlXXXjXjXdXdXdXfXpXpXpXpXpX{.T.:XpXwXx.9 Z ;X:XpX{.pXdXfX2X2XvXjXvXsXsXdXdX<X[.2XfXD.a.pXpX9.{.pXI.<XdX<XpXfXfXvXmXMXMXMXMXnX<XfXgXwXeXqXwX;XgXuXiX0XqXqXgXvXkX8X8XkX3X{.I.,XdXkX9XxX9X#XxXzX8X8X@XjX|.3X2XE.1.'.jXkXkXxXxXzXzXkX|.3XcXlX6X8XkX3X|.dX[.<X[.2X2XsX].2X|.2X2XjX3XaX3X XzXzX@X7X8X8X6X6X}.}.3X3X/.~. X+X+XXX4X X|.}.|.|.`.,XD.j K..X@X X X).).+X@X#X%X#X#X%X#X#X#X#X#X#X%X%X#X+X X/./.`.Q.^.].^.!./.}././.C.^.G.G.n.F.v.v.b.n.S.S.S.S.b.8.a.A.t.l K  .rX{ { X.| ( I ( ( ( *.=...*.*.$.' ;.#.` ] %.( ^ ~ ] -.KXGX[ 5 ( *.-.GXUXIXUXKXKXNX=.-.] ~ ! ~ -.DX;.~ ` %.$.] ! 5 ( =.' ( ^ ] ! ^ ] 6 P 5 6 , .     X o @ & % # # 9 q w w w p p p p p p d p p p p a a A E N z z t p a s f f n 4.5.6.n f m b b c e % @ ",
"% # e q y y r w p p p t u e e e e N e N t Z G S D f m h D f f d s s f g m n g f s w r r e @   o @ @ o X $ B B 7 ! 6 6 Y ! W ^ ] W ) ) _ _ ' ] $.AX&.O.%.O.;.ZXHXUXKX-.&.;.' ` ' ZX;.;.&.#.^ _ _ ) #.^ 6 ` $./ B 1 * % % 1 1 % @ 7 $ * V M e N u A Z c S y.D g t.t.q.e.w.u.,.<.K.B.^.^.C.8.i.Y.,X^.].^.'.Z.G.U.{.T.U.'.[.2X2X3X8XsX3X4X4X4XaX3X4X3X3XsXpX'.,XwXP.0XrX{ e G x.L.Y.L.L.Y.R.I.M.T.<XdXdX].dXpXG.,XgXpX'.'.C.vX3X3XvXaX[.dX[.<XdXR.P.I.:XA.u.j.j.J.P.x.x.x.t.c.x.g.qXeXeXqX0XuXiX0XiXyXyXAXM K qXwXsXaXjXkXkXkXzXkXkXbXkXkXbXmXvXaX.XmXvXvXsXnXvXnXcXlXcXbXbXbXjX.XsXvXvXcX3XlXjXcXjXjXcXcXbXcXcXkXcXjXlXsX[.[.pXdXdXpXpXT.I.,XpXR.wXwXg.9 Z qX:XpX{.pXpXfX<X_.dXsXdXsXsXsXsX2X<X4XfXF.A.pX<X2.[.vX[.<XsXdXfXvXvXvXMXMXMXCXMXfXnXnXgXgXeX;X:X:XeX0XiX-XeXgXfXsXhXjXhXaX2XU.I.{.fXbXzX7X7X7X8XkXkXkX6X3XXX3XdXm.1.dXjXkXzXxXbXkXbXlX|.vXlXjXlX6XlXhX4XsX[.C._.dXdXdX<X]..X.XsX.X].jXXXkX@X+X+X+X+X+X+X@X+X X+X@X@X@X+XkXoX6X|.Z.Z.|.Q./.0.D.k.j I.|.+X@X XoXoX+X+X+X#X+X#X%X+X#X+X%X+X%X+X#X#X+X+X@X}.`._.Z.'.^.Z.].]./.Q.Z.V.I.I.m.v.9.v.n.M.K.L.J.f.<.7.j.t.l U rXo. .X.*.X.( ( | ( B ..=.X.*.tX=.[ -.;.] #.%.` [ ` ` &.FX:.5 ` [ ' %.:.=.KXGXGXUXLXNX%.:...^ &.FX-.=.' $.~ ) ] 4 ! ( ..| ` [ 5 L ] ~ R ! B , O     X o @ @ # # 9 9 9 q w w w p p p d d d d d f d s s p Z A  .z z z t v v c c s n e.6.4.m b b s f c u % @ ",
"e # e q r t w w p p p y y e e e e N e N y v F b D f m f D f g f s s m n 4.4.g f f d t t e # X + & & & o o $ 1 6 > ) 5 < Y ) ^ Y ' ! ~ ) $._ ] O._ ;._ ) ] O.O.;.-.FXKXFX;.-.O.~ _ HXLXDX-.;._ ) +.Q _ ^ ~ ` ( / ^ B 1 $ % M M % $ 1 $ $ B V M N N r v S F y.D q.t.g g q.5.,.,.Y.G.].(.G.8.<.I.T.C.G.C._.C.G.G.{.U.U._.[.2X2X4X3X4X2X2X2X4X3X3X3XsX2X2X'.G.T.T.j.0X0XH e b h.L.Y.:X:XR.Y.K.K.T.,X[.dXfXfXpX,XpXpX,XpX,X'.sX2XsXvXaX[.dX[.2XfXwXJ.H.:XJ.f.z.z.P.;Xh.x.x.y.t.t.g.x.qXqXqXeXuXiX0XuXAXyXHXM J eXpXfXjXlXcXbXbXbXbXbXmXbXbXbXcXvXaX2XnXsXsXsXvXvXcXcXjXbXbXbXcX3X|.3XcXmXcX3XcXcXcXcXlXcXkXbXbXbXkXbXjXlXjX2X2XdXdXdXpXpX{.V.R.pXR.wXwXg.9 a qX:XpX{.,XpXdX<X'.dXfXsXvXfXsXsX4X2X4XsXT.S.pXpX2.[.vX2X2XsXsXvXjXjXvXMXMXMXMXMXfXfXfXgXpXwX:X:X:X;XqX0X0XeXgXfXsXsX[._.dX{.T.I.R.dXcX7XzXkXkX6X6XjXkX6XhX}.|.dXJ.h pXvXbXbXbXkXkXcXlX|.vXvXlXlX6XjX6X3X].dX<X<XpXpXdX<XsXaXdX2X.X.X3X3XhX@X+X@X8X8X7X7X9X7X7X7XxXzXzXkX@XoXXX|.]._.[..X5X'.:X;Xj T. X+XoX).oXoX@X@X#X#X%X#X+X+X#X+X+X#X+X%X+X#X+X+X@X|.^.C.V._.U.Z.].`.^.C.V.V.Y.K.m.v.M.v.v.m.S.m.f.u.w.r.D G 0X0X . .*.=.*.( | ../ B I ....=.BX` ! FXGX$.&.;.] ' #.L BX=.~ P %.[ ^ -.FXFXBX-.KXUXLX&.%.~ ] ' =.GX*.*.=.*.] [ ~ 5 ^ $.~ ] ^ P ~ ~ W W ~ R B 1 o     o o @ @ # # 9 9 9 9 w w t p p s s d d d f f f f s s p Z A J y z z t v Z v a s m 6.r.4.m b b s f c u % @ ",
"e # e q r t w w p p a t u e e e e N z A v c F f m g n g 4.g g f l S n 4.6.4.n m f d p y z # X @ % % & & @ X + > ' < 6 ^ 5 Y Y _ Y #._ Y _ ' _ &.O.^ %.-.) _ #.&.;.-.%.ZXFX%.-.-.&._ HXKXZXDX;.) #.-.~ W Y ! ! ( / B M 1 % % % M 1 $ < * $ C I C M N N y Z S s g.t.6.4.4.5.5.w.P.F.'.].G.i.u.K.T.F.G.G._.V.C.V.T.I.I.U.{.dX2X4X4X2X2X4X3X3X3X3X3XsX3X4X<X'.'.,X:X0XrX{ x S h.S.Y.:XY.Y.Y.K.K.H.'.'.2XfXfXdXpXR.Y.S.,XF.<XsX2XjXvXaX.XdX[.dXfXR.A.T.pXL.z.z.d.J.wXh.x.h.g.g.g.x.qXqXqXeXuXuXuXiXuXAXyXJXM J eXpXfX3XjXlXkXzXbXbXkXkXbXbXcXcXnXnXnXnXjXjXjXnXcXcXcXlXbXbXbXmXlXaXlXmXmXvX3XlXcXcXcXjXcXlXbXbXbXkXbXkXlXjXaXdXdXfXfXpXfX,XI.pXpXL.wXwXh.9 a qX:XpX,XdXpXdXpX[.dXsXfXnXfXsXsXsXdXsXfXT.S.gXgX9.'.vX2X2XsXsXvXjXjXvXMXMXMXMXMXfXsXfXpXwXwXpXT.,X:XqX0X0XeXgXgXdXdX<X{.,XI.R.P.R.pXvX6XkXlX6X X|.3XhX3XhX}.|.dXA.h pXvXbXbXbXlXkXcXlX|.XXhXlXlX6XjX6XjX4XfXdX<X<X1XdXsXdX[.2X`..XaX|.6X7X@X@X7X7X7X9X9X7X7X7X7X7X7X7X7X+X@X X.X2X2X[.aX].1XwX;Xj Y.XX+XoXoXoX+X@X@X#X#X%X#X%X+X#X#X#X#X+X~.%X#X+X+X X}.^._.G.{._.C.5X'.C.V.V.V.F.V.M.b.m.b.m.J.J.d.a.d.q.d G 0X . .rX*.*.=.] ..&./ ( | ..&.FXBX$.=.FX' ' &.' $.~ 6 &.-...! ;.] ^ :.GXLX-.FX%.LXLXBX&.&.L %...LXKX-.&.&./ ^ [ ! ! &.;.' &.] ^ / [ ! ^ ^ ^ 6 1 +     X @ @ # # # q q q i q w w t p p d d d d f f h f f f s p v Z A z z z z v Z v a s m e.r.n f f c c f c u % & ",
"e # e q u t t w p p a a y e e e u z z A c c F b g g >.g >.>.g g D S n 6.6.6.4.n S s s a z # X @ e & # % % & o o + ^ 6 5 _ Y 6 Y _ ~ ~ ' ~ ] ) Y _ $._ %.ZXO.` #.;.;.%.&.ZXDX;.-.;.#._ ZXGXFX%.&.W ^ ;.) ^ ~ [ ^ / 7 1 1 C 1 & & 1 * 1 * $ * 1 V V M N N r y Z F e.w.w.h ,.w.w.f.M.F.(.T.m.f.L.Y.F.T.'.U.V.F.I.I.E.M.V._.2XdX4X2X2X2X4X3X3X3X3X3X4X2X4X2X'.G.'.wXiXrX{ N F k.D.S.K.v.b.Y.R.m.n.T.'.G.1X<X,X:Xb.m.b.n.v.<XfX2X3XjX3X.X3X.XdXfXL.A.:XpXL.P.z.d.J.;Xs.x.s.s.t.t.x.qXqXx.qXeXuXuX0XiXAXyXJXM A qXpXfXsXjXcXbXbXbXcXkXbXbXmXcXcXmXmXnXnXvXvXcXcXcXcXbXlXbXmXmXmXnXvXmXmXmXjX4XjXcXcXcXlXcXjXcXcXbXkXbXlXlXjXaXaXvXvXfXpX,XpXpXgXgXwXwXwXh.9 p qX:XpX,XfXdXfXpXpXdXdXfXvXfXsXvXsXsXsXfX,Xn.pXfX8.'.vX[.dXsXvXmXlXvXvXMXMXMXnXMXnXvXnXdXpXpXpX,X,XwXeXeX0XeXgXgXpXpXpX,XI.b.J.J.wXwXfX2X4X6X6X|.`.aXhX3X.X.X3X<Xd.h gXfXcXbXbXkXkXbXlX}.|.hXlXlXjXjX6XjXsX2X'.dXfX1X[.<X[.].].].3XsX.X3X8X7X7X7X7X7X9X7X9X9XxX7X7X7X7X7X+XhX X|.[.2X].2X`.'.:XJ.j T.3X+X+X+X+X+X+X+X#X#X%X#X%X%X#X#X#X#X+X~.oX+X+X).)./.`.[._.'.^.C.[.^.C.n.n.V.F.F.b.a.<.u.p.s.s.p.p.q.S U H U yXyX} *.| ^ =.*.^ | &...-.-.&...%.%.&.-.-.%.-.&.&.FXNX:...:.^ :.HXFXKXLXNX..HXHXBX' ..-.;.FXHXHX=.=.tX` [ ^ ^ ~ &.;.] ~ ' ~ ^ ....~ ^ ! 7 $ X     + @ @ & # # q i r r w w w t p d d f f f f f f f f f f s s Z A y A z A v v v v v c n 6.4.m f s c s f c u e & ",
"e # e r u y t w s s c v y u e e z v z A c c g.q.g >.>.4.>.>.>.g D g g 4.5.6.4.n D f c c z # X & e q q q % & @ @ X   R ~ 4 ^ ~ 6 _ ) _ W _ ) _ ) Y _ ;.] ` -.$.^ _ #.DX-.;.FXDX&.FXGXFX_ #.FXFX^ $.` 5 &._ ^ ) [ R R B 1 1 M M % $ $ 1 1 1 $ $ 1 B V M % N N u Z n w.r.>.4.s.w.p.K.F.G.T.m.f.J.S.n.I.T.V.V.T.{.R.I.V.V.'.<X4X3X4X4X2X2X4XaX3X4X3X3X4X4X2X1XU.G.:X0X0XH e F s.D.F.S.i.v.I.R.M.n.U.'.G.'.T.R.R.A.A.L.A.R.,XfX4X3X3X.X.XsX2XsXdXL.K.,X,XK.P.P.z.A.R.j.z.s.h.s.s.;XqXqX-XeXeXiXiX0XiXuXrXJXe Z qXpXsXjXlXbXbXzXbXbXbXbXbXbXcXbXmXmXvXvXvXvXvXcXcXbXbXcXmXmXmXmXcXvXmXmXmXjX4XjXcXcXcXcXcXjXcXkXbXkXbXlXkXjXsXsXvXvXdXdXT.,XdXpXR.R.wXwXx.9 t qX:X,X,XfXsXfX<XdX2XdXfXvXvXvXvXsXdXsXfX,Xn.pXgX9.{.fX[.dXsXvXmXvXcXcXMXMXMXfXfXnXnXnXfXgXgX,XgX,XgXqXeXeXeXgXgXfXpXpXR.Y.A.P.P.;XwXpX2X.X3X3X.X.XaXhX.X]..XsXdXj.h gXfXcXbXbXbXcXbXlX|.3XlXkXkX6X6X X3XsX<XG.[.dX[.].[.[.sX.X3XjX3X3X3X8X7X9X9X9X9X9X7X9XxXxX7X7X7X7X@X+X@X X].C.[.[.`.].H.;XJ.j T.6X#X@X+X+X@X#X+X%X#X#X#X#X%X#X#X#X#X#X~.oX+X+X).~./.^.`.G._.C.0.^.C.G.n.N.M.S.m.a.u.a.7.5.p.h.r.q.S H I rXyXX.} ( / | tX] [ &.&.*.-.FX-.-.;.' ;.DX;.&.&.&.GXGX%.] ` ( ] BXLXLXUXKXHXHXFX-.] P %.*.GXNX&.-.] ( ` 6 ` ' $.=.NX` L $._ [ ` ] | _ ! W , o X o     o @ & # 9 q i r w t t p d p d d f f f f f f f g g g f f f S S t A z v v z y y v Z D n n m b s s s f S e e & ",
"u # r r u t p w s c c c z y y k z v v v c s g.e.4.4.>.5.,.5.>.>.q.g g 4.5.6.4.n D f b c z # X & e u r q q % % & & @   $ ^ 6 ^ &.6 W $.O.) O.;._ ^ ^ ~ O.$._ &.&._ ' ] ;.-.-.FXZX-.FX-.-.-._ ZXFX! ` %._ &.#._ O.^ ^ B 7 1 1 M M $ 1 $ $ 7 , O < 7 7 / / C C N z m 4.q.w.s.s.y.x.Y.T.G.I.f.3.i.v.i.M.I.n.n.I.R.T.T.I.I.U.[.2X4X2XdX<X<X2XsX3X4X4XjX3X2X4XsX2X'.:XeX0XV q m k.L.Y.K.S.F.I.I.I.U.(.[.<XpXT.F.Y.K.J.L.L.gX:XfX2XsX3X.X3XjX3XsXdXK.Y.,X,XA.;XP.P.J.wXP.P.z.z.s.z.;XqXwXqXeXeXuXiXiXuXyXrXJXx A qXpXfX3XjXlXkXkXkXcXbXcXcXcXnXmXmXmXnXvXnXcXcXvXcXcXbXbXmXbXbXmXcXlXbXbXbXjX3XjXmXcXlXvXvXjXcXlXbXkXcXkXcXcXjXvXvXsX[.fX<XdXdXT.M.R.gXgX;X9 t qX:X,XpXfXsXnX2XsXdXsXvXdXfXvXvXsXsXvXvX1XG.pXdXN.pXfXdXaXaXlXmXkXlXcXmXMXMXfXfXnXvXfXdXfXfX,XfXpXgXP.qXqXeXgXgXgXgXpXpXwX;XP.P.R.R.[.aX3X3X3X3XdXaX3X.X]._.2XfXz.j pXnXcXbXkXkXkXcXkX|.6XcXhXhX3X6X3XjX4XdX1X'.<X<X2X[.2XvX2XaXjXXXjX6X7X9X9X9XxXxX9X9X9XxXxX9X9X7X7X+X@X@X3X|.G.<XdX].4X(.;XL.j T.XX#X+X+X@X7X#X#X#X#X#X#X#X#X#X#X%X#X+X~.oX+XoXoX}.}./.`.^.'.G.0.^.G.G.n.v.b.m.d.u.5.k.u.u.h.g.S G 0X .yXX.X.=.( ^ =.FX..&.$.$.=.=.FX&.DX-.%.ZX;._ &.&.%.HX-.%.%.' | -.KXLXUXUXLXGXKXNX&.&.....%.HX..-.=...! ! [ %.-.=.-.=.' :.:.[ ! &.` ! ~ ~ 5 >   X X @ X   o & % i i r w w p p p d d d d f f g g f f m g g g g g f f F S p A u z z y r u A S F n n n b s p p s S e e % ",
"N # r r u a p w p s c v y u y N z z v v c d g.q.4.4.,.5.,.5.,.>.q.g >.6.6.6.4.q.q.g m S A # X & y t u t y u e & & X @ X X B ( 5 @.O.! ) ) _ ) ;._ ) ^ 4 ` &.$.$.$.O.#._ &.ZX%.;.-.&.GX%.&.ZX^ %.FX] 6 ' $.O.' _ $.^ 6 B V C 1 * C 1 * 1 - , 6 > , B / / { V % N a d n D e.q.q.s.K.I.G.T.f.>.u.i.v.M.Y.M.n.n.I.T.{.T.U.'.[.2X2X2X<X[.[.dXaX.X.X4X3X3X|.|.sX2X'.:XeX0XH q S j.Y.Y.Y.R.T.T.I.I.T._.<XdX<X{.Y.K.K.d.L.L.:X,XdX2XvXsX3XaXjX3XvXdXS.L.1X<Xm.wXL.L.A.wXP.d.j.d.p.z.P.P.qX;XeXeXuXiXiXiXrXyXJXe v qX,XfX3XlXkXkXzXbXbXcXmXbXbXmXmXnXvXvXvXnXcXcXcXmXcXcXbXbXkXcXmXcXlXbXnXnX3XaXjXmXcXvXlXvXvXcXlXcXkXbXcXcXcXjXvXvXaX'.dXfXfXdXdXpXpXMXgXqX9 t qX:XpXdXdXsXnX2XvXdXsXnX[.sXvXsXsXfXvXvX'.'.fXdXn.pXfXsXjXhXkXmXkXlXcXmXMXMXnXfXfXfXdXsXdXfX<XfXpXpXP.;XJ.wXgXgXpXpXpXgX;X;Xh.P.Y.{.Q.XXjX6X3XaXaXaX3X.X.X^.5XfXz.j pXnXvXkXlXlXjXkXhX/./.lXhXhX6XjX3XnX^.dXdXdXsXsXdX].3X3XaXhX3X3XjXhX7X9X9X9XxXxXxX9XxXxXxXxXxXxXxX7X@X@X3X.XdXdX2X2X].U.:XA.j T.6X#X+X+X@X7X7X#X#X#X%X#X#X%X#X#X+X#X+X).oXoXoX X X}.].].^.[.G.N.G.G.G.n.v.a.p.s.w.q.4.q.y.g.G G  .rXtX*.BXtX] ] BXGX..%.%.-.;.%.;.' FX;.-.-.&.;.FX;.DXGX-.` ` ` *.LXIXIXIXKX%.=.HXBX=.=.] [ BXLX=.FXHX&.~ [ ;.$.' -.-.$.-.$.[ [ 6 ^ 4 ! ~ ~ <     X @ @ @ X X @ % q r w t p d d d d d s f f h g g g m m m n g g g g g g D b c Z w v z z y y A Z S n 4.n b s p p s Z e e & ",
"A 9 u u u a a p p p s a t u y k z z z v c d e.n 4.4.>.5.>.5.,.>.q.4.4.5.6.4.4.q.q.g n S v # X & v p p a t r e e % & & & X X 1 / 4 ] O.` O.) W ) %.O._ ^ ! 5 ' ;.&.&.&.O.^ _ ZXZX;.&.~ FXFX-.-.6 P &.$.5 ! _ _ O.' ] ` / B 1 1 M 1 B $ < 6 , , 6 6 , 4 ^ | / C M A F J G e.t.e.s.8.n.G.T.J.3.p.m.a.b.Y.S.S.v.F.T.T.U.U.U.[.].2X2X[.{.[.dX2X|.|.3X3XjX3X2X4X5X(.:XqX0XH e F z.Y.Y.Y.I.T.,XT.F.F.'.dX[.F.,XpXL.K.d.wXL.b.pXfX<XvXsXaXaXjX2XvXdXM.K.<X<Xm.wXP.J.m.wXL.d.P.J.j.P.qXqXqXqXeXeXuXiXuX0XiXyXyXq Z qX,X4X3XjXkXkXkXkXlXlXcXlXcXmXmXmXnXmXvXvXjXcXvXmXlXjXmXbXkXkXbXcXlXvXvXvX3XaXcXmXcXlXhXvXlXcXlXcXlXbXbXcXjXaXsXvXsX<X<XfXdX'.fXpXM.Y.gX;X9 t qX:X,XdX2XsXnX].sX2XsXvX2XvXvXsXdXsXvXsX^.2XvXdXn.pXfXvXvXjXkXmXkXkXcXvXMXMXMXnXfXfXdXvXdXfXfXgXpXpX;XL.wXfXfXfXpX:X;XP.h.;Xh.wXpXdX/.6XbXjX3XhXjXjXjXhX3X].4XgXz.h gXnXcXkXbXkXkXcXhX}.!.hXlXkXkXjX4XvX<XdX'._.[.2XsXvXsX|.jXjX3XkX6X6XzX9X9X9XxXxXxX7X9X9X9X9X9XxX9X@X+X+X|.].nXpX_.2XC.H.:XA.j :XhX+X@X+X+X+X+X#X+X#X+X#X+X%X#X#X+X+XoXoXoXoX).}.|././.`.^.[.G.2.B.n.F.b.a.p.s.t.e.q.e.y.G Z J rXrXX.=.%.&...%.-.-.&.FX;.;.-.ZX;.$.-.&.-.&.:.-.-.-.GXFX&.%.] ] HXIXIXIXUXKXBXGX-.%.%.%.^ :.LXLX-.BXFXIXFX&...' ..BX&.=.=.' ! ] %.[ 6 [ ` 5 $     o o @ @ & X X @ q r w w d d h f f f f f f f g 4.4.g n n n n n 4.>.g h g q.s S S r A z z N N A A D e.4.m f s a a c Z q % & ",
"i 9 r i r t s p p s p v v y N e x N N v v s s m n h h >.5.w.5.>.4.r.r.5.5.5.r.r.w.6.4.m Z 9 o & v d s s a t t r q % % & @ @ o o ] 4 ~ %.] ;.&._ W _ O._ ' ) 5 ~ O.' O.$.;.#.) ;.-.FX;.^ ! =.LXGX*.^ ( ] 6 ! ^ ~ _ ` | ( B B B 1 1 1 M 1 ! 6 6 > < Y 5 4 ^ | ( C e x J A G y.g.p.<.9.H.'.J.r.1.i.b.i.m.S.v.v.F.T.n.G.'._.'.2X2X4X[.'.'.'..X2X.X}.4X3X4X2X2X2X<X:X0X0XU e F z.L.S.Y.F.'.F.,XS.T.F.'.'.<X,X:XwXY.7.Y.Y.S.T.G.<XvXsX.XjXjX2XvXdXS.S.<X<XS.wXJ.J.J.L.:XJ.d.P.d.P.qXqXwXqXuXuXuXuXuXuXrXrXAXx Z ;XpX3XjXlXbXbX8XkXmXcXbXlXlXlXjXjXlX3XjXlXcXcXjXcXjX6XmXbXcX6XlXlXcXvXvX3X.XaXnXmXcXjXhXvXvXjXlXlXhX6XhXlXjX2XjXvXdXvXnXdXdXsXdXpXR.a.j.;X9 w x.:X,XdXfXsXvXsX4X[.sXvXsXdX<XsXnX2XsXsX2X.XsXdXB.pXfXdXaXhXbXbXbXkXmXMXMXnXnXMXMXdXnXvXvXvXdXI.R.wXP.Y.dXsXnXfX,XwXwX;XqXqX;XP.gXvX X8XkXkXhX3XhXjX6XjXjX4X4XdXz.h wXdXjXkX6XkXkXbX6XkXbXbXhXkX3XhXlXsXsX<XdX'.sX[.vXsXjXaXlXjXjXkX6XkXzX9X9X9XxXxX9X7XxX9X~.9X#X9X#X#X#X+X}.aXdX[.dX<X^.<XwXJ.j T.6X7X@XXXXX@X@X+X+X+X%X+X#X+XoX+X+X+XoXoX XXX~. X/.|.`.^.^.^.G.H.F.F.b.7.7.d.s.4.g y.s F K  . .{ X.tXtX%.%.-.$.&.tX-.;.;.DX;.FX%.-.;.&.#.;.FX;.;.HX-.=.-.( &.UXIXIXIXUXUXLX-.=.:.&.&.[ -.HX%.BXLX%.FX=.%.( ] -.&.` ;.;.] ] %.$.] [ P ` 4 +     o @ & # # % o X & q u d d d h h h h h f f g g g >.>.>.n n n 4.g g >.>.>.r.e.m S S v A A N y y A A S e.q.f f l a p c Z q % @ ",
"r 9 u r r t p w s s p c A z N x x N z y v a s D n g h >.5.w.4.>.>.w.w.5.5.5.r.r.w.4.4.n c 9 o # a d d s s p t u r q q & # & @ @ o ^ 6 R ~ ' ;.#.] ^ _ _ ) _ ` ~ ^ ] $.-.;._ ] &.&.%.HXHX%.B ^ HXKXHX*.^ B L ! ~ ! %.$.| ( 7 B B 1 * 1 7 B ~ ~ 3 Y , 3 Y Y ~ @.| } C M N J F F 4.D.F.H.T.d.w.,.z.d.m.Y.Y.M.n.U.T.U.T.T.G.'.2X2X2X[.{._.'.[..X|.|.4X4X2X2X2X2X<X:XeXiX{ % l.x.D.Y.F.F.'.G.,XY.,XU._.1XpXpXpXpXwXS.m.pX:XT.F.dXvX].].jXjX.XsXdXS.m.1X<Xb.wXJ.A.J.L.:XA.P.P.P.P.qXP.eXeXuXuXuXuXiXyXyXyXAXx F qXpXsXjXhXlXbXkXkXbXlXbXkXbXbXlXaX3X3XjXcXcXmXjXcXlXjXbXbXbXjXhXaXvXvXvX/.Q.jXmXbXcXcXlXcXnXlXlXlXjXhX3XjXjXaXvXvX2XsXsXsXvXfXpXpXpX:X:XqX9 w x.:XpXfXdXsXvXsX2X[.sXvXfXsXsX4XsXdXdXfX2X2XdXdXC.pXvXdX2X3XlXcXbXkXbXmXMXnXMXMXMX[.dXfXsXfXdXpXgXpXY.,XvXvXvXfXR.wXeXeXuXiXqX;XpXsX6XzXbXbXbXlXbXbXzXkXjX4X3XdXJ.j I.'.jXlX@XhXkXbXkXbXbXzX6X6X}.3XjXsX'.dXsX[.sXdXvXjXjX3XkXkXkXkX6X8X9X7X7X9XxXxX9X9X9X#X~.9X9X9X#X9X@X+XXXjXdX'.[._.C.T.:Xj.j R.3X@XlXhX@X@X+X+X+X@X+X@X@X+XoXoXoXoX@X).~. X}. X/.!.`./.^.^.T.F.b.8.u.5.p.p.5.q.q.d G H  .{ I *.tX=.&.FX-.:.%.-.;.%.FX-.FXDX&.DX-.#.#.HXNX-.FXBX-.-...*.KXIXIXIXIXKXUXNX=.=.=.-.%.] HXBXLXLXGXFXHXLX%.~ -.-.%.-.KXFX] ] :.` ^ [ ` B o     X o @ @ # # # e @ X % r p d h h h h h h h g g g >.>.>.5.4.6.4.4.g g >.4.4.4.5.6.h b F Z A N z y y A Z S e.e.m b S a p s Z q e @ ",
"r 9 r u t t p w p s p v v z N x x x u z A a d n D g >.>.4.5.4.>.>.w.5.5.5.5.w.w.w.4.4.n S q X # a f f f s d p t t q i 9 % % # # o   1 6 R ~ 6 ' _ _ W _ O.~ ) ) ^ ~ ) FXKX-._ O.&.&.] ;.HXGXtX( | FXtX] ..! 5 [ ~ 4 @.=.| $.^ 1 / V - 6 6 R 6 W 6 Y 6 4 R R R | ( | / x u K J m a.n.H.Y.k.t.4.z.u.a.Y.Y.b.n.F.F.T.,XT.G.'.<X2X[.U.I.G.U.].[.|.].2X2X2X2X2X2X<XwX0XiX{ # -Xx.A.L.F.F.'.G.,XT.T.F.G.<XdXpXdXgXpXpXI.pXpX,X'.dXdX[.`.jXvX|.4XdXK.b.<X,Xi.wXL.f.J.L.;Xj.P.z.P.z.qXP.eXeXuXuXuXiXuXuXyXyXAXe A ;X:X2XvXhXjXbXbXbXcXcXbXkXbXmXbXjXjXbXvXcXcXmXjXvXcXjXbXcXvXjX|.3XsXsXvXQ.`.vXmXbXbXbXjXcXcXlXlXkX6X6X6XvXcXjXvXvX2XsX2XsXvXsXpXpXpX:X;X-X9 q x.:X,XdX2XsXvXsX[.2XsXsXsXdXfX'.<XdXdXfXdXdX2XaX^.<XvX<X[.2XsXcXcXbXbXmXMXnXMXMXnX[.<XvXvXjX<XpXgXR.Y.pXsXvXnXgXL.P.eXqXiXiXqXeXgX4XcXkXkXzXkXkXkXkX7X8XXX/.4XdXJ.h :X<XvXlX6XhXkXbXzXbXbXkXkX6X/.3XjXaX^.dX2X[.dXaXsX3XhX6XkXkXkXkX6X8X9X9X7X9X9X9XxXxX9X+X~.9X9X9X#X9X$X7XhXjX2X'.'._.C.H.P.k.j R.XX+XXXXX}.}.~.~.).oX+X+X+X+X+X+X+X+X@X!.!.|.|..X^.^.].].G.B.T.Y.b.u.p.6.4.e.e.f S F J  .H C =.BX' ..-.-.-.-.FX-.;.AX&.DX-.&.-.#.' $.-.-.BXGXLXBX=...LXIXIXIXIXIXKXHXFX$.=.-...&.=.FXFXGXGXLXNX-.;.] &.$.-...' ..-.:.$.` ~ [ ~ ! ,       X @ & & # # q q e @ o % u d h h h h h >.h h h g >.q.4.4.5.5.w.6.>.g >.4.5.5.5.5.5.f S F A A z z y y A Z D e.e.n b b s p s c q e # ",
"r # i u y t p p p s p v z z N x N x x A K v p b D n n >.4.5.4.>.>.,.5.5.5.4.w.w.r.5.4.4.S q o @ a f f f f s d p p w r q q q # % & & X $ / ! ` ! ] ;._ W _ _ &.&.] ~ O.' O.-.;.O._ ! ;.%.B $.tX*.*.| &.*.` ! &.] ~ ~ ~ $.%.$.@.] B / R ^ 6 5 4 ^ 6 6 W Y 4 6 R ! ~ ' ( / C x A S 4.7.D.L.h.e.g z.,.f.L.L.v.9.F.F.F.{.T.G._.'.[.G.F.I.T.,XdXdX2X|.2X|.2X<X2XdX<X:X0XrX{ % J l.x.S.Y.T.'.(.,XT.T.B.B.'.[.U.'.T.F.F.,XfXpX1X<X<X2XdX[.jXjX].dXdXL.a.pX,Xi.wX;Xp.J.L.;Xj.z.z.z.z.qXx.eXeXiXuXuXiXuXAXyXyXAXx J qXpXfXjXjXhXkXmXbXcXbXbXcXbXmXcXlXmXmXlXnXcXmXjXvXcXjXmXvXjXjX`.3XaXaXaX.XvXmXbXbXmXkXkXbXcXlXlXjX6XjXjXjXjXaXvXvXaXvX2XsXfXsXdXpX:XJ.;X-X# r x.wXpXdX<XsXsXsX].sXsXdX[.<XsX[.dXsXsXfX<XsX[.aX].dXvXG.{.<X<XfXsXcXbXmXMXnXMXnXnXfXpXvXcXjX1XdXgXL.T.1XsXsXnXgXL.P.qXqXl.0XeXwXpXsXcXhXkXzXzX8XkXzX9X7X8X|.4X<XJ.h pXfXvXlXlXkXbXbXzXzXzXzXbXkX/.aXlX2XdXdX].dX4XsXjXjXhX6XkXkXkXkX8XxXxX9X9X9X9X9X9XxXxX#XoXxX9X9X#X9X$X@XkXjX2X'.[.[.'.H.A.k.j R..X@XXXXX}.}.~.oX+X+X+X+X+X+X+X@X+X XoX/./.XX`.|.^./.`.[.B.9.T.R.m.p.4.t.y.e.S l J 0XK J H  .X.( ] %.=.-.FXtX=.tXtX-.HX%.$.GX-.FXFX%.-.HXFXBX..( HXIXIXLXKXIXIXIXKXLXFXLX$.:.NX-.=.HXLXNX%.%.-.=.FX` &.:.] $...;.&.] [ P ^ ( B O     o o @ @ # # # 9 w r e @ o q p f h h h >.>.,.>.>.h g >.4.5.5.5.5.5.4.>.>.>.w.w.5.7.7.w.n S F A N z z y y A Z m 6.4.m m b s p b Z 9 e # ",
"u 9 i u t t t p p c v v z z N N N N N A J Z s b n 4.4.g 4.6.5.4.5.w.5.5.5.4.6.w.p.5.5.6.F q o @ a f f f f f d d p p p w r r q e e @ % @ @ 7 | @.! 5 &.O.~ _ ^ O.%.$.' ~ _ ) ) ZXDXZX] | *./ / | =.*.| &.| ] ..| ( ( ^ ` ] ` O.%.] B ^ ] R Y ! Y Y 4 6 Y 6 4 Y ~ ) ^ ! @.| V M e b e.k.x.y.D f x.>.u.L.Y.m.n.F.F.9.R.Y.I.F.F.'.T.I.I.T.,XpXdX2X5X2X5X5X1X<XpX1X:XiXrX{ M A l.x.D.Y.T.'.(.,X,X1X,XG.1X[.'.<X<X{.[.pXnXdX_.<X2XdX2XsXsXsX.X2XdXL.a.pX,Xa.wXqXf.J.P.P.h.z.;Xx.x.x.g.eXeXiXuXuXiXyXyXyXyXHXe J qXwXfXsXjXlXlXbXbXbXbXbXbXmXbXlXkXbXbXlXbXcXvXsXvXvXvXcXcXjXjX`.2XaXdX_.aXnXnXcXbXbXhXkXbXbXkXlXjXhXlXhX3X3X2XsXvXsXvX2XsXvXfXdX{.Y.L.;X-X# t ;XwXgXdX<XdXdXdX'.sXsX<X[.2X2XdXvXsXnXnXpXdX[.dX2XvXMXT.gXgXpXfXdXvXcXmXmXnXMXnXnXfXaXvXlXlXsXfXgXpX,X1XsXfXnXpX:X:XgXeXqXx.eX;X'.sXlXlXzXxXxXhXkXbXzXzXzXXX3X2XJ.1.pXfXvXlXlXbXbXbXzX7XzXzXbXkX/.jXjXaX2X[.[.vX2XjXcXjXkX6XkXkXkXzX8XzXxX9X9X9X9X7X7XxX9X9X7X9X7X9X#X9X$X#XkX3X5X[.<X<X1XT.P.h.j R.|.+XXXXXXXoXXX+X@X+X@X+X+X+X+XoXoX).).}.|.|.Q.`.Q.Q.^.].G.n.Y.Y.p.4.r.n g.G F 0X0XA v J  .{ I I =.NX-.-.-.-.FXFXFXHX&.-.FX] -.BX%.-.BXtX..( BXUXIXKXHXLXUXKXBX-.=.-.-.%.&.FX-.BXLXKX%.HX;.&.' :.` %.;.-.#.%.%.&.~ ^ 5 P B , +   X o o @ @ # % q q 0 w w u @ o e p m h h 1.1.>.>.>.>.h g 4.5.5.5.5.7.5.5.4.4.w.w.5.,.5.5.p.e.S F N y z N y N A S n 6.6.n m b d s b c q e % ",
"u 9 r u u r t t t v v v z N N N N N z N K A c m m 4.4.>.>.6.5.4.5.,.5.5.5.4.4.w.p.w.5.w.F i o # p f f b m f f s d d c p u t r u # e e @ & X o ( -.$.Y _ &.' O._ ' ' O.%.#.O.#.^ -.$.-.&./ ( ( / &.( &.JXFX=.*.X.*.^ ( ^ ^ ] _ _ %.$.R 4 ' ~ 4 ! 4 Y 6 3 W Y 6 ~ Y ) ) ^ / { { M A F g.x.G S f h.>.w.J.:XL.S.I.S.v.R.Y.Y.F.M.T.,XT.Y.T.T.{.1X<X].5X5X1X1X1X<X,X;X0X ./ M z F x.L.Y.R.'.G.T.,X,X<XG.[.[.[.<XdX4X4XdXvXsX[.sX<X2X2XfXvXsX2X2XdXP.i.pXR.A.qXqXd.J.P.z.h.t.x.h.-Xx.c.eXeXuXuXAXyXyXyXX.yXtX% E qX:XfXvXlXcXcXbXbXbXbXbXbXmXbXkXbXbXlXcXbXcXvXaXnXnXvXvXvXmXvX_.].dXdX_.aXvXnXmXmXbX6XkXbXcXlXlXjXhXjXjX2XaXsXvXvXsXvXsXfXsXsXdXpXR.wXqX-X# r x.:XpXpXpXdXdX2X<XfXsX<XdXdX<XdXvXdXnXnXdXfX{.dX4XvXnX,XgXwXL.R.dXvXmXmXvXnXMXMXnXfXaXlXbXbXvXfXpXpX<X5XvXnXgXR.pX:XpXgXqXP.gXY.'.jXlXjXkXxXxX7XkXzXzXzXkXXX6XdXJ.1.pXfXsX3XlXkXbXzXzX8X7XkXbX6X|.jXaXjX_.<XsXvX].aXlX XkXkXkXkX7XkX7XzXxX9X9X9XzXxXxXxX7XxXxX7X7XxX9X9X9X#XkX6X].<X[.[.G.F.P.h.h :X].oXXXXXXXXX@X@X+X+X@X+X+X+X+X+XoXoX)./././.Q.2X`.C.^.(.B.n.S.J.r.q.D G Z J iX0Xv K J A U H V yXBX=.HX-.-.&...;.&.[ -.%.$.GXBX&.BX| =.=.tXLXIXIXIXIXIXIXKXGXFXBX%.' ;.-.FX%.;.LXGX-.=.-.%.` NXNXNXFX%.:.%.$.~ [ :.~ ! 4 $     X o X # # # # q r t d d p y @ @ e c m >.>.>.,.,.>.>.4.>.>.4.w.w.u.7.7.5.5.4.4.w.w.5.5.,.,.u.e.b A y e z z y y A G e.6.6.4.m b d d f c t z % ",
"u 9 u u u r t t w v v z z N N z N N z z A v c m m 4.6.4.4.6.6.4.,.,.5.5.5.4.4.w.u.u.7.r.F i o & p f S D m m m m b s c p p p u t r y 9 e % & o   6 ] -.) ] %.^ ] ^ ` ` %.;._ ] ] ' ] ' &.| | | } ^ *.$.P | BX*./ X.tX^ R _ Y ^ O.^ ) &.` 5 ) ' 2 6 3 Y W 3 W ^ 3 Y W _ ! ^ ! ( } V K G l.G S s r.q.>.p.L.K.A.S.m.b.Y.S.K.K.b.Y.R.:XR.R.{.,X<X2X2X[.1X1X1X1X,X:X;X-X{ V % N F x.P.Y.:X'.G.H.:X1X<XfXfXvXfXdX2X2X|.3XsXsXaXvX<X2XdXdXsXvX2X<XdXL.f.,XI.L.qXqXz.j.P.z.t.t.x.c.x.-Xx.eXiXSXSXAXyXtXAXyXtXHXx 0XeX:XfXvXaXlXbXbXbXbXcXcXbXmXmXbXbXbXbXcXbXcXcXsXnXnXvXvXmXnXaX[.'.<X<X_.dXvXnXmXmXkXkXkXcXkXkXlXjXhXjXlXaXvXvXvXvXsXfXsXfX2XdXdXdXR.L.wX-X# r x.:XpXpXpXdXdXdXdXsXsX<XdXdXdX2XsX[.dXfXpXpX{.dX4X2X<X,XJ.,.h <.R.fXmXmXvXmXmXMXnXvXvXkXmXbXvX2XT.T.<X3XvXnXfXI.dX<X1X1X:XY.gX'.3XjXlXlXzXbXxXxXzXxXzXbXbXhXjXdXJ.j R.pXsXXXlXkXbXzXbX7X8XkXzX6X3XlX.XsX<XfXdXsX4XjXlX6XkXkXkXkX7X7X8X7XxX9X9XxXxXxXxXxXxX8XxX7X9XxX9X9X9X$X7X X].dX<X[.B.S.P.h.j :X|.oXhXXXoX@X7X7X+X+X+X+X+X+X+X+X+X+X X}./.`._.aX].^.^.^.B.n.a.u.r.y.J A 0XuXJ t J l.J U { U rXyX| tXBX] &.-.%.%.%.-.&.-.GX-.FXHX*.tX-.LXIXIXIXIXIXUXLXGXFX-.;.:.;.FXFX$.DXHXFXDX-.%.-.` %.LXFX;.;.$.&.;.%.] _ _ ~ ~ - +     o o @ & & # # # # i w d j p y @ @ r c m >.>.,.,.,.5.5.4.4.4.4.w.u.p.p.p.7.5.5.5.q.w.5.7.<.,.u.4.s Z N k N N u u A G e.e.6.4.n b s s b c w r q ",
"e 9 y u t t t w u v z v A A A N z N A A A v v b m 4.6.>.>.4.6.4.>.>.>.5.5.4.5.w.u.7.u.w.F q @ # p f D D D n n n m f b s p a t t w w r e # % & @   > R -.;.] &.' ~ ~ ' ] ] ;.&.] O.] ' $.*.] P / ( ~ ..( ^ P / | / / / ^ ~ ! T W ) ! W _ O.! 3 ! Y 5 3 Y ^ 5 6 Q Y 3 ) ! ` ! 5 !  .E K K A A s g.y.h >.j.A.m.A.m.7.A.i.A.K.i.M.n.F.F.F.T.'.1X1X[.].1X1X1X'.:XR.;XJ  ./ & H F x.;XL.R.T.U.H.>X<XdXdXdXvXsX.X|..X]./.vXvX.XdX4XsX[.`.sXvX2X<XdX:Xb.,XF.Y.wXqXL.A.P.;Xx.x.x.qXx.-Xg.eXiXSXuXAXAXAXtXyXtXFX1  .iX;XpXsX`.3XbXbXkXbXkXbXbXbXbXlXkXcXbXlXcXcXcXsXnXvXsXnXvXvX[.dX[.[._._.nXmXvXnXcXhXkXbXbXlXkXkXlXjXlXvXjXvXvXaXaXdXsX5XfXfXdXpX,XY.J.;Xl.# i g.;XpX,X1X[.dX<XdXdXdX[.dXdXfX<X2X[._.pXR.M.U.dX<X'.F.:Xu.j j 1.:XvXmXbXbXmXvXmXnXnXmXkXbXbXmXdXT.R.<XvXfXnXsXC.vXjXsXsXdX,XfX5XjX3XlXbXkXbXxXzXzXkXxXxXbX6XhXdXJ.h pXfXvX3XlXkXzXkXbXzX8XzXbXkXkXcX`.aXdXdXC.C.sXjXlXmXkXkXzXkX7X7X+X8XxX9X7X9XxXxX9X7XxX+X7X8XxXxX#X9X9X+X+X/.^.dXdXdXC.F.P.h.j :X.X@XXX~.~.+X7X@X+X+X#X#X+X+X+XoX+X+X6X|.].].^.'.G.G.^.G.F.S.d.r.q.F J uXuXJ A 0X0XJ  . . .yXyXX.X.X...-.NX&.;.-.&.FXFX$.~ FX-.-.tXHXUXIXIXIXIXUXGXKXGX..[ :.%.%.FX;.-.FXLXLXNX:.;.' ' -.;.-.FX#.] ;.:._ _ %.~ ] 5 8 o X   X @ & & & # # i r r t d h h s y @ @ r b 4.,.,.>.,.5.5.5.4.w.5.4.w.p.a.p.7.u.u.5.5.5.,.7.u.a.7.p.6.d a N N N N y t Z F e.6.4.4.n m s b S S t y e ",
"% % y u p p w u r u v t v A K y a Z p A K N z A F 4.4.>.>.g 4.5.>.>.w.5.5.w.5.5.d.p.p.w.g.u o # Z f q.4.r.4.q.g D f d p p s c p w t u t r q q & & o o B *.&.O.%.%._ _ ] #.O.;.%.%.] $.] ^ ..*.| &.' %.%.$.] ] B R ! ! R ~ ] ~ 6 2 ~ O.W ^ _ W W T T 6 6 ^ ~ ! 5 5 5 Y Y ! ) ~ R / B { H N z z Z F g r.x.7.a.A.A.8.a.p.m.D.b.F.'.U.(.'.^.<X'.5X<X].'.<X<XT.T.:XP.eXuXV % C N x.P.I.T.:XT.Y.:XR.F.2XnXsXvXsX3XsXvX2X2XvX2XsXvX3XjXjXjXvXjX[.dX,Xb.T.F.I.:XwXL.J.P.P.P.j.P.P.;Xz.x.eXuXSXuXJXuXAXHXyXAXLXM { iX-X:X4X/.kXbXkXkXzXkXzXbXbXbXkX/.nXcXlXcXbXcXjXcXvXaXvXnXnXvXvXdX<X[.4XsXmXnXvXvXjXcXcXkXkXlXkXcXbXkXhXjXjXvXvXdX[.dXsXdXdXdXF.R.R.:X;Xg.# 9 x.P.:X,X1XdXfXsX<X,XpXpXfXdX[.2X2X[.sXdXpXI.pXdXB.'.dXR.:XL.L.wXpXsXkXkXlXjXvXcXbXmXmXbXkXmXvXdXS.R.pXnXfXvXvXvXcXcXaX[.fXfXaX4XhXkXkX6XzXxXzXzXxXbXxXzX7X8XXX2XK.h pXnXjXjXkXbXkXzXbXkX@XkXkXkXhXlXhX3X3XnXaXaXsXvX3XbXbX6XzXzX6XkX6X@XxXxXxX9XxXxXxXxX9X9X9XxXxXxX9X#X@X+X8X3X.X2X.XaX_.n.P.k.j L.4X8X@X X+X7X7X$X#X%X+X+X+X X X X X}.|.dX^.'.,XF.G.B.9.T.:Xp.t.F Z rXPX0XH H H rXrX{ U o.rX{ { X.yX} =.FX%.%.-.NXHXFX' -.;.NXHXNXKXUXUXUXIXIXGXFXKX-.-.-.HXLXNX%.HXGXGXHXKXFX%.-...FXFX=.-.-.#.;.NX;.' ' ^ 5 ! 5 O     X o @ # # # # 9 q i r p d h h h d N @ @ u m 6.,.,.,.,.,.7.4.>.5.7.5.5.p.a.p.u.7.a.u.7.a.a.i.b.8.A.5.w.d b G A y N A t D y.t.5.4.4.n m d s f s z q # ",
"& % y u p p w u r r y y v p v a d F s t e N N y S n >.>.>.>.4.4.4.>.w.5.5.u.5.u.a.u.a.w.g.t @ % S g q.>.w.4.q.D D b b s d s s d p a p y t r r q % & o X - ] %.~ O.%.;._ ] O.O.&.#.&.$.^ ~ | | &.` #.&.:._ ] O.&.' ! ) ) 7 ^ @.` ) 5 5 _ Y Y ^ ) T Y T 5 ! ^ ^ ~ 5 ^ 4 4 R ~ ) ! Y | B * V H z A F b e.z.p.J.L.A.8.a.p.m.L.n.n.U.(.(.'.^.<X'.1X5X5X'.1X1XT.T.T.R.l.0XV $ M e y.J.R.T.T.Y.T.R.I.B.dXnXvXcXjXjXcXmXjX4XvX2XjXvXjXvX6X8XcXaX[.dX<Xn.T.I.T.pXpXY.K.L.J.x.j.;X;XqXx.h.qXeXuXiXSXuXJXJXyXJXGX1 { AXuXgX4X4XkXmXkXbXbXbXbXbXbXmXlX|.mXnXcXbXbXcXvXvXcX3XsXnXnXnXvXsXaXsXnXnXmXnXvXjXsXcXcXkXcXlXkXkXcXjXkXlXjXvXvXdX[.dXdX<XdXdXT.,X:XwXqXg.# i -XD.Y.pX1X2XsXdX,X'.pXdXfXdX{.'.<X2X4XdX,XI.V.U.B.F.n.v.Y.Y.R.pXdXnXbX8XkXjXvXvXzXbXbXkXjXbXvXsXI.Y.wXgXgXnXvXlXkXkXjXaXsXvXhX3XkXbXbXkXbXbXbXbXxXxXxX7XxXzX6X2XE.1.,XfXjXhXkXkXkXkXzXkXhXkXbXkXkXkXlX3XXXlX3XaXaXjX3XlXkX6XzXkXzXkX@X6XzX9X7X7X9XxXxX9XxX9X9X9X9X9X7X#XxX+X@X|./.G.Z.C.[.F.;Xk.j L.4X+X6X X+X+X9X$X#X#X#X8X6X X X X X|./.].'.2.n.:XY.Y.Y.8.8.j.g.l.uXPXU K U rXrX .C } X.*.{ | *.X.| =.*.*.&.-.-.%.$.] -.%.$.DXGXLXKXLXGXKXKXFXBXLXKX&.FXLX-.&.NXFXHXLXLXKXFX-.BX=.FXLXBXHXNX;.-.&.] #.' _ ) [ 4     o o o @ & & & % q q i r t d d h h m s A # @ u h ,.,.,.,.,.7.7.w.>.5.8.w.w.p.a.u.p.u.a.7.7.b.i.8.i.i.j.w.6.h b F Z v A v w D t.p.>.4.>.n m d f b s y q # ",
"& % y u v p u u r i y v c t Z S p y.F Z u H H N b g >.>.>.4.4.4.g g 5.5.5.7.5.7.a.a.a.5.e.t @ % S g q.>.w.4.w.q.n D D b d s f s d c s s p u t e e # & & o $ ^ %.' 5 %.-.) _ %.#.O.&.-.$.~ ( ( ( ' &.%.;.] $.' ~ ` ' ` ~ _ ^ Y ) _ ' ~ Y _ 2 6 W ^ W T 4 4 6 5 6 ^ 6 ! 7 < ^ ) ^ _ 5 | / 1 M M N J Z S l.w.j.A.a.7.d.a.A.Y.Y.n.F.1X[.1X'.dX1X1X<X2X'.'.'.G.F.T.L.x.0XC $ M z y.A.R.U.G.T.1X,X{.U.2XvXvXlXlXjXcXnXnXaXsX2XvXmXjXcXlXjXcXsX<XdXdXV.,XT.,XpXpXY.L.P.z.x.z.;XqXwXP.j.eXeXuX0XuXyXJXJXyXJXJX7 } uXiX;X<XjXcXbXbXbXbXbXbXbXmXmXlX.XnXnXcXcXbXbXcXcXcXvXcXvXmXvXvXnXsXnXmXmXvXmXmXjXjXcXlXlXlXkXkXlXkX6XkXlXjXvXvXdX[.dXdXpXdXfX<XpXwXwXwXl.# i -XP.:XpX1XdXfXpX'.{.dXfXfXfXpX'.<X2X.XsXfXT.{.pXF.<XdXpX,XS.F.pXsXhX6X8X6X6XjXlXzXbXbXkXhXcXcXsXI.Y.wXgXfXnXnXlXkXkXlXsXfXvXlXhXzXxXbXbXzXxXbXbXxXxXzXxXxXzX6XdXE.j ,XsX3XkXkX6XkXkXkXzXzXzXzXkXlXkXhX6X3XhXaXsX3XjXhX3XkX6XkXkXzXkXXXhX8X8X@X#X8X9X9X7XxX9X$X#X9X9X9X#X@X+XXX/.^.[.[.[.1XY.P.g.j L.4XXX3X X X+X#X#X#X#X@X@X X X X X X|././.].C.I.R.b.a.A.d.P.e.0XPXuXH H  .rXU { }  .yX| | ..| ..tX&.=.] ' %.*.$.] _ $.%.;.' $.BX-.HXGXHXGXKXKXHXBXFXBX$.$.-.HX-.FXKXKXBX=.BX-.=.HXGXHXHX%.-.-.' $.;.' ] ] ^ >   X o X @ # & & q q q r i u t p d d h m m b Z # @ y h ,.,.<.,.,.7.u.w.4.7.p.r.w.p.a.p.p.u.u.<.7.b.i.7.i.a.p.w.n d F S c y y w 0 g t.s.>.4.>.m h d f b c y 9 # ",
"& % y u c p t w u i t v c p A S p m S G N K H A b n >.>.4.4.5.5.g g 5.5.5.7.5.u.i.a.d.5.F t @ % S g w.5.r.5.w.>.n m D S f f b f f b f c s p p u u z e % & X o 7 -.HX^ _ FX#._ ) %._ &.FX=.| | &.( | ~ ^ ' &.] ' ] ` ) ~ ^ ! ! ~ _ ] ! ) ^ O.) 6 Y Y 5 3 2 3 6 5 5 ] 5 4 5 2 W ~ T ! ^ ( V * M N N z v F m s.j.j.7.A.A.a.Y.:XV.C.{.1X1X,X<X'.'.1XdX'.'.'.G.G.T.A.qX0XV % M A g.S.T.G.U.1X<XdXpX[.[.aXvXhXlXjXcXvXmXaXsX3XcXcXlXcXcXvXcXvX2XpXdXV.pXT.pXgX:XL.K.P.P.z.z.;X;XwX;Xx.eXeXuX0XiXrXJXAXyXJXJXR } rX0Xk.1XvXlXlXcXkXbXbXbXbXbXbXhX.XnXnXnXcXbXmXbXmXmXmXmXvXmXvXmXMXjXnXmXmXcXmXmXjXbXbXjXlXlXjXkXlXkXhX6XjXjXjXvXsX2XdXdXpXpXdXpXpXY.P.qXx.9 i x.;X:X,X'.fXfX{.U.1XdXpXfXdXsX2X[.3X2XsX_.B.pX<X2.,XfXnXnX,X'.sXvXhX6XkX6XkXlXkXbXbXmXcX3XvXcXsXT.Y.wXfXfXnXnXlXkXlXvXsXvXvXlXkXbXzXzXbX7XzXbXbXxXxXxXbXxXzX6XdXK.h ,XfX3XlXlX6XkXkX7XkXzXzXxXzXkXlXkX6X6X6XjXvX3XvXcX3XjXkXkX6XkX6X XhX6X8X@X8X7XzXxX9XxX9X$X#X9X9X7X@X@XhX6XZ.Z.[.<X[.,XS.x.y.j ;X2X3X3X.X X X+X#X#X+X+X XoX}.|.|.}.}.3X|.Z.G.I.i.j.s.z.x.q.eXPXiXH { rX{ { { X.rXX.| } =...| =.` ] | ..' ' ] ..&.' :.] ~ ^ ' =.FXKXLXGXKXKXBXBXBX&.&.=.BXHXFXHXLXGX-.FX-.HXGXGXGXGX-.$.FX-.%.;.' ~ $.[ 7 +   X @ & # & & % 9 q q r r r u a s d f g m m b A # @ a g ,.<.<.7.7.8.u.w.4.7.a.p.r.p.p.p.d.a.7.<.i.a.7.7.7.a.u.r.n d g.S Z r q 9 0 D r.p.5.5.4.m h h f S c y q # ",
"& % y t c p t w t r a a c p c p b b c S z N K A m 4.4.>.>.4.5.5.4.>.w.u.p.p.7.a.8.i.a.5.e.u @ # S g r.w.p.5.w.4.4.n D D m m m h g q.n m m s c p u N u % % & o X $ $.GX' _ ZXO.&.#.#._ ] ;.-.&.&.@.( ` [ ~ ~ | ' ] $.' ~ ! Y W ~ ! ! $._ ) Y ) _ T Y ^ W 6 3 5 Y ) 6 ) ^ 7 6 6 Y ^ 3 6 5 | / $ C M N N K s e.g.h.5.A.J.i.F.,XG.C.G.'.T.'.U.U.U.{.dX'.'.1X1X1X'.S.-X0XR * x z t.Y.'._.'.<X2X<X].`.|..XlXhXkXkXcXlXcXjXjXjXmXvXkXbXlXjXvXvXdX{.pXV.pXT.pXpXR.K.L.P.z.z.h.P.;XwXP.j.eXeXuX0XiXrXJXyXAXJXJXB { rXeX;X1XmXvXlXcXkXbXbXbXbXmXnX3XaXnXmXmXcXbXmXbXcXcXcXcXjXcXlXbXmXvXmXMXmXcXcX4X3XmXvXlXcXlXjXlXcXlXlX6XjXjXjXvXjXsXsXdX<X,X,X,X:XA.A.;Xl.# 9 x.P.:XT.1XsXfX<X[.<XpXdX[._.vXvX.XsXjXjXQ.dXvX{.N.pXdXnXnXnXvXsXhXbXbXzXbXbXbXcXbXbXbXcX.XjXnXvXpXR.,XpXnXnXnXkXkXbXjX.XaXvXcXkXbXxXzXbXzXbXbXbXxXxXxXbXxXzX6X2XE.j :XfX2XjXhX6XkXkX6XzXxXxXxXzXzXkXkXkXlX6XcXlX4XcXmXXXkXbXkX6XkX6XXXhX6X6X7X7XxXxXxXxXxX9X9X9X9X9X$X#X+X@XkX|._.[._.U.,XK.z.y.d ;X<XXX.X.X|.@X7X@X+X#X+XoXoX}.}.}.`.!. X|.C.B.b.u.z.t.x.l.CXPX0X .rXrXU } yXyXyX| | | ../ =...( ' ' ~ ( ] ( ] $...] ~ ! ~ $.%.tXLXUXLXHX=.FXHX..| *.BXHXLXGXHXHXBXBXKXLXHXHXGXHXBX-.-.GXBX=.&.*.=.| B $     @ @ @ # % q q q i i i r u r t c s s f g h m b Z # @ v n 5.<.<.7.7.8.i.w.4.7.a.s.r.p.a.p.d.p.7.7.a.a.7.7.7.p.w.r.n f l.G F N r w p t.q.w.p.5.4.4.m f f b s z q # ",
"& & y t c s t u t t v p c c Z p s S b S N K K A m 4.4.>.g >.5.w.5.4.u.p.p.p.7.a.8.i.a.5.e.u @ 9 F q.r.w.p.5.w.w.r.q.D D m D n h g 4.4.4.n h m s p w z N e q % &   + 5 FXZX_ ) O.O.-.#.) ] $.&.` / ( | ] &.` ` ' ' ] &.&.) ~ ) 5 ^ ~ W ) O.$.3 W W T Y ^ Y T 6 , R ~ 6 R ~ 6 2 3 6 ^ W 4 4 / / $ M C V H A F y.g.r.h.J.a.n.,X^.^.C.U.U.'.U.'.T.,XpXG.G.1X<X<X1XY.g.0XV % M z h.I.'.[.2X2X4X2X].`..X`.hXlXkXkXkXcXlXlXcXcXmXkXkXbXjXjXvXvXdXU.dXC.pXT.,XpXY.S.Y.P.z.x.h.P.P.wXP.x.gXeXeX0XuXrXAXyXAXJXJXB { yXiXqXdXmXnXcXbXbXbXzXmXmXbXcX.XjXnXmXvXcXbXmXbXcXcXcXcXcXmXbXbXnXvXmXmXmXcXjX`.8XmX6XlXcXlX6XlXcXkXlXkXlXjXjXcXvXvXvXfXdX<X<X,XwXA.P.qXg.# 9 x.P.L.:XdXsXdXfXfXdXdXvX<X[.vXmXsXvXcXlX`.2XsXC.2.dXfXnXfXjXjXjX6XkXbXkXbXmXmXbXbXbXcXcX.XsXnXfXpXR.:XpXnXnXcXkXbXmXjX`..XvXcXbXbXbXbXbXbXbXbXbXbXxXxXbXxXzX6X<Xm.j R.dX2XaXhXhXkXkXzXxXxXxXzXxXzXzXzXzXkX6XbXlXXXlXmX}.kXbX6X6X@X@XhXXXXX6X6X6XzXxXxX9X9X9X9X9X9X9X9X#X@X+XhXsXpX{._.pX'.S.h.y.d z.U.].].`.}.XX@X@X+X+X+XoXoX}..X`././.!.0.^.T.m.s.D F l.PXuXH rXyXo.U X.yX*.X.*...| ..( ../ ] [ ' ..! ^ [ ~ ( ` ~ ' &.[ %.HXKXUXLXFX&.FXtX*.( P *.FXLXFXtXBXtXFXLXKXGXLXGXHXFXFXFX-.tX&.*.=.*.] P 1 .   X @ @ @ & q 9 w i w r r r r t t a c s f f g h 4.m A # @ a 4.7.8.<.7.7.8.i.w.5.p.a.s.r.p.a.p.a.u.7.p.a.u.7.7.7.p.h.y.n s G F v A r r c c.q.5.p.5.6.6.m h f m s z q # ",
"# # t t c s p t t t c a c c F Z 0 b c Z v N N v b q.q.>.g >.w.w.5.>.7.p.p.p.7.a.a.i.8.7.g.t @ 9 F w.r.w.p.5.u.w.r.q.q.D n q.q.g h 5.4.4.4.g m d b s p u q r e # & o   6 O.&.O._ %.#.%.-.O.) @.;.*.] | @.` [ [ 5 ` ] ~ ~ ' ] ~ ' ~ 5 ^ ^ _ ] O.) _ T 5 W W ^ ^ 6 R 6 R R Y ^ 5 2 6 , L P P 7 1 } 1 M C V A J J l.g.e.x.A.n.'.^.`.].'.C.'.'.<X'.{.,XV.F.'.1X5X5XT.g.0XC & N A x.I._..X3X4X3X3X3X}.aX`.XXlXkXkXkXbXbXcXcXcXmXkXkXkXjXjXvXsXdXG.dXU.pXT.,XpXL.S.:XP.x.x.h.P.P.wX;X;XgXeXiXiXiX0XuXyXuXAXJXB { rX-X;XfXvXmXcXbXbXbXbXbXbXbXvX|.sXvXmXjXlXmXmXbXcXcXcXmXmXmXmXmXvXvXmXmXmXmXjXjXmXmXcXjXcXjX3XcXcX6X6XlXcXlXjXvXvXvXvXfXdX<XpXpXwXA.P.qXg.# i -XP.L.:XdXsXsXvXnXdXdXnXsXvXvXvXcXcXcXlXjX|.sXU.2.fXnXvXvX8XkXbXbXkXkXbXzXmXmXcXbXbXbXmX2XsXnXfXpXY.R.,XnXnXcXkXbXmXjX`.`.lXbXbXbXbXbXbXbXbXbXbXbXzXxXbXxXzX6XdXJ.j R.<XdXaXaXhXhXlXzXzXxXxXxXxXxXxXzXzXkX6XbXjX3XcXmX}.hXkX6X6XXX3XlX}. XXX6X7X7X7X@X#X9X9X9X$X9X9X9X#XxX@XhX.X{.T.U.{.F.b.h.g.d z.F.].`.`.}. X@X+X+XoX+XoX}.}.`.`./.`.^.0.F.K.d.x.-XiXPX0XN  .rXrXo.} X.*.X.=.*./ / ..=.~ ( | ^ / ! ^ ` ^ P P ] =.*.=.-.%.GXKXHX&.-.=.` ! ! ..-.KXKX=.FXtXBXHXLXLXFXFXFXKXBX=.FX-.=.*.tX=.../ B $ X X o @ @ # % 9 9 w w w w t t w t p t a s s f g 4.g 4.n A # @ a 6.8.8.8.8.7.8.a.p.w.p.d.p.r.a.a.i.a.p.7.a.a.p.p.p.5.w.h.e.D p S F y A r w s t.w.w.p.7.6.6.n h g m s y q # ",
"# # t p b c p p t t c s c p Z Z p F c c z y z G s 4.w.4.g 4.w.w.w.5.7.a.a.8.7.a.A.i.i.u.g.t @ 9 D 4.p.u.a.7.u.5.5.4.4.4.n 4.q.>.>.5.5.w.5.>.4.h f m s p a w 9 e % % X X 1 @.' #.] ;.#.O.O._ O.%.$.@.@.&.' &.$.] $.^ ` ' R 5 [ [ O.O.Y Y ^ ! O.-.;.O.O._ T T ) ) 2 ! ! 5 Y W W 5 3 W W 7 6 B B 1 / / C C N K K A l.S x.P.S.G.^.|..X].Z.^._.[.G.G.pXF.F.'.'.1X2X,Xx.iXH % N v P.T.^.|.4X4X3X3X3X}.nX.XaXbXkXbXkXbXbXbXlXlXmXcXbXjXlXvXnXsX<XB.dXU.pXT.,XpXL.A.Y.P.x.c.t.z.J.wXqXeXeXeXiXiXiX .uXuXyXyXJXM / { S :XfXjXmXbXbXbXzXbXbXbXbXvX|.vXvXnXcXcXmXmXbXcXcXjXmXnXjXvXmXmXvXvXmXMXvX].vXmXjXcXjXbXjXjXbXcX6X6XlXcXjXjXvXcXvXnXfXdX{.{.T.R.a.z.;Xx.# 9 l.;X:XR.[.vXvXsXsXsXaXvXsXmXaX3XmXcXlXcX6XhXvXC.B.pXV.C.jXkXbXzXzXbXlX6XkXmXmXcXbXbXcXmXdXsXnXfXgXL.R.T.nXnXcXkXbXmXjX_.`.vXbXbXbXbXbXkXbXbXbXbXbXxXxXxX9XzXjXdXL.j R.pXdXaXaXaXXX6XkXkX7X7XxXxX7X7XzXzX6X6XbXjXjXbXmX}.6XkXkX6XXXhXcX`. X6XkXkXzXzX7X$XxX9X$X$X$X9X9X#X#X@XkX.X,XpX{.U.B.8.h.l.b z.I.dX.X|.oX@X@X#X+X%X+XoX}./.Q.Q.Q._.V.Y.A.p.t.qXCXCXl.0X .rXX.X.yXX.*.*.| | P ..-.] ( | | ^ ( [ ` / ~ ~ ' [ &.HX=.*.&.&.*.*.tX=.| ^ ( *.-.HX-.&.=.HX=.HXKXGXGXGXGXKXKX&.-.=.&.tX=.BX..P B 7 o   X o @ @ # # q 9 0 d w w p d p p p a a c s d f g 4.4.4.m Z # # s 5.8.9.9.8.8.8.a.p.r.a.j.p.r.a.a.a.a.p.7.a.a.p.a.p.>.4.g.D F c F J A A y w d t.r.u.u.5.5.6.4.g m n f y q % ",
"% # u t c s s p t p c s c p c S c S b c v z y Z m q.>.>.q.q.5.5.u.5.7.a.a.a.u.a.a.i.i.u.y.t @ q F 4.5.w.p.p.7.5.5.w.w.6.q.w.4.>.h u.u.w.,.w.r.h 4.n f s p p t u r e % @ o $ B &.;.&.;.&.) ) O.O.$.$.&.;.' ] %.' &.^ B ] ` 7 , ~ ] ) $.~ ^ 5 ^ ~ _ ;.&.! W ) ^ W ^ 3 5 Y 6 ^ _ Y Y 5 [ ] < $ V $ $ V { M M H V N A K F x.L.G.(.|.|.2X|./.].2X].G.'.T.F.T.G.G.5XR.x.0XC % e v ;XT.`.3X`.3XjX3XXX.XlXhX.XkXkXkXbXbXmXbXbXbXbXkXbX6XcXvXvXfXdXN.pX<X,XT.pXpXS.L.d.z.x.e.t.s.P.x.;XeXeXeXiXiXiX .iXyXiXyXAX1 / H F D.dXvXbXbXbXxXbXbXbXmXbXvX3XnXvXmXmXcXmXbXmXcXcXjXmXvXvXjXaXsXvXnXMXnXvX].mXvXvXsXlXlXjX6XhXlXlXlXjXlXcXcXcXvXcXnXfXdX<XpXfXwXA.p.qXF # i -Xj.wXR.dXdXsXdXsXsX2XsXvXvXlXjXkXkXlXbXzX6XvXQ.C.nXdX`.mXzX9XzXbXbXkXbXzXmXmXbXkXkXvXvX<XfXMXdXwXP.R.:XnXvXmXmXbXmXvX[.`.sXbXbXbXbXkXkXxXbXbXbXzXxXxXzXzXzXjXdXA.j :X,X<XdXsXaX3X6XkXzXxX7X7XxXxX7X7XzXXXbXbXXXkXmXlX X XlXkXjX3XXXaX`.|.6XhX6X@X7X7X9X9X$X$X9X9X9X9X9X$X+X/.^.pXpX{._.n.D.;Xg.h P.I.dX}.}. X@X7X#X%X%X+X).!.`.].C._.F.f.P.e.x.uXuX0X0X0X0Xo.{ yXyX*.=.*.| / -.tX| | ( ( ] ! ] ` ! ! ( &.] ~ ' &.&.| | | *.*.*.| / P ^ tX-.-.-.=.&.=.HXKXKXBXFXLXUXKXGX=.HX=.BX=.-.=.] P 7 $ o X X @ @ @ # # 9 i w p d d d d s s p p p a Z S s f D 4.4.6.m Z # # c 5.8.9.9.v.8.b.m.w.w.k.k.z.p.d.a.m.a.p.p.a.p.a.7.s.>.r.e.e.D c S G A z r w f e.w.u.p.8.5.4.4.n h h S y q q ",
"% # u w c b s p p p c d c p c Z p c c c v z z v m q.>.>.q.q.5.5.u.5.7.a.a.8.7.u.a.i.i.p.g.t @ 9 F 5.5.w.p.p.u.5.w.w.w.6.4.4.4.>.,.u.u.u.u.5.w.>.h n n m b s p w Z 9 # e % X @ B ;.ZXO.) ;.;._ #.#.' &.#.&.&.` %.~ ! B R ^ ( / B ^ ^ _ ` ] ~ _ 4 6 ) %.&.) ) _ T 3 ^ ^ T Y ! R ~ ! R 6 / R * * R M % M C C V } { V N J g.p.T.(./.].|.|.`.|.4X].C.1XU.F.'.'.G.1X,X;X0XN % x v P.T.[.3X|.4X3X3X`..XcXlXXXkX6X8XbXbXbXkXcXcXbXhXkX6XjXjXvXsXpXN.dXpXpX,XpXpXS.L.d.z.x.y.g.s.P.z.;XqXqXeXiXiXiX0XiXuXiXAXJX/ { H g.:XdXcXbXbXbXbXbXbXbXmXbXaX.XnXnXmXbXcXmXmXbXcXcXnXnXmXvX[.`.vXnXvXsXsXsX2XnXnXvXaXvXlXlXlXlXlXlXjXlXlXvXcXnXnXvXvXfXdXdXdXpXR.L.P.qXy.# 9 -Xj.wX:XpXdXdX.XaXaX].2XjX4X/.|.jXcXkXkXbX8XlXC.Z.nXvXaXbXxX9XzXbXxXkXbXkXbXmXcXkXcXvXnX{.dXMXfXwXP.L.:XvXcXmXbXcXnXsXaXaXvXbXbXbXbXkXcXbXbXbXbXxXxXxXzXbX7XjXdXd.j L.:X{.pXdXaX3XhXhXkXzX7X7XxXzXzXzXzX8XkXkX6XcXbX3X3X}.hX6X6XXX|.3X`.|.3X6X6X@X7X7X#X$X#X#X$X9X$X9X9XxXkX3X].{.T.U.{.G.Y.;Xh.d P.wX[.|.}.oXoX+X+X%XoX X/.]._.G.T.T.m.t.S iXCX0X0Xl.0X . . .rXyX=...( ....tX=.*.*.| | | ( &.| B ^ $.' P ( &.*.] | ..} ( ..=...I / *.tX*.=.$.&.-.] HXLX-.-.GXKXKXKXGXHXFXFX=.=.*.-.*.1 1 $ o X @ @ & # % q i i w w d h d d d d d p p s t Z S s f n 4.6.6.m Z # # Z 5.8.9.9.v.8.b.b.w.w.p.d.j.p.a.i.m.a.i.p.a.p.p.5.s.>.4.e.y.m s F G c v w p f r.w.u.a.5.5.6.4.n g g b a r q ",
"% # r w b b c p p p s d c p c Z a a c F A A A a f g g >.q.w.5.7.u.7.8.a.m.a.u.u.i.i.i.p.g.p @ 9 D 5.w.u.p.p.u.u.u.r.r.5.4.4.5.5.,.u.u.i.u.,.7.5.4.4.n m f s d d p a t q q % # X - | HX-.) #.ZX#.#.] ] &.&.&.&.' &.] ( ^ B R [ [ 4 6 ` ' ` ~ ~ ! R Y _ ;.%.) W _ W 2 Y _ 5 4 ^ R R R R R B 1 M 1 C V M C } I M V {  .K G h.a.H.1X'.5X5X].4X4X5XG.1XT.F.T.T.T.1X:Xx.0XC % N c P.T.2X2X4X4X4XsXQ..XvXvX3XkX6XkXkXbXkXcXcXlXcXjXlXjXsXsXsXsX<X9.pX<X,XT.pXpXS.Y.J.P.c.y.x.t.z.x.;XqXeXuXiXiXiX0XiXuXiXyXAXV / H x.:X2XlXbXbXbXbXbXzXbXbXmX3X.XmXvXmXcXvXmXcXcXjXnXnXnXnXvXsXaXsXvXdX2XsXdXdXnXvXsXjXlXkXcXlXlXjXjX6XcXvXcXvXvXcXjXaX2X<XdXpX,XI.K.P.qXl.9 9 -Xj.:X,XpXdXdX2XsXaX`..XaX3X|. XhXkXkXbXzX6XkXQ.C.nXvXlXzX9X9XxXbXbXbXbXkXbXnXcXcXcXnXvXpXdXnXdXwXL.L.pXfXcXmXbXcXvXdXsXsXvXmXbXbXbXlXbXbXbXbXzXxXbXbXxXbX8XcXdXj.j L.:XT.{.<X[.aXjXlX6XkXzXzXzXkXkXkXkXkXkXhX6XvXcX3X6X}.hX8X3X3X2X2X.X.X3XhXhXhXzX9X#X$X$X$X9X9X$X9X9X#X+X3X].F.I.U._.'.:X;X-Xd P.pX_.|.}.oX@X8X7X+XoX!.|.G.T.Y.S.Y.>.-XiXuXJ 0XiX0X0X .rXyX{ =.=...( ' | tX| / ..| *.=./ ( ^ ( / ! ^ ` :.=.*.( ( } P ..} I I X.yX*.....&.[ :.-.*.GXHXBXLXKXGXHXGXBXBXBXGXFX&.' / P 7 o X X o @ & % # q i r r d d h h f h f f d d p s a S F f f g 4.6.6.m Z # # S 7.8.9.9.b.v.b.a.w.s.a.d.z.p.a.b.b.b.i.u.a.u.p.5.s.>.g n D n b F F Z v u p f r.u.u.u.,.5.5.4.g n n b a q q ",
"% # r w b b c s p p s d c p c Z Z v S F A A A t f g >.>.w.w.5.7.7.7.7.a.m.a.a.a.i.i.i.p.g.p @ 9 D 5.w.u.u.p.p.p.w.u.w.w.5.5.5.5.u.i.i.a.i.7.p.7.u.w.4.n g f f b d d p p t r # @ X @ / AX-.' _ #.;.#._ :.] O.-.O.` @.%.' ! [ ] ^ 4 B 4 ` ! , ` ! R ` ) ~ ' ' ) ) ^ 3 6 ^ ^ Y Y ^ 5 ) ^ R / B $ 1 M $ V M R | 7 P | R  .J S z.J.L.,X,X[.].5X4X].G.U.T.T.I.F.{.1XI.z.l.N % N Z P.T.<X2X].1X2X2X^.2XjXvX3XlXkXzXkXkXcXbXlXjXvX3XjXjXaXaXsXdX<X9.pXpX'.T.pXpXS.Y.J.P.x.y.l.g.x.x.qXeXiXuXuXiXiXiXiXuXiXyXtXC V E -X:X4XkXbXbXbXxXbXbXbXbXmXXX.XmXvXvXmXcXcXcXvXsXvXsXmXvXnXmXnXsXaXdXvXdX[.dXvXfXsXnXlXlXlXlXlXlXjXlXcXvXjXjXcXvXsX2XdX<XdXdX<X:XY.A.;Xx.9 9 -Xj.:XpX{.[.2XdXvXvX.XaXjXlXlXkXkXkXkXbXkX6XcX`.Q.nXcXkXzXxXxXxXxXxXbXbXcXbXmXnXbXbXnXnXsXfXnXdXpXR.Y.pXfXcXcXcXmXsX_.pXfXvXmXbXbXbXaXcXbXbXbXzXzXbXbXxXbX8XjXdXJ.j ;X:XY.T.,X<XdXjXlX6XkX8XkXzXkXhXkXkXhXkXhXXXvXnXhXaX}.hXjXjXjX3X2X3X3X3X6XhXzXxX9X9X9X9X9X9X$X#X9X9X#X+XXX[.T.pXpXU.T.H.;Xx.h ;X:XU..X|.|.XX8X8X X|.`.'.S.i.qXz.>.eXJX0X0XrXiX{ rX .rXX.X.BX..` &.$.| ..| ( ( | =.*.( ( &.( / ` ] / ` ~ / ` ( ( ( I } / *.BXX.} X.( ..! ~ ......=.KXKXLXGXHXGXFX=.-.FX=...tX^ ( $ X X @ @ # # # q i u w w p d f h h g g f m b s s p c F F f f g >.4.6.n Z # # S 7.9.9.9.b.b.S.a.r.h.j.j.z.p.b.b.b.8.8.u.p.u.u.,.p.4.4.h m e.D b b G v t p g r.u.u.u.,.5.5.4.g n n b a q q ",
"% # u t b b s p p p s d c p c A Z a c c v v v t b q.q.w.w.w.7.7.7.7.7.8.a.a.a.a.i.u.a.u.g.t @ 9 S 5.w.u.p.p.p.p.5.w.w.w.w.u.w.5.7.m.b.i.i.i.a.7.7.5.w.r.w.n g g h d d s c w q e % @ X 1 -.-.' ] #.#.;.O.#.O._ ;.-.) ~ ' _ ^ _ ' ` B 5 B 5 ! / ^ ! [ ' ] ~ O.&.) ) ) ) ! Y ^ ~ ! 5 ^ ) [ ` / B B 1 1 @ 1 B 7 ] / 6 ( /  .0Xc e.;X;XY.T.T.5X5X5X^.U.U.T.I.I.,X{.F.P.G N & N Z x.T.'.2XU.1X1X'._.<XsXjX.X3XjXbXkXcXcXcXjXaXvX2X4XjX3X2XsXdX<X9.dXdX,XT.gXpXS.L.d.z.x.y.l.x.x.x.-X0X0XuXuXrXiXiXiXSX0XrXAXV R E -XpX3XkXbXbXkXkXzXzXbXbXmX X3XmXnXvXnXnXvXvXvXaXvXsXnXvXvXnXnXnXvXsXMXsX2XvXnXsXsXmXcXkXlXjXjXlXlXcX3XaXsXvXvXvXvXvXdX<XdXsX<X,XY.A.:Xx.9 9 ;XA.pXpX{.{.[.dXnXnX.XaXhXlXkXkXbXbXzXkXbX6XjX/.Q.vXcXkXzXzXzXzXzXbXbXcXcXcXvXvXbXbXbXvXsXfXvXfXgXwXK.,XsXvXlXjXnXdXB.U.fXvXmXbXbXbXjXvXlXbXbXkXxXbXbX7XzXkX2XgXJ.j wX:XI.R.,X<X2XaXjXhXkXkX6X6XhXhXlXlXhXhX3XXXvXnXaXjX/.|.jXjX3X2X2X2XXXXXXX@X7X7X9X$X9X$X9X$X#X#X#X@XxX+X.XpXpXpX,XV.F.n.P.e.b -Xi.U.2X|./.|.|.|.|.[.<XK.J.qXy.F iXuX0XiXiXuXH U { { | *.tX*...-.( ..&...^ | ..] ..] ( | / &.=.( P ..] ` / ` | ( P I { X.rXX.I P I X./ ( ../ ' LXBXHXUXLXLXKXGXBXHXBX*.| *.B P o X o @ # # 9 9 q w w p d d d f g g g q.g g g b f s p a Z s s f D 4.4.6.n Z # # S 7.9.9.9.b.b.b.a.w.s.J.A.j.p.b.n.n.8.i.i.u.7.7.,.p.q.w.4.n y.e.m n g.v t d n r.p.u.i.7.5.6.4.g g g D c u r ",
"e % t p c f s p p p s d c p v Z Z v c c v A A v f 4.q.w.r.w.7.8.p.u.8.a.a.a.p.u.a.i.i.u.g.t @ 9 D q.w.u.p.p.p.p.u.u.w.r.p.p.u.5.7.m.m.b.v.v.m.7.7.7.5.w.5.g g n j g g d w w w r e e % X o ( AX;.&.O.#.&.%.' ) O.&.&.$.O.] O.` 6 B ] ~ ^ P B ..( B 6 6 ^ ~ ~ ) _ O.O.^ 6 ! ^ Y ! ! 5 ` ] ! ` ] R B B B 1 B B 1 B @.B R {  .0XJ G x.A.D.F.'.5X(.^.'.B.I.T.T.'.U.Y.P.G N & N c j.Y._.2XG.1X1XH.G.{.sXjX.X}.3XbXkXbXmXcXsXaXsX.XdXsXsXaXdXdX<X2.pXdXT.T.gXpXS.L.d.P.x.D l.x.-Xx.-X0X0XyXAXrXuXiXiXSXiXyXAXV V 0X;XpX3X7XzXbXlXkXbXbXmXbXbXXXhXcXmXnXjXvXvXvXvX].vXsXvXaXaXnXnXvXvXnXnX4XsXmXnXsXvXmXbXkXlXjXjXjXjXcX3XjXvXvXnXnXnXnX4X2XsXdX1XT.Y.L.wX-X9 9 ;XD.gXdX[.[.dXdXnXvX.X3X3XcXbXbXbXbXbXbXcX6XjX}.}.cXbXkXbXbXzX7XzXzXbXkX6XjXsXvXbXbXbXcXjXvXvXfXgXpXS.,XvXcXlXsXnXdXn.V.fXvXcXbXbXcXnXnXkXbXzXkXxXbXzX7X7XkX].gXP.j wX:XI.R.,X,X<X<X3XjXkXhX6X6X6XhXjXlXkX6XXX3XvXvX3XvXQ./.3XjX2X.X[..X3XXXXX@X7X7X9X9X9X9X9X7X#X@X@X@X@XXX.XpXR.R.I.M.F.b.P.n b qX,.{.[.].].].|.].^.H.K.J.c.s 0XJXiXH rXrXiX0XC { / X.=.&.&.=.=.$.=.' ..&.| / ( &.&./ ] ] &.BX( ^ ..[ ~ ] / / ..X.} } X.} X.X.X.BXJXBX/ ] =.-.tX=.*.-.FXIXKXBXHXJXJXJX*.P 7 $   o @ @ & # # 9 w t p p d h f g g 4.4.4.t.q.n g b b b s s Z s f l D 4.4.6.D Z # # S 7.9.9.9.b.b.m.m.r.t.A.j.j.u.b.n.n.9.b.a.a.u.7.,.p.s.w.t.r.e.y.e.e.g.s p f q.p.p.i.i.7.5.6.4.g h f D c t u ",
"e # u p s f s p p p d s b p a Z A A c c A A A F f g q.w.p.u.8.a.p.a.a.a.a.a.a.u.a.i.a.u.g.p @ 9 S q.w.p.p.p.p.p.p.p.s.p.p.p.p.7.8.b.b.b.b.v.b.i.b.7.5.5.4.>.>.q.g g g g d w w t y % # & o X 7 =.-.;.O.&.O._ $._ &.&.#.O.] _ ] ' 5 ^ | ! ^ B ^ ( / / 6 6 ` O.' O.-.) ^ ) 5 Y ^ 5 ^ ! W ! ] ) R O.~ 5 ' ] B / ! < 6 @.| / R {  . .l.t.a.D.T.'.'.H.'.n.F.T.T.T.G.U.P.g.K & N a k.Y.'.[.G.T.T.H.F.,XdXsX.X/.|.lX3XcXcXsXsXsXfX2XsXdXvXsXdXdX[.2.pXpXU.T.pXpXS.Y.J.qXx.e.x.x.-X-X0X0XiXyXJXrXuXiXiXSXSXJXHXB H 0X-X,X3X7XkXkXkXlXbXbXbXbXbXjXlXvXmXvXaXjXsXjXaX`.sXdXlX|.XXbXmXvXvXmXnX2XnXmXvX3XmXcXcXkXlXlXlXkXlXlXlXvXvXnXnXvXvXvXsXvXnXsX<X'.:XwXwXx.9 9 x.D.gXdX<X[.dXdXnXvX.X3XaXbXmXbXbXzXbXbXjX3XjX|.|.bXbXkXbXbXzX7XkXbXbXkX3X4X3XjXbXbXbXcXvXmXjXsXpXpXS.pXvXvXjXaXnXfXT.R.fXnXhXkXcXjXnXnXkXbXzXzXxXxXzXzX7X8X|.pXz.j wX:XY.Y.:X,X1X]..XlXjXhX6X3X3XaX3X.XhX3X3X3XvXvX3XvX!.Z.3XjX4X2X2X[.aX3X@X8X7X7X9X9X9X9X9X#X@X@X@X@X@XXX[.{.R.K.K.R.F.A.;Xe.s -Xf.R.U._.'.[.[.G.B.b.A.>.g.uXuX{ H rXuX0XU k  .X.X.tX=.NX%.$.:.FX' %.-.[ ( ....| | tX&.[ / *.%.:.' ] ` ] / ! ( } ( } X.VXJXBXrXX.} } ..*...| ......| =.*.BXHXHXHXHX} B 1 $ X o @ @ @ % # 9 q t s d d h h h >.4.4.w.w.s.r.q.n m m m b Z S S l D D g 6.5.e.Z # # S 7.9.9.n.M.b.A.A.r.t.j.j.z.p.b.n.n.b.b.i.i.u.u.,.p.r.w.h.g.r.g.y.e.g.c c n e.p.u.8.i.5.7.5.>.h h g S c u r ",
"e 9 u p c b c d s p s c b p a Z A A v z A A v S b q.w.u.p.w.7.8.7.u.a.a.a.a.a.u.a.i.a.p.l.a @ # D w.w.u.p.a.a.a.d.k.k.p.u.u.p.a.8.v.v.M.n.8.v.b.b.i.a.a.p.w.5.w.w.>.g n g d d S t u e e % & o + @.AXHX;.%.&.) _ ) O.&.] _ ] ] ] ;.] [ ^ &.( B B ( 6 6 ^ ~ ^ _ O.&.;.O.! ^ ! R ` Y ^ ^ 6 W O._ _ O.! ^ | | / / / 6 1 B | } V V  .J J g.x.;X>XU.H.T.n.I.I.U.{.G.S.j.y.K % N t h.Y.T.T.T.T.Y.>Xn.pX2XjX4X/.).hX|.jXvX2X4XsXsX2XsX2XsX2X2XdX[.9.dXdXT.'.dXpXS.Y.L.qXx.y.x.l.x.0XiX0XuXrXAX .iXiXiXSXyXJXHXB { 0X;XdXjXzXzXkXhXkXkXkX7XbXzXkXmXhXmXsXsXsX2XdXdX'.sX.XaXaXhXhXvXmXmXvXmXsXmXvX2X].mXjXlXkXlXcXcXjXlXlXcXvXcXvXvXvXvXsXsXvXvXdXdX,XR.:XpXx.9 9 x.D.gXpX{._.[.dXvXsX.XaXhXkXkXkXbXbXbXbXlX3X3X/./.kXbXbXbXbXzX8XkXbXbXkX3X4X3XlXbXbXbXbX6XmXcXvXfXpXS.,XvXvXaX2XfXfXpXpXfXnX3XlXvXaXnXnXlXkXkXlXbXzXkXkX8X6X4XdXz.j ;X:X:XY.R.pX,X_..XjXjX3XXXXX3X2X[.`..XaXaX.XjXvXjXvXQ.0.aXvX|..X2X].3X3X6XkXkX7X@X#X9X#X#X@X#X@X@X@X@XXX_.I.J.f.f.P.S.A.x.e.d x.P.R.:XT.F.S.n.b.j.z.D qXuX0XH rXyXyX .{ H { yXyX=.-.-.;.$.%.;.:.` &.^ ....[ / *.-.&.] [ ] [ ] ` ! ~ ~ ~ ( ] ] | X.X.VXBXyX} } } } } *.=...X.} *.X.=.X.| tXJXKXtXV B $ X X X & @ & # 9 9 w t p d h h h h >.,.,.5.5.5.w.w.w.6.n g m b s S S S g g >.w.5.e.Z # # F 5.b.v.n.M.v.m.J.p.r.A.J.P.a.b.9.B.n.i.i.i.i.u.1.r.r.w.t.r.g.g.e.n g.b m n w.u.7.7.7.,.7.5.g h g D b c u w ",
"q 9 i t s c s d c p s c s p c Z A z A z v c c F D 4.5.u.w.5.7.8.7.i.i.i.b.b.b.a.b.8.i.u.g.t @ # D w.w.p.a.a.a.i.a.a.u.p.a.a.8.8.8.b.m.m.b.v.v.v.v.i.i.i.p.7.5.,.u.5.>.4.>.h g f m p u u e e % @ $ 1 *.FXZX&.O._ _ Q _ ;.#.' &.#.O.] O.^ B ( / ( B B ^ 6 6 ^ ! ^ &.;.&.&.] 5 Y ! _ Y 5 ) ) W ) O.) ] ' ^ B / { / V C % % } X.R { | { E G g.;XY.D.T.V.T.R.:XF.F.S.P.l.K e N Z e.L.R.I.K.R.Y.:XY.T.vXjX3X X3XjX3XjXvX].4XsX2XsXvXaX3XsXsXdX,X9.pXpXC.pXfXpXT.R.L.wXqXr.x.x.x.l.0XrXrX .uX .iX0XiXuXyXJXGXB V iXwXdXlX6XjXvX6XkXbXzXzXbXzXzXkXcXvXnXdX,XpXpXpX,XpX_.sXsXsXvXmXmXnXnXjXvXbXmXXXjXnXcXkXbXcXlXlXjXjXlXlXcX3XmXvXnX2X(.vX<XfXdX<X'.H.gX:X-X9 q x.D.pX,XU.U.dXfXvXvXvX3XXXkXbXzXzXbXbXbXhX3XlX3X0.kXbXbXbXbXzX7XkXbXbXkX3XjX6XlXkXbXkXbXbXmXmXsXdXfXT.I.pXsXvXsXnXMXdXvXcXcXlXmXdXfXvXvXlXbXbX XcXlXvX.X[.<X5XpXP.j ;X:XL.R.:XpX{._.2XjX3X4XjX2XdXpXpXU.dXdXpXdXbX6XaXvXN.N.2XjXsX.X[.].2X3XhXlXhX6X6XzX7X7X#X+X@X@X#XxX+X3XC.R.P.r.z.z.h.h.qXF s y.P.;XA.a.A.k.p.x.l.J uXuXN U uXJXyXH  .V X.yX*.*.&...&.&.;.] ' ..` 6 ] ( ( ( =.-.] *.` ~ ] ] ~ ! P ] ( / ..| P | tX=.*.( / } X.=.} tX=.%.....*.X.X.} } X.X.| I I 1 @ X o @ @ # # q 9 i w p d d j h h h >.,.5.7.p.u.5.d.p.7.5.w.n f S s S D m b q.w.>.w.r.c # 9 F w.b.n.b.b.m.A.m.p.u.d.d.d.a.b.n.n.n.v.i.i.a.u.,.>.r.q.q.q.f e.D D D n 4.5.5.7.u.a.7.5.5.4.4.g f g F c t w ",
"i i r t c c s d d d d c c p c c v z A A A Z c S m 4.5.p.u.7.8.i.7.i.i.b.b.b.b.i.b.v.b.p.g.a @ # F w.u.p.a.m.b.a.a.a.u.u.a.a.8.8.i.b.M.m.n.n.n.b.v.i.i.i.i.7.u.u.u.5.5.5.5.>.4.4.m d p a u r e & o X 1 | -.HX;.&.O.) _ ~ &.$.) &.&.#.] @.` B R 6 7 R B ~ ~ 6 R ~ ~ ;.FX] ) &.) R ~ ! _ ) ^ ) ) ] &.) R ~ R B { { M x C e & V } / / *.{ E J F 6.P.S.R.pXM.R.,XY.L.;Xh.v # N A q.J.L.S.A.L.K.Y.D.T.vX6X6X|.3XlX3XjXvX].4XsX2XsXsX3X8XjXsXfXpXv.fXpXV.dXvX[.U.Y.:XgXeXx.x.eX0XiX0X .yXrXuX-XiX0XiXiXyXJXLXR H iXwXdXjX@XjXcXkXkXbXxXkXkXzXzXzXbXvXfXn.m.:XwXpXpXdX<XdXdXsXvXmXmXmXmXbXmXbXaX|.vXvXhXkXbXkXjXjXvXjXlXlXvXcXcXvXvXnXnXdXT.'.'.2XdXT.:X;Xx.9 q x.A.pXpX{.{.dXdXaX.X.X/.hXcXbXzXzXbXbXzX6X XhX3X&XkXbXbXzXbXbXzXkXkXcXcX3XjX6XkXkXbXkXzXxXmXbXvXdXgXI.n.pXsXvXsXdXnXvXjXmXmXvXvX,XdXvXjXlXlXkX XcXvXvX[.<X'.5XdXP.j qX;XK.:XwXpXT.C..XvX4X2XsX.XdXpXpXI.dXdX'.dXbX8XcXvXN.v.[.jXsX`.].[.|.3XhX6XXX6X8X8X7X7X8X+X8X@X+X+XoX=X{.pXj.g.l.n g.F G s d l.;X;Xk.;Xx.y.-Xc 0XuXrXH yXyX .{ N { { *.tX*...=.=.HX-.` &.&.] ( / ] ( ] / &...| -.&.` ' ' ^ ! ` ] [ ( B P ..*.*.*.*./ ( ..=.| *.*.| =.BX( | X.X.} } yXtXX.I * $ o X X @ & # # i r w p w j d h h h h h ,.5.<.7.7.7.,.d.p.7.7.w.n f S s S F F D e.w.,.5.r.c # 9 G p.b.b.v.b.m.A.A.a.u.d.d.m.b.b.n.n.N.v.i.i.i.7.,.>.r.r.q.n f D m D e.4.5.5.7.7.8.a.7.5.>.6.n h f m D S p w ",
"i q r t c b s d d d d c c s c c v z N N A Z a p b 4.7.a.p.u.i.b.7.i.b.b.b.b.b.i.v.b.b.p.g.v @ # F w.u.u.a.m.b.b.a.a.p.p.a.i.8.8.b.n.M.M.M.M.n.N.v.v.b.b.i.8.a.a.u.7.7.5.5.5.6.6.m f c v t r u e % & o o 6 ` HXGX-.#.&.&.5 O.&._ &.~ $.@.@.&./ } / B ^ / ^ ( [ 6 ^ ` -.-.` [ &._ ) ' ) ) _ _ O.) ] ;.) R / V V C C % e N C % % { / B  .{ E K J l.qXA.D.H.F.G.B.F.:Xh.a # y S r.A.S.M.M.K.S.L.n.U.sX4XjX|.3XvX2XsXsX].2XsX2XsXsX2XjXsX4XdXpXv.pXpXC.dXfX[.'.:X:XwX0X0X0XiXiXiXyX .rXrXiXE uX0XiXiXyXAXGX6 H iX:XdXhXhXlXbXcXbXbXxXkXkXzXzXzXbXvXfXY.i.A.L.pXpXpX'.vXvXvXvXvXmXmXmXmXmXlX|.aXnXnXjXcXkXlXhXjXjXlXlXcXjXcXjXmXsXnXnXfXpX<X<XdXdX,XY.L.x.9 q l.j.pXpXV._.pXdXaXaXaX3XkXbXbXkXbXbXbXkXjXXXhX3X!.cXcXkX7XbXbXzXkXlXcXcXjXlX6XkXkXmXzXkXbXmXcXvXfXnXI.N.<XvXnXvXpXnXnX8XbXbXjXsXR.pXfXaXcXkXhX}.cXjXsX[.<X_.5XpXz.j wXP.L.wXwX,XU.C.2XvX3X4XaX2XdXpXpXR.dXfXU.sXbX8XcXdXE.i.{.sXsX_.'.2X|.8X8X+X X+X8X+X+X#X+XoX@X7X7X7XoXXXpXgXh.qX-XF g.c Z p s l.x.g.x.g.F l.G iXuX{ U uXyXV  .{ X.X.tX..&.tX=.=.FX-.&.&.' ~ ^ ' ] ( | ..] / | ..| *.&.%.$.' ] ~ ~ P P ( | ..tX=.| ( *.tX..=.*...=.tX....HX| yX} | yXX.} I * o X o @ @ & & # 9 w t w d d d j h h h >.,.5.8.8.7.7.7.7.j.a.p.7.5.n b S l n D e.D q.5.5.7.h.c # 9 G s.v.b.v.b.m.S.m.a.u.d.m.m.m.M.M.n.N.b.v.i.i.u.,.5.r.s.q.q.g e.m n e.w.w.u.7.8.a.a.7.5.4.q.4.h h q.b b p w ",
"i q i t c c c s d d s c c c b c Z v N N v Z a p m 4.7.a.p.p.i.i.7.i.b.b.b.b.b.i.v.b.b.u.g.a @ # D w.u.p.b.D.D.b.i.d.a.a.m.b.b.b.n.n.M.M.V.V.V.n.N.n.b.b.i.8.i.a.u.7.7.7.7.5.5.6.4.m b s t u u e e & & @ o B 6 $.HX%.-.O.;._ W -.' ' ' ] ] | } B | } 1 P | ^ ^ ^ ~ ` ^ &.-.] ) ] ' ` ] Y ^ O.) ) ) ] ] @./ 1 C M x C N x N N e e  .rXV } X. .H A J l.;XY.n.T.G.G.L.h.Z 9 y S p.L.S.S.S.I.M.S.D.H.2X|.aX`..XvX.XsX2X(.<X2X<X2X2X.XjXsX<XdXpX9.dX<X_.sXvX_.,XpX:X;X0X0XiXuXuXyXuXrXrXrX0XJ uX0XiXiXuXAXGX7 H iX:XsXjXhXlXvXkXkXzXbXbXzXzXzXkXlXjXdX,X:XwXwX:XI.,XdXvXnXnXvXnXmXmXbXmXbXhX|.mXcXjXhXbXlXhXhXaXjXlXhXcXhXcXjXmXsXvXfXfXfXpXdXdX<X:XL.;X-Xq w x.j.pXpXU.[.dXaXaXaXjXhXlXkXkXkXzXbXbXkXlX3X3X3X!.kXlX8XzXbXbXzXkXkXlXlXjXcX6XkXcXmXbXzXmXmXcXvXvXnXT.N.'.vXmXvXpXnXvX3XjXcXjXdXY.pXnXdXnXlX6XXXvXaXaX[.pXU.<XpXz.j wXP.Y.R.R.R.T._.dXjX3X3X3X.X<XpXpXT.dXvX{.vXcXcXmXdXY.b.,XdX<X'.,XdXXX8X7X8X+X8X8X8X+X@X X X6XhX6X6XXX.XfXwXx.qX0X-XG F J v p l.l.F F F F J rXJXU rXJX{ H {  .X.yX*.| *.tX=.FXHX%.%...$.[ $.] P ^ ..&.&.| | P ^ *...' ' ] %.$.^ ~ ~ P ( ( ( | ( | BXtXHX| } *.=.=.( *.tXX.X.C yXtXX.I 1 $ X o X @ @ # & % 9 9 w w j d d h h h h >.,.,.7.8.8.8.8.i.a.J.a.p.7.5.n S S f g e.e.e.4.,.7.u.h.F # 9 g.a.9.n.n.M.S.S.m.a.u.m.A.S.M.M.F.V.n.M.b.b.b.8.,.7.p.h.r.r.q.g.n n 4.w.u.p.p.a.a.i.a.7.5.w.4.j g t.m b p w ",
"i q i t c c b s s d s c c c b c F A A A A S c c f 4.7.a.p.a.i.i.7.i.b.b.b.b.b.i.v.b.b.7.y.p @ # F w.p.a.m.D.D.b.i.A.m.a.m.A.n.n.n.V.F.V.C.C.V.n.B.n.N.v.b.i.i.i.i.i.7.7.7.7.5.6.6.n m s a t t u e e % @ &   1 B ~ $.O.ZX%.&.#.~ ] #.$.' ` ( / 1 / B / C 1 / I B / / ( ! $.-.[ ~ _ &._ ) ) Y +._ 4 ` ` ~ ] R 1 V C M N N K z u K e N { 1 } *.| { N E l.z.L.T.9.'.L.h.Z 9 Z F p.D.H.F.I.R.S.F.D.Y.1X[.4X`..XaX].2X'.G.1X1X'.1X].].sXdX<XdXpX9.dX<X_.sXnX_.T.:XwXeXuXiXuXuXuXrXiX0X0X0X0XJ uX0XiXiXuXAXGXB H iX:XdXlXkXjX6X8X8XkXzXbXzXzXzXkXlXdX,XY.L.wXwXpXI.U.[._.dXvXnXmXmXmXvXcXvX3XXXmXbXlXlXbXkXhXhX3XhXlX6XhX6XjXjXjXsXvXMXfXpX'.dXsXpX,X:X:X;Xw w x.x.wXpX'.dXdXaXaXaXaXjXlXkXkXlXkXbXbXkXkX3XXX|.!.cXkXkXkXbXbXkXkXkXkXhXlXvX6XkXcXmXbXzXmXmXbXaXMXnX,XN.^.vXvXfXfXfXsXsXjXvXvXdXR.gXMXnXvXhX@XXXlXaX.X[.dX'.2XpXz.j eXL.Y.wXR.T.{.{.dXaXsX3X3X.X[.pXpXT.dXsXpXsX8XcXnXfXL.m.pX<X,XT.:X,X6X8X8X8X8X+X+X@X6X6X6XlXlX3X`.`.XX.XpXz.x.-Xl.0XF G J u 9 J J F K K H uXyXV yXJXrXH {  .X.tX| tXtX-.] =.HX-.-.-.%.%.%.' 5 ' -.&.%.] ~ [ 5 ] ..^ ~ ] ) ~ ^ L [ [ [ ( I B | BXBX| X.I ( tX=.( X.yXyX} X.} X.BX} 1 1 @ o X @ @ # # % q i w 0 d f h h h h h >.>.5.5.<.<.9.9.9.v.a.i.J.a.p.u.6.n F S g n e.y.e.4.5.u.p.j.F # 9 g.a.9.n.V.V.F.S.S.m.a.m.A.M.m.M.F.V.V.M.b.b.v.i.<.u.p.j.p.r.r.h.e.4.6.w.p.a.a.i.b.a.a.p.5.w.4.h n t.g b p w ",
"r r r p c c s s s d c c s s b b c v A A A F v c f n 7.8.p.p.i.i.i.i.b.b.b.b.b.a.m.b.b.7.g.a @ # F w.p.a.D.D.n.b.b.A.A.b.m.S.n.n.V.F.G.C.C.G.C.C.V.N.N.n.n.b.b.b.i.i.i.8.8.i.7.5.4.4.h s c c p y r 9 e M & & X 1 / ^ @.$.-.;.;.-.O._ %.' ] &.] | 1 B C C B 1 1 V / B | ] ! ' ;._ _ ) O.) _ _ R O.] Y ! ` ( / / / V C C N N N z A K z k o./ ^ | @.X.M A -Xr.A.Y.m.;Xg.a 9 A x.j.n.T.F.I.R.I.Y.A.S.,X<X2X]..XaX[.[.'.U.1X,X'.'.'.'.dX<X{.pX,X<.pX1X].sXnXT.,XwXeXeXSXuXiX0XrXiXiX0X0X0X0XJ iX0XiXiXyXAXHXB H iX:XsXlXbXlX6X8XkXkXzXzXzXzXzXkXlX[.U.Y.A.j.J.pXT.C.Z._.2XsXsXvXvXvXaXaXvXaX4XmXmXcXlXbXkXkXkX6XhXkX6X6X6X6XcXjXsXdXdXpX,XpXsXsXdX,XpX:X-X9 q x.x.wXR.G.2XaXaXaXsXjXvXlXjXlXlXcXcXcXcXlX6X4X|.!.lXjXkXkXbXbXzX8X6XjXjXvXlX3XlXbXbXkXbXmXbXbXaXMXnXpXN.].nXvXsXnXfXsXjXsXvXsXdXL.gXMXnXjXhX6X6XlXaX.XdXdX<X2XpXj.j qXK.Y.:XR.R.T.'.dXaXjXjX4X2X<XdXpXU.dX2XdXfX3X8X<XT.m.m.pX<X,XR.:XI.aX8X8X8X8X6X@X6XjXaX3XaXaX2X[.dX.X[.wXr.x.G G 0Xv J J y 9 J J A H rXyX .{ VXVXrXI I { *.yXX.*.=.$.=.GXBX&.-.FX;.FX$.` [ FXGX] -.-.$...] ..FX( ] ~ ' ] ^ 5 ! ( ( ( / | =.tX*.| / P =.BX| } tXBX*.yXtXyXX.*.V M * o X o @ & # q q 9 w w w d h n >.h h >.>.,.,.5.7.8.N.N.n.n.n.a.i.J.p.p.u.6.n F S m q.e.e.e.4.5.u.u.h.F 9 9 g.b.B.B.B.F.F.F.S.S.m.m.A.M.n.n.M.V.V.n.b.b.v.8.7.u.p.k.p.r.6.h.r.r.r.w.p.a.i.b.b.b.a.8.5.w.>.h g e.g b w w ",
"r r t a s s d d p p c b d s m m c v K K A S a p f q.7.7.u.p.i.i.i.i.b.b.b.b.b.b.b.b.b.p.g.p @ # F w.p.a.D.D.D.b.b.S.A.b.m.M.n.n.B.G.G.G.C.C.C.C.Z.Z.B.V.n.n.n.b.i.b.i.i.i.i.a.7.5.5.n f n b d c v 9 9 q e & & o X M B ( @.%.O._ #.:.` ' ] ` &.&.I B I V C V C M / / B / ] [ O.' ~ _ W ) O.) ) ) ] &.] R [ @.| / | M R { M N K r A A N q V | | R | *.{ x J qXh.z.;Xl.y 9 F -XJ.S.H.S.S.Y.Y.Y.A.S.,XdX<X[.2X.X2X].(.U.1X,X'.[.].2X[.'.'.pX,X<.<X[.4XsXfXT.pXeXeXeXSXSXuXE 0XuXiX0XqX-X0XG 0X0XiXiXAXJXHXR H uXwXvXlXbXlX6XkXbXzXxXzXzXzXzXkXaX[.T.Y.Y.Y.K.:XU.U.[.[.sXsXsXsXsX3X|.aXvXjXlXcXbX6XXXbX8XkXkX6XhXkXhXkXhX6XcXvXvX1XT.,X:XdXdX2X<X,XpX:Xx.9 i x.P.wXR.'.sXfXsXsXsXaXjXvXjXhXlXcXcXlXlXlXjX3X.X!.jX6XkXzXbXbXzX8XkXlXlXcXjX3XcXbXbXkXbXmXbXkXaXMXnXpXn.dXnXnXdXfXpXvXvX4XfXdXpXL.wXgXfXvXkX6XhXlXjXaXdXdXdX2XfXs.j P.J.Y.:XR.T.{.{.dXaXsX3X4XaX4XfXpXU.dX4XpXfXjX4X1XM.m.f.,X,X:XY.L.L.[.XXaXhX3X3XaXaX.XdX[._.{.pXdXdX`.[.wXc.l.Z F E v J J N # H  . .rX .{ yXuXyX{ { { / X.*.tXX.*.} FXHX&.&.-.-.FX-.' ` GXGX-.$.O.;.O.$.$.-.[ ` ..~ _ ~ ` ` ` ` ` ..[ ( | ....| ( / tXX...*.BXX.} X.X.yXyX{ { C & o o @ @ & # # 9 i w w w j h h 4.5.,.,.,.,.,.5.7.7.v.N.C.C.B.M.m.a.j.u.a.p.6.e.G b m q.r.6.n 4.w.u.u.h.S 9 9 y.b.B.B.Z.C.F.F.S.S.m.M.S.S.M.M.M.n.n.n.n.b.b.i.i.i.a.d.s.p.4.s.r.r.4.u.u.a.i.b.a.a.8.8.5.5.>.h g 6.n b p w ",
"q i t a s p p p p s b S s f m m F F J K Z Z a p c D u.7.u.a.b.b.i.i.b.b.b.b.b.b.b.i.b.a.g.p @ # F r.u.a.b.D.D.n.b.S.S.b.M.M.n.n.B.G.G.G.C.C.C.C.C.C.C.C.B.9.9.n.9.v.v.i.i.b.i.8.7.p.5.n 4.m d f p 0 a A q e % % @ X $ 1 / $.` $.&.' &.' ` ] ( | | } V { { C V I C / ( B B ] ] ] _ O.O.O.$.O.+.$.O.O._ O.) ^ $.| / / / { { M e H x u A K e V | | B / *.{ N z G l.x.G y # A l.P.L.D.b.b.I.Y.:Xj.A.R.dX[..X2X|.2X^.G.G.'.'.'.[.].4X'._.'.pX,X<.<X1XsXfXfXF.wXeXuXJXSXSXJXiXJXuXqXeXeX-X0XG 0X0X0X0XAXJXtXB N iX:XsXXXkXjX6XkXkXkXxXxXzX9X7X6XaXdX{.M.S.S.M.,X,X<X2X_..XsXvXvXvX.X/./.`.`.lXbXcX3XhXbX8XkXbX6X6XkXkX8XkXkXlXjXvXfXdXpX,XdX{.<XfX<X,X;Xx.9 r x.P.wXR.U.dXsXsXjXvXaXjXvXjXaXvXcXvXjXaXlXhXaXXX!.lX6XbXbXbXbXzXkXbXcXlXbXjX3XbXmXbXkXmXmXbXkXaXnXmXpXG.dXnXnXpXpXT.nXsX4XsX2XdX:XgXgXfXnXcXhXhXlXvXaXaXdXvX2XfXz.h P.L.R.R.F.T.,XdXfXsX2X4X|.aX4XfX{.Z.vXsX{.fXvX2XnXpXJ.i.R.,X:XS.L.Y.C..XaX2X.X2XaXdX_.dXdXU.T.{.T.G.G.'.wXx.G A Z A A K H N # H rXuX{ } yXJXuXU { { } *.( =.*.tX*.tX=.$.%.FXFXHXHX$.%.LXHX$.&.$.%.~ &.;.:.%.:.:.~ ! ' ) ` ~ ` ] ~ [ ....] ( | / ^ ( | | *.X.X.} yXtXyX} 1 V M @ X @ @ & # % # i w d w d d j h >.,.,.5.,.>.,.5.7.8.8.8.N.C.C.Z.n.m.a.a.7.a.a.6.e.F s g e.y.n m n w.w.u.h.F 9 9 e.b.B.C.C.G.F.F.M.M.n.S.K.F.S.F.V.n.n.n.M.m.b.b.i.a.a.a.j.h.5.h.t.r.>.u.a.i.i.i.b.8.8.p.u.5.>.g g 4.4.m p w ",
"q i r t a s s s p p b b f n m h m F A A F c a a c m 5.u.u.u.i.v.i.i.b.b.b.m.m.b.8.8.i.a.x.w # # S r.p.a.n.n.n.D.n.S.S.S.M.S.V.B.G.C.C.^.^.C.C.Q.Z._.G.C.B.n.n.9.v.v.v.b.n.n.b.i.a.7.5.6.4.g h h f d d p t r q q % & @ o - R ] ' ;._ _ O.] [ ] $.' | *./ / / V } R B / ^ B ~ ~ ` O._ O.] _ O.O.O.O.O.O._ ^ ) ) $.$.] ^ / / R V M x N N N H x x  .X.| C X. .V N A G J y # z G h.A.J.A.7.b.b.L.j.j.T.pX2X].|.4X4X].].B.1X'.'.2X].4X[.C.{.dX,X<.{.dXdXsXdX:XqX0XPXuXuXAXJXSXSXuXqXeXeX-X-XG 0X0X-X0XiXAXtXM E uXpXvXlXkXkXkX6XkXbXxXzXzXxXxXhXaXaXpX,Xv.:XY.pX<X[.aXdX]..XvXnXvX.X`.Q..X`.3XbXkXkXbXbX8X@XbX6XkX8X8XzXkXkXlXjXvXfX{.pXR.dXdXdXdX{.pX:X;X0 w -X;XwX:X'.sXsXsXvXsXsX.XvXaXXXjXvXvXnXjXjX4X3X3X!.lXkXkXzXzXbXzXzXkXkXjXbX6X3XkXmXbXbXbXmXbXcXcXmXnX<XV.fXdXMXdXR.E.MXvX`.sXsXpXR.pXnXsXjXlX6XlX`..XaXjXdX<X3XdXd.j qXY.I.F.{.{.pXdXdXaX].sX|.3XsXfX[.U.vX5X<XdX(.fXpX<.J.d.Y.,X:XD.P.L._.[.[.[.[.`.`.[.[._.V.B.C.B.9.9.'.'.R.c.l.A J J A J H N x PXyX{ rXJXJXyXH V { } *.| ..-.BXBXtX=.%.%.DXFXDXFX;.HXKX&.~ $.;.&.O.&._ _ ~ ~ ` [ [ ' ' ~ O.] ~ ' ' ..] ( =.] P ..] ..*.*...} ( =.X.( B B 1 & X o @ @ & & % q i w j d d d h h h ,.7.7.5.1.,.,.5.,.i.8.2.Z.`.C.Z.9.b.m.d.d.a.p.6.e.D s D D e.e.n D q.u.u.h.F 9 9 D b.G.C.C.C.C.F.n.n.n.b.M.S.S.M.F.F.F.M.m.m.b.a.a.a.f.d.p.w.w.s.t.r.r.p.u.a.m.b.b.b.8.a.p.w.>.h >.5.4.m s s ",
"r u t a a a p p p p b b f n n m b S A A Z Z Z Z c D p.a.p.u.i.b.i.i.b.b.b.b.m.b.b.b.b.a.x.w # # S t.p.a.n.D.n.F.n.n.S.M.n.F.F.B.G.C.C.^.^.C.C.C.C._.C.Z.n.N.n.N.n.n.n.n.n.n.b.8.i.7.5.5.5.4.4.4.g h h s d t r i q % # @ @ $ 1 B ' ZX%._ $.O.~ ` ' &.*.*./ / *.( } } B / ^ 5 ] 5 W _ &.O._ ) ) O.O.O.) &.;._ ) 3 Q O.` _ ^ / | / V M V C N H N e C X.X.{ } } { M N K e # z G l.h.P.z.7.7.7.A.j.A.R.<X2X`.|.6X3X4X2XG.1X1X'.5X`.3X2X^.1XdX<X2.1XdXsXvXpX:XqXeXuXiXJXJXJXJXJXuXqX-XqXl.l.G 0X0X-X0XuXAXAXM E uXpXjXlXkXzXkXkXzXxXxX9X9XxXzX6X3X=X2X{.T.,X'.'.C.dXvX].`.].aXjX2X`./.3XjX|.3XbXbXkXkXzX6X@XbX8XzX7XzX9X8XkXlXjXvXdXU.S.b.,XpX[.sXdX,X:X;X0 w -XP.wX:X'.sXsXsXvXvXjX2XvXaX.XhXjXaXjX.X4X|.3X2X!.lX6X6XzXzXbXzXzXkXkXhXkX6X6XlXbXcXcXbXmXbXkXlXmXMXdXU.fXdXnXpXR.wXnXsX2XvXvXdXpXgXMXvXvXcX3XhX`.`..XaX<X].4XdXd.j wX:XI.T.<X<X{.<X2XsX.XaX|..XdXsX'.^.sX].dXU.^.(.pXa.z.j.:X,X:XS.P.P.{.=XdX2XaX.X.XaX].]._.'.[.[.[.<X2XV.wXx.J K K E  .y e yXuXV  .JXJXtX} { V { yXyXtXtX=.&.-.FX-.&.$.-.-.-.-.GXLXHX:.$.%.%.%.&.#._ _ %.#.! [ %.%.:.#.$.] ~ &.] | ] =.=.( ..] ( tX=...X.| ..X./ I C 1 * o X X @ # % & 9 q i w w d h h h h h ,.5.7.,.7.1.,.,.,.,.8.<.0.0./.0.0.9.N.m.a.a.a.p.5.r.e.S D f D D D q.s.f.u.h.G 9 0 e.b.G.C.C.C.C.F.F.F.n.F.I.F.S.M.F.F.F.m.m.m.b.a.a.a.d.d.p.r.w.r.t.t.r.p.i.a.m.b.i.b.7.a.p.5.>.h 4.w.4.m f s ",
"u u t a a a s s p p f f f n n n b S Z Z Z Z A A s D s.j.d.u.i.v.i.a.b.b.b.m.m.b.m.m.b.p.l.w # # S t.p.a.n.F.n.n.n.n.S.S.M.F.F.G.G.G.C.^.^.C.C.C.^._.C.C.B.n.n.n.n.n.n.n.n.n.9.8.8.7.7.7.7.5.5.w.4.g g g h d p w w q q % @ X + < > ^ ZXFXO.O.%.) ` ] [ ! =.tX^ *.*.| &./ ! ] ~ ~ ~ Y _ ] _ ] _ Y _ O.O.^ ^ #.;.#.T Y ] &.~ ! ` [ ] / B M C x N K e x  . .{ { | ( C M e % z v F g.x.x.z.d.a.A.h.p.R.<X2X}. X8X6X3X4X(.1X1X1X].].jX3X^.1XdX,X2.{.dXdXvXpXwXqXuXuXuXJXJXJXJXuXuX-Xx.-Xg.g.F 0XqX-XqXuXAXAXM H uXwXvXlXkXbXbXkXzXzXxX9XzXzXzXhXhXaXaX].sX'.'.B.2.sXvX2X.X|.2XsX].!.Q.jXbXlXlXcXkXkXzXkX6X6XbXkXkXxXzXxX7XzXbXcXvXsX'.n.:XT._.dXsX<X<X:X;X0 w -XA.L.I.<XvXsXjXvXsX3X|.jX3X|.3XjXhXjX3X3X.X3X2X!.jXhX6XzXzXmXbXzXkXkXhXkXhXhXlXcXvXcXmXmXbXkXlXmXMXfX[.nXfXfXpXR.gXnXvXsXcXjXaXpXfXMXcXvXvXhXlX.X.XaXsXsX4XjXfXd.j wXI.T.'.<X<X[.<X2XsX2X2X|..X4XsXU.[.[.1XpXpXdXdX,X,.d.J.,X,X>XS.L.K.[.aXaX3X3X3XXXhXlXlXhX3X3X X|. X/.pXA.x.J N K  .q N uXyXV yXJXyXyX .{ } X.JXtXHXtXtXtXtX;.%.DXHXFX-.&.&.HXGX;.%.BX=.&.;.;.O.' &.;._ _ $.:...$.~ ' %.%.;.] $.$.=.&.( ..&...*.-.=.=.( *...} / C $ @ X X o @ # # 9 q q i w p d h h h h g g ,.5.,.,.u.,.,.1.<.7.i.<.W.0.OX0.0.N.n.m.i.a.a.a.7.w.y.D D f D D n q.r.u.u.h.F 9 9 e.b.C.C.C.G.G.G.F.F.F.I.I.S.n.n.M.M.n.m.m.m.b.b.d.d.m.p.d.p.w.w.t.t.r.p.i.a.b.i.i.i.7.p.u.w.>.h 4.w.6.g d d ",
"u r r p a s s s d p s f f n n n n F Z Z Z Z Z Z p n s.j.a.u.8.v.i.a.b.b.b.m.m.b.b.b.b.p.g.t # # S r.p.a.D.D.n.n.F.F.S.S.M.V.C.C.G.G.G.^.^.C.C.C.C.^.C.U.F.n.n.n.N.N.n.n.n.n.9.9.8.8.8.7.7.5.5.u.u.5.4.>.g h s d t i q e % & @ + 7 6 7 ) ZX;.] ;.' ! ) O.] ' %.| | / ^ / / ! ^ ` W ^ ^ ^ ] O._ ] ) ) $.O._ ) ) #.%.) Q ^ _ ] ) ) ) [ ] B B C % H H e e N  ./ / |  .C % & M K G c y.x.P.P.J.J.h.5.T.dX3X|.XX8X8X6X4XG.'.,X'.].|.jXaX_.[.<X,X2.'.dXsXsXpXpXwXuXuXPXJXJXPXJXuXeXqXqXqXl.l.g.0X-X-X0XuXyXAX1 K eX:XjXhXkXzXbX9XzXzXxXzXbXbXzXkXhXjXlX|.vX2X|.Z.0.vXvXsXsX2XsXvX.XQ.`.lXmXbXkXkXkXzXbXzXkXkXbXzXzXxXxXxX7X7XkXjXsXsX,XY.pXU.G.aX2X_.,X>X:X0 0 ;XP.:X,X2XsXaXaXsX3X2X`.4X3XXXaXvXlXjXjX3X2XaX2XZ.jXjXkXzXzXmXbXzXkXlXhXkXkXkXcXcXcXbXmXmXlXkXmXMXMXvXdXnXnXnX[.R.pXvXvXjXcXlXjXdXfXmXcX3XaX3XaX`.`.aXvXdX2X3XfXd.h wXR.<X[.<X<XdXdXdXsX.X|.3X2X4XsXC.<X2XdX,XY.<XfXpXu.J.A.,X1X,XI.:XK.<X3X3X3X3XXX X6XkXkX8X6X8X+XoX XsXn.J.x.G N k N 0XuX .V rXyXrX .{ C X.HXGXtXHXtXFXtXAXtX%.DXFX;.;.] FXGXHX-.-.FX-.FX;.:.&.ZXDXFX_ -.DX-.NX:.5 ~ ] ;.O.ZXO.' -...' =.[ ( =.*...' ..-...( } M * o X X @ & % 9 q i i w w p d d h h h h g >.5.u.7.,.<.,.,.,.<.i.b.9.0.0.}.!.C.Z.n.b.i.a.m.b.p.p.r.n D f b m n q.u.<.i.k.F 9 0 e.b.C.C.Q.C.C.G.G.F.F.S.S.M.n.M.M.n.b.b.m.b.b.b.m.m.A.a.j.k.w.w.t.t.r.a.i.b.b.i.8.i.i.p.u.w.>.h 5.w.4.g d d ",
"r w w t a a s s d w s f f n g g n F S A S Z Z Z p D p.a.u.7.8.b.i.a.b.b.b.b.m.b.b.m.b.p.x.t # # S t.s.a.D.S.n.n.F.F.S.S.V.V.B.C.G.G.G.G.G.G.G.C.C.G.F.G.F.N.n.n.n.B.V.V.F.n.n.n.v.v.b.8.8.7.7.a.u.7.5.5.>.g g d d p r r e % @ X o 1 B 7 R ;.-.' #.' _ ] ] O.$.' =.%.] ` ] ] ^ 6 ) 6 ! ) ~ O.;.%.&.O.! ) _ ^ _ ) O.ZX) Y _ _ _ ~ ) ) _ ' ! B C % U H H M % { X.B | } / % x N J Z G l.x.z.A.A.j.a.R.pXdXXX@X+X6X3XsXU.F.T.'.[.|.3XsX[.1XpX<X9.'.sXvXjXsX'.wXgXgXPXPXPXPXuXeXeXqXqXqXg.l.y.qXx.-X-XiXyXAX1 H iX:XaXkXkXzXkX7XzXzXzXzXbXbXzX7XhXlXkX6XlX3X4X|.2XnXvX3X3X2XvXmXsX].3XcXcXkXkXbXbXzX6XbXkXlXkXzXzX7X9XxX7X7XkX6XsXdX,XpXI.T.dX.X2XfX1X1X:X0 0 ;XJ.wXpX<XsX2X4XsX3X3X4X4XjX3XjXlXlXhX3X3X2X3X.X0.jXlXlXkXzXbXbXbXkXkXhXkXkXlXcXcXvXmXmXmXhXlXmXMXMXvXnXnXnXnX[.{.,XsXcXkXcXkXlXdXdXmXcX2XaXaXaX`.Q.2XjX4X2X3XsXi.h wXR.<X5X2XdXdXsXdXsX|..XjXsXdXdXV.<X2XpXpXi.pX'.wXm.L.m.T.].1XF.I.F.2X3X6X6X6XXX@X8X8X7X7X+X8X+X+X@X|.T.;XD K u K rXiX0XH U X.yX*.} C yXJXtX..FX*.FXAXtX=.=.FXHXDX&.-.LXHX-.HXHXLXHX=.-.-.-.FXHXFXFX;.HX-.] ' ..$.-.-.-.FX' -.&.` $.*.....*...] ] &.*.( *.( * $ X X @ @ # # 9 i w t w w d d h h h h h h h >.5.u.u.u.<.<.<.<.<.9.9.9.W.Z.}.!.C.C.M.a.a.i.b.b.a.d.r.g f s b n e.s.d.i.b.j.e.9 0 y.b.C.C.!.C.G.G.G.F.F.F.S.S.S.S.S.M.n.m.m.m.b.b.m.A.A.d.A.j.u.w.s.s.r.u.i.b.b.i.i.i.a.p.u.w.>.h 4.w.4.n h d ",
"u r w t a a p p p w d f f n 4.4.n D S Z S Z Z A a D p.p.u.7.i.b.b.b.b.b.b.m.A.m.m.M.A.a.x.a # # S t.s.a.A.F.D.n.F.S.M.S.V.V.F.G.B.G.G.G.G.G.G.C.G.U.C.V.n.v.M.n.n.B.C.C.B.n.n.n.9.v.b.b.i.8.i.a.8.7.u.7.,.>.>.h h s p r q e & X X @ 1 1 < , ` FX&.) %.$.) _ _ %.' =.' | %.%.=.( [ ^ Y Y ~ ) ) $.O.~ ! ] O._ _ +.) W ;._ W _ 6 ) _ T _ ~ ! ^ 1 B V I C V M % % { R | | / V M N A J l.x.s.D.A.A.a.Y.<X2X X@X@X@X3X2XG.F.Y.T.[.2X3XsX].1XpXdX9.[.jXjXlXjXC.,XgXgXgXuXuXuXMXgXwXwXqXx.g.x.g.-X-X-X-XuXyXAX1 K eXpXjXkXxXbXzX7XzXxXxXzXbXbXxX7XhXkXzXkX8XkX6XjXvXvXaX.X|..XvXmXsX|.4XlXcXlXzXzXzXzX8XkXlXhX6XzX7X7X9XxX9XzXzXjXjXsX'.pXS.{.sXsXsXsXdXdX:X0 0 x.A.:XR.dXsX3X4XjXsXjXjX4XjX3X6XcXlXhX3X3X2X2X|.0.jXjXcXkXzXbXxXbXkXkXhXkXkXlXcXcXnXmXmXmXkXcXmXmXmXvXmXMXnXmX[.pXdXvXcXcXcXkXjXdXdXcXkXaXsXvXjX.X_.aXvXsXsX6XsX7.h :XT.1X2XsXsX4X2X.XsX^.|.sXvXsXdXU.pX1X<XpXY.fXpXR.u.:XS._.2X<XG.Y.F.2XXX3X6XhX8X@X8XkXzX8X+X@X+XoXoX^.,XP.D K H uXiX .J J yXrXX.X./ BXHX=.| GX-.-.FXFXHX-.-.HX;.' ZXKXHXFXKXKXGXBX' FXGXGXFXZXFXDXZXZX] $.-.%.-.HXNXFXHX-.%.-.' &.&...BXBX%.~ ..BX:.] *.B 1 o     X & # q 9 9 t d d j j j d f h h h h h h >.5.7.7.7.<.a.i.8.8.n.9.B.Z.!.}.0.Z.B.M.m.i.i.b.n.b.j.s.g l l S D e.s.m.v.b.A.e.0 0 t.b.C.C.!.Q.C.G.G.F.F.F.F.S.n.M.S.S.M.M.M.n.b.b.b.A.S.A.A.A.p.u.s.s.p.u.i.b.m.i.i.a.a.p.u.w.4.h 4.5.>.4.h f ",
"t r w t a a p p d w d f f 4.>.4.g D Z Z F S A A s D r.p.u.7.i.b.b.b.b.b.b.m.A.m.m.M.A.a.x.a # # Z t.s.p.b.S.n.n.B.n.n.S.V.V.C.G.C.G.G.C.G.G.G.C.G.T.F.B.n.b.S.n.n.B.B.B.n.N.n.n.9.v.b.v.i.i.i.i.8.7.u.u.,.,.,.h h f s t r e % @ @ @ o $ 7 7 , Y -.&.] &.$._ ] ~ $.~ $.$.$.] 4 ] ( ^ ' ] 6 4 W ~ ! ~ $.^ ! O.] ] O.^ Y O.] ^ O.^ 6 ) ~ R ^ ^ R B / P V B M M e & B R ^ / X.E N y K K l.h.L.D.D.a.I.<X2X.XXX XXX3X[.U.S.F.T.{.dXaX2X'.{.pXdX9.].jX6XkXkX/.].dXgXwXgXgXgXnXfX1X:X;Xz.t.x.g.-XqXqX-XuXyXAX1 A eXgXlXkXxXbXzX7XzXzXxXzXbXbXzXzXxXzXzXzX8XzX8XcXvXnXaX4X|.3XvXvX4X}.|.jXcXbXbXzX8XzXzXlXjXhXXXzX7X9XxX9X9X9XkX6XjXsX'.F.Y.{.[.sXaX^.2X<XD.0 w x.P.pX,XdXvXsXsXvXsXjXjX6XcX6X6XbXcXlXlXsX3XsX2X0.jXjXkXkXkXbXzXbXkXlXhXkXkXlXcXcXmXmXmXmXcXmXmXmXmXnXMXMXvXbXsXdXfXvXcXbXkXkXjXdXdXcXjXaXdXsXaXaX_.jXvXsXsX4XsX7.1.pX,X5X4XsXsX4X<X[.sXQ..X2XsXdXdX{.dX1XdXR.wXpXfXY.a.R.Y.1X5X5XG.T.T..XXXXX3X6X6X X6X@X@X XoX X+XoX}./.n.P.y.iXuX .K 0XJ uX . .o.X.HXHX=.FXHX*.-.FXFX;.DX;.;.ZX-.;.FX-.HXGXHXGXLXGXLXUXFX%.DXHXDX-.-.&.;.-.-.-.FXHXGXHX-.' %.&.=.&.%.HX=.' ( =.%.[ =.( 6 *     o @ @ # q r w p d d j h h h h g g g g g g g ,.5.7.<.<.8.S.b.b.n.B.0.B.C.!./.0.0.N.M.m.i.b.n.S.b.m.p.q.D S D D 6.p.b.9.n.D.6.0 0 t.b.Z.C.!.Q.C.C.G.F.F.F.S.M.b.b.m.M.M.M.M.n.n.b.n.S.S.S.A.A.a.a.d.s.p.i.i.m.m.i.i.a.a.p.r.w.>.h 4.5.>.n h d ",
"w r w p a s p p s w s f f n g g g D S Z S S Z F c n r.u.u.7.i.b.i.a.i.i.i.b.a.a.v.m.b.p.h.p # # c y.s.u.b.n.n.n.n.n.n.M.V.V.C.G.G.G.G.C.G.G.G.C.B.G.F.M.n.n.M.9.n.B.B.B.B.n.n.n.n.n.b.b.b.b.b.i.8.7.i.u.<.u.5.>.h g f p y k % @ @ % & o X $ 7 5 ~ -.-._ O.;.] ] ~ &.' O.%.$.$.] | ] | @.] ~ 5 ! ` ` ~ @.&.] O.O.) ) ) ! O.] 2 _ O.4 Y ) R R B ^ ! B ( B / V x M $ B ^ 1 /  .{ H N N G y.;X;X;XA.R.pXdX.X X XXXaX<XT.I.K.I.'.2X|.[.'.'.<XdX9.'.sXhXzXkX6X|.1X<XpXgXfX4XcX4XH.T.:Xz.t.x.t.-XqX0X-XiXyXAXM H eXgX3XzXxXbXbX7XzXxXzXzXbXbXzXzXzXzX7XzX9XbX8XcXaXnXjX2X|.sXmXvX3X.X3XlXlXlXbXzX7XxXzXkXhXhX+XbXzXxXxXxX9XzXkX8XvXnXdXT.R.dXdXsXvX|.dXfXL.0 p x.P.pXT.[.sXsXsXvXjXjXjXjXbX6X3XcXcXjXjXsX3XsX2XZ.sXjXlXkX7XzXxXbXkXlX6XkXkXlXlXbXmXmXmXcXbXmXmXmXmXmXmXMXcXcXnXpXfXaXcXmXcXjXvXsXsXbXlXfXdXvXvXjX.XvXnXvXjX3XsX<.h wX1X4X4X4XsXsXdX2XsX].sX2X3X2X<X'.{.G.T.:XR.pX,XY.m.Y.T.2X|.]._.<X1X.XXXXX3XhXXX X@X6XhXXX}.}.`.OXQ.T.u.x.uXuXU U rXiXiX{  . .yXyXBX=.-.*.$.tX-.FX&.-.] #.ZX;.' ;.FXFX-.%.KXUXKXKXKX-.NXHXHX-.#.&.%.;.-.HXHX-.-.FXFX%.FXO.;.-.] =.FX....( -...] BX! , +     o   @ % q q t p d j h >.h h h h g >.4.q.4.4.5.5.7.7.<.,.<.M.n.n.B.G.0.Z.!.!.`.0.0.N.M.M.b.b.S.n.b.a.s.q.f l S D 4.a.M.9.B.D.6.0 0 h.M.C.C.!.Q.C.C.B.B.B.n.M.S.M.M.M.M.M.S.S.M.n.b.b.m.S.S.m.m.d.d.d.s.d.a.i.m.m.i.i.a.a.7.u.w.>.h 4.5.>.g h h ",
"u r w t p s p p w p s c b m m n q.D S S S S S S c D r.h.5.p.a.a.p.a.a.i.i.b.b.a.v.b.b.a.r.a # # S g.s.a.b.n.M.n.n.n.n.n.n.F.G.G.F.U.G.C.G.G.G.F.V.F.T.n.v.F.F.F.0.C.V.B.B.n.n.b.S.b.v.b.b.i.i.b.v.i.i.i.7.7.7.,.>.>.g d A e % @ & % # % # @ @ 1 | ~ ) ;.&.] ;.;.Q Q ;.#.] %.$.' ] =.B | ..| ] 6 6 ^ ! 5 R R R _ ;.&.! Y ^ _ #.) ) _ ^ Y ^ Y 6 ! 5 ` ` ! ^ B V | / $ $ V C R yX{  .C N A G -X-X6.S.dXdX[.|.aX|..XdXI.P.a.M.G.4X4X5X<XG.2XdXB.U.dX3XjXkX|.].sXdX4XvXfXvXsX2X'.R.:Xj.x.g.l.-Xl.l.l.E rXAXx K eXgXjX7XxXkXkXzXzXzXbXzXzXzXzXzXkXzX7XxX7XbX8XkXaXMX.XdX[.sXnXcXlX3XlXjXcXvXbXzXzX7XbXxXkXhX@X@X7X9X9X9XxXzXkXjXvXvXvX<X<XvXmXlX3X3XdX,XwX0 w ;X;XpXF.dXvXaXsXjXvXaXlXmX3X XjXlXlXjX3XaX].dXdXB.vXvXjXkX8X7XxXzX+XkXkX@XkX6XhXcXmXmXbXcXvXcXmXmXmXmXMXmXcXbXlXgXgX{.vXvXcXvXnX2XjXvX3XdXfXmXjXhXlXbXkXlXjX3XvX<.1.pX_.8XkXjX2XsXfX[.vX|.4X3X4XsX<X_.G.{.pXK.S.gXpXK.b.{.'.4X2X'.'.1X]..X3X.XXXhX|.~.6X X6X/.].2XG.T.L.q.iXuXrXV } rXyXrX .{ { yXyX*.tXtX-.=.FX-.tX-.FX%.-.-.` HXZXFX-.-.FXKXUXKXKXLX&.HXLXGXZX;.;.-.;.DXFXFXZXHX-.&.$.-.%.-.NX=.HX=.:.&.-.;...&.$.! >   X X o X X # 9 i w d d h h >.>.1.>.>.>.>.>.5.,.7.7.<.<.7.i.u.3.1.<.B.C.Z.0.!.!.OX!.Q.Z.0.Z.V.n.n.n.B.B.n.a.e.f l F S S r.d.n.n.B.D.D 9 j 6.H.C.!.!.Q.Q.C.C.G.G.V.V.M.M.F.F.F.V.n.n.M.m.m.m.A.A.A.A.D.A.a.k.s.d.u.i.b.b.i.i.m.A.a.u.7.5.>.>.4.4.4.g h ",
"u r w p s s p d p p p s f b m m m m S S F F S b m e.g.h.5.u.p.p.u.u.p.a.a.a.d.a.b.m.m.a.r.c # # S h.s.a.m.n.n.n.n.n.n.S.V.F.G.G.F.U.G.F.G.G.F.V.F.F.I.n.n.G.B.B.N.B.B.N.n.n.n.n.n.b.v.b.b.v.v.b.v.v.i.i.7.7.7.<.7.5.>.s Z u e @ q e q q # & @ o o B ' 6 :.FXO.;.;.ZXQ #.-._ :.$.../ tX( B ..| ] ! 5 4 B ~ Y 4 Y ~ O.;.) _ ) ^ ;.+.Y ) _ W W _ ^ ) 5 ^ ' [ R R ^ / P 1 1 B B V | } X.{ x N G G g.L.<X<X[._././.aXpXI.K.A.I.G.4X3X2XdX^.4XdXB.V.dX3XjXjX`._.dXaX3XlXhXjXsX2XU.I.:XP.P.g.l.-Xx.x.l.E 0XAXx A eXgXvX@XkXkXkXkXzXzXxXzXzXkXkXzXkXzX7XxX7XxX6XhXhXnX[.dXdXnXnXcXcXjX3XmXsX3XjXmXxX9X9XxXzXzX7X7XzXxXxXxXxXbX6X4X3XvXnX'.[.sXvXhX.X2X<X,X;X0 t ;X;XpX{.[.sXaXsXsXvXaXjXjX3XXX3XjXvXjXaXaX[.dX<X0.dXvXjX6XzXxXxXxX@XzX6X@XkXlXhXcXbXmXbXjXvXmXmXmXmXmXmXmXbXbXmXgXR.dXvXcXvXsXnXsXsXvX2X[.dXnXhXhXlXlXhXkXjX6XjX,.1.:X'.|.jXjXaXsXfXdXnX2XsX4X4X4X1XU.U.{.pXb.:XpXgXM.K.,X|.|.|.{.T.].|..X.X`.|.3XXX).).6X/.2X'.S.:Xa.g.uXuX .I rXyXX.X.X. .I yX*.tXtX=.%.-.HX-.FX-.-.;.ZXHX$.FXZXLXHXGXFXGXKXKXKXFXNXLXHX-.-.;.;.ZXZXZXDXHXFX-.ZX;.;.-.FXDXNX;.HX..( NXFX%.' $.$.B +   X o o o . X # q 0 w d h h >.>.>.>.,.,.5.,.7.7.i.i.i.8.<.8.i.u.3.<.v.Z.Z.!.!.~.}.OXC.Q.Z.0.B.C.n.n.N.B.B.n.a.e.l D F S S r.a.n.B.B.S.F 9 j 6.F.Z.!.!.!.!.C.C.G.G.G.F.V.V.F.F.V.n.F.F.M.b.a.d.m.J.A.A.D.m.j.j.s.s.p.i.a.a.8.i.m.m.b.a.p.5.5.5.4.4.>.g h ",
"t w w a c d d d d p p s f m m f m m D F G F S m m e.g.h.4.w.u.u.u.u.u.i.a.a.m.a.m.b.b.d.h.s # # b h.s.d.M.n.n.n.n.n.n.S.S.V.G.G.B.G.G.F.G.G.B.n.M.M.F.n.B.T.B.0.B.C.B.9.n.n.n.n.n.b.b.b.b.v.v.b.N.v.v.i.8.7.8.7.u.w.4.f v u e @ q u r r q e # @ o X $ %.' ) FXO.Y ;.DXO.W :.&.@.| &.} ( | / ( / P ^ P 6 6 R ! R ) Y ] O.+.) W ^ O.O._ _ _ T 3 ) _ ) ^ ^ ^ / ^ ! 6 ..( B 1 $ B 1 V / X.rXN z J x.P.Y.Y.T.C.!.!.|.].T.I.m.I.T.2X3XdXsX`.4XsXV.V.dXaXlXjX`.^.2XsXaXlXhX3XsX2XU.F.R.qXx.y.y.-XqX-Xl.0X .AXx A eXgXsX@XxXkXkXbXzXxXxXzXzXkXkXkXkX7X7XbX7XbX6X6XjXnX[.[.<XvXvXvXlX.X|.2X'.sXcXjXkXzX+XzXxXzX7X@X7XzXxXxXzXzX6X3X3X2X<XC.].aXaX3X.X2X<X,X;X9 t ;XL.pXpX[.sXjXjXaXvXlXlX3XlX3X4XlXvXjXjXaXdX2X1X9.<XfXsX3XkXzXxXzX7XxX6X XkXkXhXlXbXbXcXaXvXmXmXmXbXmXmXmXkXkXMXgXR.fXnXvXsXpXfXdXsXjX.X[.[.nXjXjXlXkX6XjX3X6X4X,.,.pX<XsXjXsXdXfXgXfXpX{.<X2XpXpX,XT.T.{.{.9.pXpXgXv.Y.pX4X|.].{.T.'.2X|.|./..X6X X X/.}.Z.B.S.wXr.eXCXrXU yXBX=...| *.X.{ tX*.JXHXFXBXHX-.FXFX&.-.FX-.;.;.DXFXFXDXGXGXGXKXKXHXFXLXLXFX%.FXFX;.-.-.DXHXLX-.-.HXZXZXFXZX-.-.FXFX&.-.FX$.` ] :.` 1     $ o @ @ @ o o 9 w w d h h h ,.>.,.,.,.,.,.7.7.a.a.i.i.9.9.9.b.d.a.K.V.Z.Z.!.~.~.~.OXC.C.B.0.B.B.n.n.n.n.n.n.d.y.S D e.F S r.a.n.B.B.S.F 9 p 6.S.B.!.!.Q.C.C.C.G.G.G.F.F.V.F.F.B.n.F.S.n.b.d.A.J.L.S.D.A.m.A.z.s.s.p.i.a.a.8.a.b.b.b.a.p.7.5.5.5.6.4.g h ",
"t r w s c d p d p p p s b b m g m m D F F F S b m D r.h.4.u.p.p.u.u.a.a.a.A.A.m.S.b.b.a.h.s # # b h.s.d.m.n.V.n.n.n.n.S.S.F.G.G.C.G.G.G.U.G.B.V.n.M.M.n.F.T.G.B.G.^.G.N.n.n.n.n.n.n.n.M.n.b.v.b.n.v.v.v.8.8.i.i.i.7.w.f Z y e @ q u y z u u q e % @ X o ] ;.^ -.FXO.' &.%.] _ %.@.*.| B / | / *.] ^ ! ^ ^ ^ ^ ) 6 ^ ~ ) Y _ O.3 ) #.+.Y Q #.' 3 5 ) ) Y ^ ) ^ 6 [ P ^ ! / P 1 7 B B C { E N N Z l.P.qXwXG.].|.|.|.<XF.9.M.T.2X3X2XdX/..XsXC.V.dXaXlXaX`.G.[.4X3XcXjXjXjX4X'.T.R.;Xz.q.y.-XqX-Xl.0X .tXx N eXgXsX6XzXbXzXbXzXxXxXxXzXkXkXkXkXzXzXbX@XbX6XhXvXvX[.dX[.sXmXmXjX].dX[.1XG.].4XmXXXzXzXzXzX7X7X7XxXxXxXzX7XkXkXjX4X[.C.2XjX3X3X3X[.<X,X;X0 w P.L.,X{.<XvXvXvXjXnXlXjX6XlXhX4XjXlX3XjXaXsX<X1X9.1XfX4X|.6XkXzXzX8XbX6X XlXlX3XjXbXbXcXvXmXMXmXcXcXmXMXmXkXbXMXMXwXpXfXnXnXfXgXdXfXvX3XdXdXnXlXlXlXzX6XjX X8X4X,.,.pXpXsXsX<XpXfXgXMX,XT.{.<XpXdXpXY.Y.{.U.v.,XfXpXi.m.,XdX|.`.,XR.G.2X|.}./.hX3X/.|.].].G.S.qXf iXPXrX{ yXBXBX*...=.=.| HXtXHXtXHXFXFX-.FX-.&.FXFX-.%.-.-.-.FXHXFXHXFXLXGXHXGXLXGXFXFXFX%.%.FXDX-.HXHX-.FX;.-.HXHX;.-.;.FX;.%.BX%.&.:.&.( 6 $     X   @ @ & & o @ q w d h g >.4.5.5.,.5.5.,.,.5.7.7.i.<.i.v.9.9.n.S.M.I.G.C.&X&X~.~.!.!.C.C.N.0.B.n.N.n.n.N.9.b.k.g.G D y.F S r.b.n.C.G.S.m 9 j 6.S.B.!.Q.Q.Z.C.C.G.G.G.F.F.F.F.F.F.F.F.M.M.b.m.J.L.Y.S.D.D.m.A.J.s.s.p.i.a.a.i.i.b.b.i.a.8.7.5.5.5.w.4.n g ",
"p w p c S s d p p p p s b b m m n n n D S S m m b e.r.h.5.p.p.s.p.a.a.i.a.A.m.m.S.v.b.d.h.c # # b h.s.a.b.n.V.n.S.S.S.S.F.F.G.G.G.U.G.G._.G.F.F.n.V.M.n.F.G.G.B.G._.G.Z.B.F.B.n.n.n.n.M.n.b.n.n.M.v.v.b.i.i.b.i.a.u.w.n S A N # i a v Z t t r x M & @ o o B *.] @.GX;.! %.&.W O.$.] @.tX] ( &.^ ( ..../ 6 R / [ ) ] ~ $._ ! ) #.Y ) O.O.) ) #.&.^ 6 ^ ] ^ ~ ` ^ ! 6 P ` B [ %.7 7 1 1 M V { V N A l.-XqXI.1X4X4X4X2XB.v.F.{.[.aX.X3X/.|.sXC.B.dXaXlX3X]._.'.2X.XlXlXjX3X2X<X,XR.wXP.e.t.-X-Xx.g.0X .tXx N eXgXsX6XkXkXkXkX7X7XxXxXzXkXkXkXzXzXxXxX@XxX6XjXvXaX].fX2XsXnXmX.XC.dXgXT.,XfXsXmX3X8XzXzXxXzXzXxXxXxXzXzXzXkXjXjXvXvX/.jXlXhXhX3X].,XpX;X0 w z.:XpX_.2XvXvXvXaXbXlX3XjXkX3X4XlXjX4XlX3XvX<X'.9.T.dX<X2X|.6X8XkX6XbXkX3XlXvX3XjXmXnXmXmXmXmXbXkXbXmXMXmXkXbXMXMXwXK.pXMXMXfXgXpXdXsXsXsXaXcXkXkXhXkX8XcX4XkX3X<.,.:X,XdXdXdXdXfXfXMXfX{.,XpXpXpXR.K.K.,X_.n.,XfXgX<.i.{.dX.X`.{.I.G.].`.|.|.3X|./.].G.T.wX;Xy.JXuX{ X.JXHXHX*.&.-.=.=.HXHXFXAXHXFXFX-.FXFX;.HXFXGX-.FXFXLXGXGXFXHXFXKXHXFXGXGXFXFXFX&.%.-.HX;.FXGXFXGXFX-.-.GXGX-.&.GX;.%.~ -.:...&.| ^ < + X   X @ % & # % % @ @ q w d h >.4.5.5.7.5.7.5.,.,.,.,.7.7.8.v.N.9.9.N.n.n.V.C.!.!.!.~.}.}.!.Q.C.N.n.V.n.n.m.M.v.9.b.h.G G g e.F D r.b.n.B.G.S.b 9 w e.S.C.C.!.C.Z.C.C.G.G.C.C.F.F.F.F.F.G.H.F.M.m.m.J.J.L.S.A.S.A.A.j.s.s.a.a.a.a.i.i.D.b.i.i.7.7.7.5.5.w.4.g h ",
"a p d c m s s s p p p d s m m m e.q.D D F S F F m 6.r.h.4.p.p.p.p.p.a.a.i.b.m.b.m.b.b.d.h.c # # c g.s.a.b.n.M.M.S.S.S.S.S.V.F.G.G.U.G.G._.G.C.F.n.F.M.F.F.F.G.B.C._.^.B.B.F.B.n.n.n.n.n.n.n.n.n.n.v.b.n.b.b.b.b.b.i.u.4.m v N @ i Z Z c a Z a u u e % & @ X $ / | [ -.-.^ #.-.^ O.O.@.( =.| B | P B ( *.| 1 < B [ @.;.;.O.%.+._ O._ +.O.+.O.O._ O.! Y ~ ~ ~ ] O.] W ^ 6 4 6 6 =.R 7 B / B V { H H K A l.P.,X1X4X4X(.9.F.T.{.'.aX.X3X/.|.sXC.W.dXaXlX3X[.'.'.<X].jXlXjX4X2X2X,XY.L.P.t.c.-X-Xx.g.-X .AXx N eXgXdXXXkXlX6X7X7X7X9XzXkXkXkXkXzXzXxXzXkXzXhXjXvXaX_.dX2XsXvXvX[.G.dXgXpXMXgXdXvXjX XzXzXkXzXxXxXxXxXxXxXzXkXlXjXsXsX`.6XlXjXhXaX<X,XpX;X0 0 P.wXpX_.dXsXaXjX3XcXlXXXlXjX3X6XlXlX3XlXjXvX<XT.<.:XpX<XdX.X3XkXkX8XkXkX3XsXvXaXjXnXvXmXMXMXmXbXcXbXmXmXbXkXmXMXMXwXM.fXMXnXpXgXpXpX<XsXsX2XcXlXkXhX7X8XkX6XkX3X<.1.wX,XdX4XsXpXdXfXMXfXpXpX,XpX,XR.Y.R.pX{.B.pXgXgX,.v.{.aX.X[.{.I.G.[.|..X|.^._.[.U.b.:Xh.0XJXyX ...JXJXHX*.-.-.$.%.FXGXtXAX-.FXGX-.FXFXHXGX-.HX;.HXGXGXLXLXHXHXHXFXGXHXHXFXFXGX-.' -.-.FX-.GXGXFXGX;.FXAXHXHX@.%.FX-.O.-.$.~ FX&.../ 1 o   o @ & & # # # q e @ @ r p h >.5.5.7.7.7.<.7.7.7.,.5.7.7.8.8.v.N.9.0.B.B.B.C.Q./.~.~.~.oX.X!.^.G.n.n.F.n.M.S.K.b.8.b.h.G G g q.F D u.b.n.Z.G.D.s 9 0 e.A.F.Z.C.C.Z.C.G.G.G.C.C.G.G.F.B.B.G.B.B.n.m.m.J.J.K.D.S.L.S.A.j.p.d.a.i.a.a.i.a.D.b.i.i.a.7.7.5.5.w.4.g g ",
"a p d s b b f s d d d d s f m m 4.e.e.e.F F F F m 6.r.p.4.r.r.p.u.u.i.i.i.b.m.b.m.m.b.d.h.b # # c t.s.a.b.n.V.n.D.S.S.n.D.n.F.G.G.G.G.G.^.G.B.B.V.F.n.F.F.G.U.B.C.'.^.B.B.B.B.n.n.n.n.n.n.n.V.V.V.N.n.S.S.b.b.b.b.8.p.5.m Z Z # w s Z S b F s s Z i q e % & X @ B =.] ;.HX_ ] FX) ) -.O.] &...] | / 7 1 7 B B B B 6 $.-.;.&.O.O.%.W _ %._ ) O._ ^ _ ! 5 ) _ ^ ) W ^ ~ ~ ) ^ 5 4 ] ~ 6 7 B 6 B / { I N K l.qX:X1X4XT.n.F.V.U._..X2X3X/.|.sXC.2.aX3XlX3X2X{.U.1X].jXlXjX4X2X<X,XY.J.z.t.x.-X-X-Xl.-X0XAXx N eXpX[.XXlXkXkXzXzXxXxXzXkXkXkXhXkXzXxXxXzX7XhXlXjXaX`.2XsXvXsXvXdX{.gXgXgXR.1.fXnX}.kXkX6X8X8XxXzXxXxXxX9X7XkXcXlX2X|.|.3X8XkX6XaX2X,X,X;X0 0 ;XpX<X[.aXaXaXvX3XlXlX3XkXkXkXjXkXlXkXjXjXvX2XF.<.:XY.T.dX3X6XhXkX6XbXjX].2XvXsXaXvXaXnXMXmXbXbXmXmXmXmXbXkXmXMXnXwXR.pXnXnXpXgXgXgXfXvXsX.XkXzXzXkXzXzX6X6X8X3X8.h pX,XfX2XsX5XsXsXvXsX1X<X,X,X,XR.R.pXpX'.G.gXgXwX,.Y.pX2X3X.X'.U._.[.].].[.G.'.:Xm.P.-XJXJXrX} | GXLXFX*.-.=.#.DXGXHX;.FX-.FXZX;.DXHX-.FXGXHX;.HXLX-.FXHXLXLXZX-.-.HXGXDXFXHX-.%.%.FX-.FXKXFXFXHX=.FXGXHXHX-.-.-.-.;.FX&.%.-.| [ ! o X X o @ & % % q q q e e @ @ t d h ,.7.7.8.8.8.<.7.7.7.7.7.7.8.8.i.N.N.N.0.Z.C.C.^.^./.~.~.~.}.}.C.^.G.n.n.D.b.S.m.K.b.8.m.h.G J q.r.e.D 7.b.n.Z.G.A.s 9 w e.A.C.C.C.C.C.C.G.G.C.C.G.G.G.B.B.B.C.B.n.n.m.m.A.K.K.S.S.I.S.A.j.p.d.a.i.a.a.i.i.b.b.a.i.a.8.7.7.5.5.4.g g ",
"p p p d s b f s d s s s s f m m n n n n m m m n n e.r.h.5.s.s.s.u.u.u.i.i.b.m.m.b.m.m.a.h.b 9 # s t.s.a.b.b.M.n.F.S.S.S.S.F.G.G.G.G.G._.'.G.B.C.B.F.n.F.T.G._.B.C.].^.B.B.G.B.B.B.F.F.B.n.B.V.C.F.n.n.F.S.n.n.n.n.8.i.u.e.F K # w s b D g h d D s p w e e e % @ X $ | *.#.ZX;.+.GX;.Y -.-.` | &.( | / 7 7 7 7 P | ^ B ( FXO.] ] ^ ;._ 3 O.#.) ] O.O._ Y 5 ^ ` _ ) W W 5 ~ [ ^ ` 4 6 ! ! 6 B B 7 B } I N z g.k.:X,X:XS.b.<.U.].Q.2X3X/.`.sXC.2.aX3XlX3X2X{.U.1X].cXjX8X3X2X1XT.Y.A.z.h.x.-Xx.x.l.J 0XAXx A eXwX[.}.hXkXkXzXzXxX9XzXkXkXkXkXzXxXxXxXxX7XkXkXjXvX[.2XaXsXsXsX<XT.gXpX,.<.8.1X<X/.lXkX7X8XkXzXzXxXxXxXxXzXzXkXjXvXcX3X6XkXkX6XXX[.T.:Xj.9 w ;X,X<X2XsXaXjXcXhXlXkXjXkXcXcXjX6XkXlX3XjXsXdXF.<.:XS.S.pXaXjXhXkXkXbXjX^.[.nXvXsXdXdXnXMXmXcXcXmXmXmXmXbXkXcXMXMXwXR.K.fXMXgXpXpXgXfX[.4X.XkXxXzXkXxXzXkX8X8X3X7.j pX,X<X].vX].4X2XsXnX<X<X1X<X,XT.Y.,XpXG.,XpXgXL.,.R.dX.X|.].G.F.G.(.[.C.T.R.:XP.y.eXPXVXyX| ..GXGX-.%.-.%.&.DXHXFX-.GXAXGXGX-.HXGX;.FXGXFXGXKXKXFXLXGXHXKXLXFX;.FXGXFX-.-.-.%.FXHXFXLXGXBXHXHXHXKXKXFX-.-.-.FX-.-.;.%.-.%.| [ , X X o @ @ @ % # 9 u u w u r @ # a h >.,.8.i.8.9.8.8.8.8.i.u.7.7.8.8.n.V.B.B.Z.Z.C.Z.Q.Q.!.~.~.%XoX`.Z.G.G.n.n.n.9.S.i.m.8.<.a.g.G J r.h.g.e.u.b.n.B.B.A.s 9 w y.m.B.Z.C.C.C.C.G.G.C.C.C.G.G.B.B.B.C.G.F.M.M.m.A.A.A.S.S.L.S.A.j.p.s.a.i.a.a.a.i.b.b.8.a.8.7.7.7.u.w.4.g g ",
"p p w s s s d d d p s s s f m n 4.4.4.D D D D e.6.r.p.p.w.w.r.s.u.u.i.a.b.A.m.b.i.n.S.d.g.c # # b g.s.a.m.M.M.v.S.S.n.b.D.B.F._.B._._.C.G.G.G.F.n.F.I.I.T.<XB.G.^.].G.Z.B.B.G.0.B.F.F.V.B.B.F.G.F.V.M.F.S.n.n.n.n.n.m.p.r.D c 9 0 D q.4.6.4.4.4.n d t u u e q % & X @ B $.$.&.-.Y ZXFX' $.&.[ [ *.] ^ / P 1 1 7 B / ^ B ^ _ ] $.) ! ! ] _ &.&.^ ] %.#.O._ T 6 ) &.) 5 Y ! 5 Y ) ' ^ 5 W ! 5 5 ! B > / X.C A l.y.;X;Xz.d.8.V._..X].dX/.`.sX_.2.dXaX3X.X[.pX{.U.^.jXlXjX3XsX'.,Xb.7.P.x.x.qXqXg.l.-X0XuXN z qXwX1XaXlXjXhXkXzXxXxXzXkXkXkXkXkXzXxXxXxXzXkXjXvXsXQ.2XdXvXsXvX[.{.pXb.<.L.S.,X1X].jX8XkX8XzX7XzX7XxXxX9X9XzXkXlXjX4X3X7XzXkXhXOX].<X:Xz.0 w P.,X1XaXjX/.cXlXlXbXlXjXbX6XkXkX6XjXhXhX8X4X<XF.,.L.L.R.{.aXhXhX8X8XkXsX_.<XnXsXsX<XpXMXMXmXlXvXmXmXmXmXbXmXcXMXMXpXR.pXdXMXpXpXgXgXfXsX/.4XkXxXxX+X7XxX6X6X8X4X,.1.pX,X<X2X2X2X2X^.sXvXdX'.U.pXpXY.F.:XpXM.<XpXgXL.<.pX2X|.hX.X^.{.,X'.T.n.wXz.c.l.uXPXyXX.} tXHXHXNX' -.=.NXHX-.%.-.GXFXKXFX&.GXFX;.HXFX-.FXKXKXGXHXHXLXIXHXHX-.HXHX;.-.GX-.NXGXGX=.KXGXFXFXBXHXLXHX*.-.GXHX;.;.-.%.;.-.$.' ~ $     @ @ @ @ # i i i t w w w t # # s g ,.<.8.i.b.v.9.8.8.8.i.i.i.i.i.8.v.B.N.B.C.Z.!.!.Q._.!.~.%X+XoX!.Z.C.V.n.<.n.D.M.m.m.8.8.a.r.J J g.w.y.y.5.b.B.N.B.b.F 9 0 g.m.n.C.C.Z.C.C.C.C.C.G.G.G.C.C.G.C.B.G.F.S.M.m.A.A.S.m.S.Y.S.A.j.s.p.u.a.a.i.i.b.b.b.i.a.a.p.7.u.u.w.w.g g ",
"p p w s s f s d d d d s d d f n n 4.4.D D D D e.q.r.w.w.w.w.p.p.u.u.i.a.b.A.m.b.b.b.n.m.h.c # # c t.p.a.m.M.F.n.n.S.D.b.D.n.B.G.B.G.G.G.G.G.G.G.F.9.9.I.I.n.2.[.^.`.^.^.^.C.G.0.B.F.F.B.B.B.B.C.F.V.V.F.S.n.9.n.n.n.n.a.r.D S 9 0 D q.4.5.,.,.>.q.g d a a t u r e % @ X $ ' ;.;.-.] ~ HX%.~ ' &.( | ] 7 / ( B 1 7 7 7 B 6 6 ! ~ O._ ^ ) $.] ] ' ) ^ $.&._ O._ 6 Y ) _ W 6 5 ~ _ 2 Y ^ 5 6 ! ! B ` ` 6 P X.V z G -Xg.g.x.p.Y.{.G.[.dX/.].dXU.2.dX.XXX2X2X<X{.T.^.3XlXcXsX3XG.T.b.a.P.z.x.qXqXg.l.-X0XuXN z qXpX<XaXlXlXlXzXzXxXxXxXkXkXzXkXkXzXzXzX7X7XkXkXjXvX[.dXsXvXsXvX<X{.R.S.A.Y.I.fX[.2XcX6X8X@X8XzXzX7XxXxXxX9X7X6XkXlXjX X8XzXkXlX`.[.pX:Xx.0 w P.pX<XaXjX`.cXhXhXcXjXjXcXjXcXkXhXjX6X6X8X4X<XF.1.A.A.Y.T.2X6XkX8X8XkX3X'.{.nXsXdX[.pXMXnXmXcXvXvXnXmXmXbXmXcXMXMXfXpXpXpXnXgXgXgXgXpXsX2X6X8XxXxX@XxXzX6X6X8XsX<.>.wX:XpX,XdX<X2X].sXfXdX<X{.pXpXK.m.R.:XS.pXpXgXd.7.dX2XlX|.].1XF.T.S.A.;Xh.S uXPXJXX.| tXBXFXFX=.;.GX;.=.NX%.;.FXFXFXHX;.O.HX-.ZXHX;.FXLXLXFXFXHXFXKXUXGX-.FXHXHXFX-.FX$.HXGXHX%.UXHXGXLXHXLXLXFX*.FXLXHX-.-.;.-.NX$.$.` 7 o   o & @ # # # q r w w p d d d a 9 # b 4.,.<.8.9.v.b.9.8.8.8.8.i.i.i.i.b.n.C.N.B.Z.&X!.!.C.`.!.~.%X+X).0.^.G.n.N.9.H.F.S.b.m.b.A.j.g.J G h.p.e.e.7.b.F.Z.B.b.F 9 0 g.A.V.C.C.B.B.C.C.C.C.C.G.C.C.B.C.G.C.B.B.M.m.m.m.m.m.b.S.S.S.D.d.d.p.a.a.a.i.i.i.i.i.i.a.a.8.7.7.w.w.4.h g ",
"p a w c s b s d d p d p d d f m n n 4.n n n D q.q.6.w.w.u.p.p.p.u.u.i.i.a.A.m.b.M.v.b.m.h.c # # c r.p.d.M.M.M.n.n.S.A.S.S.V.B.G.G.G.G.G._.G.G.T.n.v.b.M.n.n.n.'.].].^.^.G.B.G.B.B.G.G.B.B.B.B.B.B.n.B.F.S.n.n.B.B.n.M.i.p.e.F 0 j e.r.w.u.,.5.5.w.4.h f s p p t r i e & X X B -.%.;.-.~ ZX-.! ] ../ ..( P B | B B B 7 7 ! ^ B Y ! ' ) 2 ) O.O.^ ^ &.) ) ;.&.O.] W 3 Y ` ~ 7 7 ~ ^ Y Y ^ ) ~ ! R B ^ ] ^ / } U { K 0X-Xl.g.P.Y.'.{.pX'.[.dXT.2.dX2X2XsXsX<X{.T.^.4XkXcXjX3X^.F.i.A.P.x.qXeXeXx.-X-X0XiXz z qXwX<X.XjXlXlXzXzX9XxXbXzXzXbXkXkXxXxXxX7X7XkXlXaXvXaX2XsXvXvXnXdXdXpXR.M.R.pXdX].vXjXkX8XXXkXzXzX7XxXxXxX9X7XkXlXnXmX X8XzXzXkX|.dXpX:XP.0 w P.:X,X2XaX`.vXjXhXcXjXjXkXjXcXkX6XjX6XXX8X3X<XF.1.A.A.I.G.2X6XkXkX8XkXaXT.U.vXvXdX{.pXMXcXmXmXvXvXnXmXmXbXmXbXMXMXnXfXpX{.fXgXgXgXgX,XvXjXjX7XxXxX@XxXkX6X3X6X3X,.h wXS.R.S.:XT.{.[.<XdXpXpX:XwXwXJ.a.Y.L.Y.gXpXeXu.A.pX3X4XsX^.F.Y.m.qX;Xl.0XuXJXVXyX=.HXHXNXFX-.-.GX-.NX;.&.NXHX-.FXBX] $.FX-.-.FX&.ZXLXLXHXFXDXLXIXUXFX-.GXLXGX-.FX-.-.HXFXHXGXLXHXtXtXFXKXLXHXtXHXGXBX%.NXFXFX-.' ~ ^ O   X o o @ & # 9 9 r p d d d h h f s 9 9 b >.<.<.9.N.n.n.v.9.8.<.8.i.b.i.i.n.n.C.n.B.C.!.!.Q.C.'./.~.%X+XOX2.'.U.n.n.9.F.Y.S.b.b.b.L.A.h.-XG h.s.D m 7.D.B.B.F.b.S 9 w g.A.G.C.V.V.C.C.C.C.C.C.C.C.C.C.C.G.G.B.V.M.M.m.m.m.m.m.S.S.S.A.A.j.d.d.d.a.i.8.a.i.i.i.a.a.p.7.7.5.5.q.h g ",
"p a w s s s s d p p p p p d f m m n D D m m n e.r.w.u.p.u.p.p.p.u.u.a.i.i.A.m.b.m.v.b.m.h.c # # c t.s.d.S.n.n.v.n.S.A.S.S.V.B.G.G.G.G.G._.U.U.{.9.S.I.M.n.F.F.G.[.].G.^.G.B.G.G.B.G.G.B.B.Z.C.C.B.n.n.F.F.M.F.F.C.C.F.b.k.r.F 0 j t.s.p.p.7.7.7.u.4.g g f f d s Z w 9 q % @ @ $ | ;.$.FX;.] ;.) ' ` ] ..| 1 B } M 1 / / 1 1 6 7 6 ~ ) ) 6 Y ` @.) ^ &.' ) ZX-._ O.^ 3 6 ) ] R > ~ ) ^ Y ! ~ ^ B ^ B , P P 7 V V  .N N J G x.P.A.I.,XU._.pXT.9.dX4X|.3XdX,XT._.^.3XjXjXsXsX1XF.i.J.P.x.-XeXeXx.-Xx.qXiXu t qX:X2X`.XXlXjXkXzX9XxXxXkXkXkX6XhXxXzXxXkXzXbXhX3XvXsX_.sXnXnXnXvXsXfXF.F.,XfXC.aXcX6XkX8XXXkXkXzX8XxX9XxXxXzXkXkXcXbX6XkXbXzXkXXXdX<X,X;X0 p P.:X{.[.3X.XnXvXlXcXlXkX6XjXcX6X3XjX6X6XjXsX<XI.,.K.K.T.^.4X8XzXkX6XjXdXU.n.sXvXsX<XfXMXmXbXcXaXsXnXmXmXmXmXnXmXMXmXvXdX<XdXfXgXgXMX,XvXjXjX8XkXxX@XxX7XjX3X4X2X,.h ;XA.L.m.:X:X,XdX<XpXpXpXY.L.wXJ.a.;XK.:XgX,XwX>.:XpX5X3X[.T.Y.A.x.l.0XiXVXJXyXX.BXKXFXFXFX-.HXLXFX-.FX-.FXFXHXFX-.;.GX-.FXFX-.&.HXGXHXGXKXLXLXUXLX-.FXGXGXGX-.-.FX-.GXBXHXKXGXHX-.FXHXKXGXHXHXKXFX-.LX-.;.NX] ~ $.B + X X @ # # # # 9 9 q t d d h h h h h s 9 9 b >.<.9.9.n.n.n.9.9.8.<.<.i.b.8.i.M.n.C.N.B.^.!.^.^.V._.`.).%X#XOXW.U.C.F.M.N.F.F.S.m.b.n.S.a.g.0XJ t.h.D f w.b.n.C.F.a.S 9 w r.b.G.C.V.V.C.C.C.C.C.C.G.G.V.C.G.G.G.G.F.F.M.m.m.A.S.S.S.S.n.D.A.j.d.a.a.u.u.u.i.a.a.a.a.a.p.7.7.5.5.w.h g ",
"p a w c s s s d p p p d p d f b m n D D m m D q.w.u.p.a.p.u.p.a.p.p.a.i.b.b.m.b.b.n.S.A.h.b 9 # c t.p.d.M.b.n.9.n.n.b.b.S.n.B.G.B.U.G.C.G.U.U.I.9.b.S.S.M.n.F.G.^.`.^.].'.G.G.B.B.G.G.G.C.C.C.G.G.F.F.M.n.n.B.B.C.C.F.m.j.t.F 0 j r.s.p.a.7.7.7.,.5.>.4.4.g g m d p r i q % @ o @ V =.&.;.HX] %.' ~ ' ( | } 7 I / / / ( | ^ 4 4 R ! 5 ~ 6 2 B ` O._ T _ ] W #.-._ &.O.Y 2 Y ) ~ 3 W ) ! 6 6 R / 1 1 / / P / C % C V N N K l.y.s.A.:XF.H.:XY.<.pX[.].].<X{.T.U._.3XjXjXaXsXdXI.S.J.z.t.x.qXqXx.z.x.-XiXr v eX,XaX/.XXhXlXbXzXxXxXzX8X6XkX@X@XzXzX7XxXzXlX3XaXvXdX'.sXvXvXvXvXaX2XN.<XdX<XC.mXkXkXkXjX6XkX8X8X#XxXxXxXxX9XkXkXlXhX6XkXbXzXkX XsX,XpX;X0 d ;X:X,X[.aX3XnXvXvXvXlXlX6XlXcX6X3XlXjXhXjXsXpXI.,.L.L.T.].3X8X7X7X8XjXdXI.v.2XvXfXpXfXnXmXkXlX]._.nXmXmXmXmXnXnXmXmXnXvXsXdXfXgXgXMX{.vX6XhX8X9XxX@XxXkXkX3X4X4X,.h ;XA.L.a.:XpX{.dX{.{.{.R.E.J.L.m.a.L.Y.L.:X:X;Xj R.pX2X2XU.R.P.e.G J uXJXrX} tXKXGXNXGXGXDXFXHX-.=.;.NXGX-.FXFXFXFX' ` GXFXZX;.-.GXKXLXGXHXLXLX-.HXGXKXGXGX;.%.FX-.GXHXLXGXHXLXHXLXHXLXKXKXLXGX&.-.LX;.NXBX' ' ' >     o @ @ # % q q q q w d h h h h >.4.m b 9 9 D 5.8.9.N.N.B.N.N.9.v.<.8.b.b.8.v.M.Z.C.N.M.G.Q.Q.^.N.V.Q.~.%X%XOX0.C.C.V.n.n.B.F.n.n.v.n.F.i.p.-XJ q.h.e.m w.b.n.F.G.b.m 9 w r.b.C.C.V.V.V.C.C.C.B.C.C.G.V.V.F.V.C.B.V.n.M.m.b.m.m.M.n.n.b.a.a.d.p.w.u.u.7.u.a.a.a.a.a.8.7.7.5.5.w.4.h g ",
"p a t c s s s s p p p p p p s m m n D D m m q.e.w.p.a.a.p.u.p.a.p.a.i.i.b.b.m.m.i.b.S.d.h.S 9 # s e.p.d.m.b.b.v.n.S.D.n.S.n.B.G.B.T._.G.G.U.U.F.n.b.S.I.F.b.T.T.G.^.^._.^.G.G.G.B.G.G.G.G.G.G.G.F.F.F.M.n.n.B.B.B.B.F.m.A.h.e.0 j r.p.p.a.8.8.7.,.,.5.5.5.4.6.6.q.d w p y r q % @ o * | =.%.GXO.&.-.) ] ] ( ..B B V } } / / [ 7 1 ! 6 < B 5 6 > R ) &._ ) #.O.) &.] ` _ ! 6 5 ) Q Y Y ) ~ R 6 B C % 1 / B B } / 1 V } { N H l.y.z.:XL.Y.:XY.i.T.<X.X].[.,XT.G._.].hXjXaX2X<XF.Y.P.z.h.x.-XqXx.x.J.P.0Xw c eX,XaXOXXXaXjXcXzX7X7XzX8XkXkX6X7XxXxX7XxXzXkX3XaXvX2X[.dXaXvXvXvX3X|._.dXMX[.].bXkXkXkXkXkXbXzX7X8XxXxXxX9X9XkXkXkXhXjXkXbXkX@X XsX'.,X;X0 d ;XR.pX<XsXaXvXaXlXhXhXlX6XlXkX3X3XjX3XhXjXsXpXI.,.L.I.'.2X6X8X9X7X6XlXdXR.n..XvXvXpXgXnXjXbXbX_.V.nXMXmXMXbXnXnXmXmXmXvXsXsXvXpXgXMX{.vX4XhX7XxXxX#XxXkX6X4X3X4X,.h qXA.L.d.R.pXT.2X[.'.pX{.Y.Y.L.A.D.Y.wXS.F.pXP.j L.pX(.<XT.p.x.G K JXJXtX*.LXKXGXFXKXKX-.FX-.-.HXFXHXHXFXFXHX-.-.%.-.;.&.;.DXGXLXLXKXFXGXKXHXGXKXLXKXFXFXHX;.FXFXFXGXLXLXHXLXLXLXKXLXHXGXHXFX&.GXGXBX-.&...;.^ .     o @ @ # q 9 9 t w w w d h h h 1.,.5.4.b 9 9 D w.8.9.N.n.B.n.N.9.n.i.i.b.b.i.v.n.B.C.N.M.G.Z.C.C.i.v.Z.!.%X+X!.C._.V.N.v.F.G.G.N.v.n.n.F.D.p.l.J q.s.y.D 5.b.F.G.G.b.F 0 w h.n.B.C.V.V.V.C.V.B.B.V.C.V.V.B.V.V.B.B.B.n.M.m.b.b.m.M.n.n.b.a.a.d.p.u.u.u.u.p.a.a.a.a.a.p.7.5.5.5.w.4.h f ",
"t a t c s s s s p p p p d d d m m m m m D D q.w.w.u.a.a.p.p.p.a.p.p.i.i.b.m.A.m.b.b.b.a.h.c 9 9 c t.s.d.m.b.b.b.S.S.D.S.F.F.F.G.C.U.U.G.U.U.G.I.b.S.Y.K.F.M.T.B.Z.^.C.C.C.C.^.G.B.G.G.G.G.G.^.^.B.V.F.F.S.F.F.F.B.B.F.m.A.h.e.0 j p.d.a.a.a.i.a.,.5.7.5.5.5.5.5.h g f d w r i q e % X o B %.` DXZX-.;.^ ] &./ | V } / B / | / B 1 B P B ! 1 7 6 ! ] &.&.) _ %._ _ ' #.:.` W 5 5 Q Q Y 6 ! [ R * M C % @ C / C C B 1 1 {  .H N G g.J.A.Y.:X:Xi.R.<X4X2X[.pXT.C.[./.aXjXaX2X<XM.Y.J.z.h.x.-XqX-Xz.A.J.qX0 f wXT.2X`.XXhXlXkXzX9XxXzXkXkXbXkXzXzXzXxXxXzXkX6XaXvXdX{.dX4XvXcXbXaXaXjXsXvX2X3XlXkX@XkXbXkXbXzXxX7XxXzXxX9X9XzXbXbXcXjXjXzXkX@XXXvX'.T.;X0 d ;XR.pXpXsX3XaX3XlX3X3XlX6XlXkX6X3XjX3XjXjXjXdXY.<.R.R.<X3X8X7X9XzXkXjXdXwXI.4XvXvXpXgXnXcXcXmX2XT.MXMXmXMXcXmXmXmXmXbXlXaXvXvXpXgXgX,XvXXX6X7XxXxX@XkXkXXX|.4X2X>.h qXJ.:XY.:XdX(.4XsX2XdX[.pXpXY.F.>X:XpXS.H.pXz.j J.Y.'.B.K.eXF 0XJXJX=.BXLXKXHXGXLXHXFXLXHXFXHXFXNXFXFXFXFXFX-.;.-.-.#.;.FXLXLXHXKXHXLXKXLXGXKXGXZXFX%.;.;.DXGXHXLXGXHXLXKXGXGXGXLXLXHX=...*.HXBX-.=.=.-.$.<       @ @ # # # i w 0 w p p d h g 1.1.,.7.7.4.m 9 9 D 5.8.2.9.N.B.B.N.N.M.m.b.b.b.v.b.n.B.C.v.n.G.B.Z.V.<.<.Z./.%X%X!.C.'.B.n.N.G.G.G.9.9.M.F.H.S.h.l.J e.r.y.D 5.A.F.F.B.b.F 9 j k.D.G.C.V.V.V.V.B.n.N.C.C.B.n.N.n.V.B.B.B.M.M.m.m.m.m.M.n.n.b.b.m.d.p.p.p.p.u.p.a.j.j.a.a.p.7.5.5.w.w.w.h g ",
"t a t c d d d d p p p p p p d b b m m m D D q.w.w.u.p.p.a.a.a.p.u.a.i.i.b.m.S.S.I.n.b.A.z.S q q F h.j.A.S.b.n.b.b.S.S.S.I.F.F.G.C.G.G.U._.G.F.U.v.n.I.I.F.N.F.<.0.^.^._._.^.(.C.B.G.G.G.G.^.^.^.C.G.G.G.F.F.F.Z.C.C.F.M.A.h.F 0 j p.j.a.m.a.a.a.i.a.a.u.5.5.7.7.u.>.h f f d r r e % % @ X $ | &.-.&.&.$.| ` *./ ..| ( / / B B | ] 7 1 ! 7 4 5 6 7 ~ ;.-.O.O.&.;._ #.&.&.#.] ) W 5 W W Y 5 R [ ( C C M 1 $ 1 B M 1 B B / / } { N F g.g.x.;X;Xi.Y.G.2X].[.dXT.G.sX].aXaX2X2XdXn.F.a.d.p.x.x.qXx.h.A.J.qX0 m qXT..X}.hXlXkXbXbXzXbXbXkXzXbXkXzXzXxXbXxX7XkX6X3XvXaX^.2XsXnXcXlX3XcXsXmX].|.bXbX XbX8XkX8XkXkXzX7XxXxXxXxXxXxXbXbXcXjXjXbXzX6X6XvX'.,X:X0 s qXY.pXpXsX.X3XaXcX6X6XlXhXkXcXjXlXlX6XcXjXjXdXT.<.,X<XsX6X8X+X8X7X6XlXaX,XR.sXvXvXpXgXMXMXkXbXvXdXMXmXmXMXcXmXMXmXmXkXhXvXmXvXpXpXgX{.3X.X6X7XxXkX+X7XzXXX|.4X<X,.h wXY.:XR.T.pXG.].sX4X]._.pXpXT.F.,X:XY.Y.,X:Xr.g P.a.S.:Xx.G iXJXHX-.KXKXLXHXFXFXFX-.ZX-.GXGXHXHXFXHXHX-.-.;.-.-.;.%.FXDXGXLXGXGXGXIXIXGXLXKXHX;.;.;.FX-.FXKXGXGXHXLXLXLXFXLXGXtXFXLX=.&.BXGX-.%.-.=...6 +     o & @ # % # 9 w w j d d d d f >.,.,.7.8.7.5.n 0 9 D 5.<.2.9.N.B.n.n.N.n.n.b.v.v.v.b.n.B.B.9.n.F.B.Z.V.i.<.C./.+X+XQ._.C.N.V.V.G.G.G.9.N.I.F.H.Y.a.l.l.e.r.e.D 5.A.Y.B.n.b.F 9 j j.F.B.V.M.V.V.M.M.n.N.V.V.n.N.N.M.F.F.V.V.M.M.m.m.m.m.b.b.b.b.b.d.d.p.u.u.u.7.7.a.d.j.d.a.u.5.5.5.w.w.r.h g ",
"t y a s f b f s p t t t t t p s b m e.e.n q.r.r.w.p.p.u.7.p.a.a.a.i.b.b.a.b.S.S.M.F.n.A.A.F # # l r.u.b.F.n.b.i.m.M.M.S.F.F.S.F.G.G.C.Z.C.G.G.F.n.H.B.G.B.9.B.B.B.U.G._.^.C.^.C.^.^.^.^.^.Q.!.Q.^.^.(.^.G.G.G.G.G.G.G.n.A.h.F 0 j p.b.S.b.7.<.v.b.M.b.<.,.8.9.8.a.5.>.g f d p v N r e & & @ @ 1 | ;.$.] %.;.] $.` ( ` ] @.! 1 P ! ! B > 2 5 6 Y +.R 2 #.&.&.) O.%.O.] #.#.] _ ) ) Y Y ^ ~ R 5 5 / / B 6 B 7 1 1 7 7 B B / R / { C N J l.qX;X7.:XT.dX[.'.dXG.C.dX'.2X'.2XdXdX_.U.b.i.A.;Xz.qXx.t.J.J.;Xj j wXpXsX.XlXkXbXzXbXmXkXkXbXbXzXzXbXxX7XzXzX8XbXkX3XaXvX.X.XmXjXvXjXjXjXjXjX3XcX3XbXlXkXkXkXkX7X8X7X7XzXzXxXzXzXzXbXzX6XlXcXcXkXkXlXaX'.,XwXw d qX:XR.{.aXjXkXbXkX|.cXvXlXcXjXkX6X6X3XvX3XvXdXV.<.dX2X}.XXkX6X6XjX3XjXvXpX_.`.vXfXpXfXnXmXmXbXaXnXfXMXmXmXkXmXMXmXmXbXlXnXnXvX,XpXgXdXsXvX3XhX6X6XkX8XkX/.^.sX,X,.j pX<X,XF.F.T._.(.<X2X^.G.1XG.T.R.I.m.L.i.L.:Xs.r.g.e.-XG 0XJXtXFXLXUXKXLXGXDX-.FXHX-.%.FXGXGXHXFXHXFXHX-.&.-.-.$.;.GXDXKXGXFXLXKXUXUXGXGXGXNXFXHX-.FX-.HXGXLXKXLXGXFXGXFXGXGX-.FXHX..$.FXFX-.-.;.$.' - o   X @ @ @ # q 9 9 w w d f h d j g n ,.,.,.<.9.8.5.q.0 0 n 6.<.v.N.n.V.M.b.b.n.n.n.b.i.i.n.F.G.C.n.M.G.9.F.F.M.<.C./.oX@XQ.U.'.Q.C.C.!.Q.!.0.2.M.I.T.T.S.h.g.t.q.r.4.5.S.n.B.n.D.F 9 j L.n.C.V.M.B.B.M.m.b.b.S.F.n.b.b.m.M.M.M.M.b.b.m.m.b.m.m.M.m.i.i.a.d.a.u.u.u.u.i.i.i.a.a.u.u.5.5.5.5.w.w.g m ",
"u t t s s f s s p t u t t t p s b m q.e.n q.r.r.w.p.p.p.p.p.a.a.b.b.b.b.a.b.S.V.n.M.n.M.A.e.# # S s.d.S.F.V.M.m.m.M.M.F.F.S.D.F.G.^.G.G.G.G.T.T.F.U.G.T.G.B.G.G.F.T.U._._.^.].^.^././.^.^./././.^.^.`.^.^.^.G.G.^.^.^.B.D.h.G 0 j p.b.S.n.b.i.M.n.n.n.v.a.b.b.9.b.7.,.>.>.h f c a u y q x e # @ $ ] =.O.$.O.;.;.;.@.^ &.&.@...^ ] ~ ~ ~ 5 2 6 6 R ) ` Y O.#.O._ ) ;.#.W O.#.) ) _ _ ~ 5 Y _ _ Y 4 ! ^ ^ ^ B 7 7 < B / B / / / / } V N r G -Xk.:XY.,XT.U.dX].C.2XdXdX].2XdXdXG.F.S.8.m.;XP.x.t.h.K.L.;Xj j wXpXaX[.aX7XzXzXbXbXkXkXbXbXzXzXzXxX9XzXxX8XbXlX3X3XvX3X.XmXvXcXvXvXvXjX8X8XbXcXcXcXbXkXzXzXzXzXzXzXzXzXzXzXzXzXzXzXkXlXlXlXkXhXlX3X[.1X:X0 w ;XR.,X[.vXlXkXkX3XXXlXvXlXlXlXjX3X3X3XjXjXvXdXC.<.2X4X X8XkX3XaXvXaXlXjXaX[.3XvXnXfXfXnXmXmXbXnXMXvXmXMXmXlXmXMXmXmXmXlXnXnXnX{.pXpXdXaX2XaXjXlXXX|.6XkX].[.<X:Xh h pX1X1X'.,XpXpX,X,X'.<X1XdX1XpXpX:XY.P.z.;XqXx.y.c a E uXPXHXHXUXUXKXLXFXGXGXFXDX-.GXLXGXGXFX%.FXHXHX*.%.=.$.AXFX-.-.KXGXHXKXKXKXGXFXLXFX;.FXHX-.=.tXGXLXHXLXGXLXFXHXHXGX-.FXHXFX*.-.FX-.-.-.@.&.` o .   X @ & # # 9 q q w 0 d d h h h h g >.,.7.<.i.8.8.7.r.0 0 n 5.i.b.n.N.n.M.m.M.n.B.F.S.b.i.b.F.G.B.v.V.T.n.V.n.Y.N._.|. X XQ.C._._.Q.!.!./.Q.0.M.K.F.F.H.S.k.h.t.e.r.4.p.L.M.B.B.A.F 0 j A.n.F.F.F.B.n.m.m.d.d.S.D.n.b.a.m.M.M.b.m.m.b.M.m.b.b.m.m.m.i.u.f.d.a.f.u.u.u.i.i.a.a.p.u.w.w.5.5.w.w.6.h m ",
"u t t s s f s s p u u u t t p s b m q.q.n q.w.w.4.w.p.p.p.p.a.a.b.b.m.m.i.b.F.V.n.V.M.S.A.e.9 q S s.d.S.F.n.S.S.S.S.M.V.F.n.n.F.C.^._.G.G.G.G.U.G.T.F.T.T.F.U.G.G.U.G.^.^./.]./.^././.^.^./././.^.^.`.(.^.^.G.G.G.^.^.B.L.j.y.0 h j.b.S.n.S.b.m.n.n.n.M.m.m.n.9.D.8.7.7.5.4.g b s v Z r z u q # X X 6 tXFXZX_ O.ZXO.-.] ^ ~ ` -.&.] R ` _ Y ! R R 5 O.` 2 O.&.;.%.^ #.;.) $.) ^ ) ) _ _ ^ 5 ! O.^ ! 5 6 ^ ^ B 1 < 6 ! ^ ( [ [ / V {  .N z Z m x.;XJ.Y.R.<X'.B.2XvXaX`.dXdXdXT.Y.Y.a.d.;X;Xx.t.z.K.L.qXj j wX<X2X.X}.8XzXzXbXxXbXzXbXbXzXxXzXxXxXzXbX8XbXlXjXsXvXXXXXbXlXcXcXvXvXmX8XjXbXbX6XkXbXzXzXzX7XzXzX9XzX7XzXzXzXzXzXzXzXkXkXzXzXzXkX3X2X1X:X0 w qX:XpXdXvXjXcXjX3XlXcXcXbXbXcXjXcXjXlXbXjXvXdXG.<.2X4X3XkXkX3X3XlXjXlXhXsX2XvXvXnXvXfXvXmXmXcXnXMXsXvXmXmXjXmXMXbXmXbXkXbXvXnX_.pXpXdX2X2X3X|.6X3X}.kXbXaXsX[.,Xh ,.pX<X<XdXdXpXpXpX<X<X<X'.<X'.<X,XR.Y.gX>.qXx.F F A iXPXPXJXKXIXLXHXKXKXLXFXFXGXFXFXHXHXHX] FXZXZXHX-.-.-.;.-.%.&.%.GXHXZXLXHXHXHXGXLXFX$.GXHX..-.GXHXFXHXKXLXHX-.FXGXBXBX-.GX-.=.-.tXHXGX=.' | 7     X o @ & % q q q r w w p d h g h 4.h g >.,.7.i.b.9.8.a.r.0 0 6.w.a.M.B.N.n.M.M.M.0.B.F.F.m.i.v.n.U.B.N.n.U.N.V.n.M.9.^.|. X).Z.C._._.Q.!.!.}./.0.V.M.b.n.H.S.j.t.t.e.e.4.s.L.S.n.n.D.F 9 j A.n.G.F.F.B.n.b.f.f.d.S.D.n.b.i.a.m.m.v.b.b.b.S.m.i.i.m.m.m.i.u.a.f.a.f.u.u.<.8.i.a.a.u.u.w.w.w.w.w.w.6.h m ",
"y u t p s f s s p u u t t t p s f f n q.n 4.q.q.>.5.p.p.p.p.a.a.a.b.m.b.i.b.F.F.V.I.M.S.A.y.9 q S s.d.S.F.n.M.m.S.S.M.n.F.n.n.F.C.G.^.G.G.F.G.F.G.F.F.F.F.F.I.G.F.G.G.^.^./././.^./.^.^.^././././._./.^.(.(.G.G.G.G.^.B.D.h.F 9 h A.A.n.b.m.b.b.n.9.9.v.m.b.n.B.D.b.8.7.7.5.>.g D c Z t v u u y e @   $ | &.AX$._ -.] -.%.~ ^ ~ @.-.] ^ ) [ R , R @.( -.-.^ O.%._ -.^ ] ;._ O.O.) ) ^ ! ^ ) ^ 5 ) ) Y 6 4 5 B 6 7 7 7 B [ ( ~ ^ ^ B V  . .z 9 F g.g.;XL.Y.T.B.2X|.`.^.].[.pXI.M.P.A.j.z.;XqXj.z.S.L.;Xj j wX1X.X=X}.7XzXzXbXzXbXzXbXbXxXzXxXxXxXzXbX8XbXcXjXjXbXXXXXcXjXjXcXvXvXmX8XkXkXbX XjXbXkXzXzX7XzXzX7X9XzXzXxXzX9XzXzXzXkXkX7XxXxX7X6X4X<XwXj d qX:XpXdXjXaXbX3XvXbXcXjXcXlXcXjXbXjXcXcXcXvXdXU.2.dX3XkXkX6X X3XhXjXjXaXsX2XvXcXvXnXsXvXcXmXbXnXnXmXvXmXmXjXnXMXbXbXbXkXbXlXnX_.,X,XdX|.aX3X|.3XhXXX8XkXvXvX[.pX1.,.pX4XsXsXdX<XpX<X{.dXdX'.<X'.<X,XT.Y.;XD x.0Xa N uXUXPXKXUXLXFXLXKXKXGX-.FXFXFXFX%.FX-.;.;.GXFX;.-.HX;.&.;.&.;.-.LXHXZXHXDXHXFXLXHXZXFXFX%.-.HXFXFXFXLXLXGXBX-.FXFX%.FXKXFX..FXGXGXtXGX=.*.| $   X @ @ & & & q q r w w p d d h g 4.>.4.h >.,.,.i.i.b.b.9.8.w.0 9 e.p.7.n.C.B.V.V.M.n.9.0.B.S.b.i.v.n.'.C.B.N.B.2.n.U.M.2.Q.|. X}.Z.V.C.Q.Q.Q.!.)./.0.M.m.b.n.Y.S.r.q.t.t.e.4.h.L.M.n.n.A.S 9 h A.D.G.M.M.B.n.b.a.a.a.S.S.n.b.a.a.m.m.v.b.b.b.S.m.i.i.b.b.a.u.u.u.p.u.u.u.7.<.8.i.i.i.u.w.5.5.5.w.5.w.6.h m ",
"u t t d d d d p t u u u t t p s f f n q.n 4.q.4.4.5.w.u.7.7.p.a.i.i.b.a.8.b.F.C.V.I.M.S.D.r.9 # S h.d.S.G.B.M.b.S.M.n.n.F.n.n.G.G.G.^.G.G.G.C.V.U.V.M.M.F.I.I.U.B.C.'.].`././.]././.^.^././.|.|.`.`.^.^.(.'.G.C.C.G.^.B.D.h.F 9 j j.A.b.b.b.b.n.F.9.9.9.v.b.B.B.B.n.9.b.i.7.5.4.4.f b c S Z v r 9 e & X o ( ] -.-.O.%.) ZXZX) ) R ~ @.] ] ' ( ! ^ 7 7 ] %.] ~ ) O.] $.] &.] -.-.&._ W Y W W Y T Y ! ^ Y 5 B B 6 , 5 6 4 R ` ~ 5 6 P B B V { N e y G 0Xt.j.:XV.(.`.}.|.`.U.pXK.u.J.j.d.s.qX;Xd.j.S.K.;X0 j qX1X.X=X}.7XzXzXbXxXzXzXbXbXzXxXxXxXxXxXzX8XbXcXlXlXcX6X6XbXlXjXmXcXcXcX3XlX6XbX6XbXbXkXzXzXkXzXzX9X9XxXzXxXzXxXxXxXzXzX7X#X9XxX7X6X4X1X:Xj d ;X:X,XdXvXaXnX|.vXjXlX6XlXlXkXjXcXlXlXcXcXsX<XU.9.dXsXcX6XXXXX3XaXjXlXhXsXaXcXcXvXnXvXvXvXmXcXvXnXMXmXmXcXjXnXMXcXbXbXkXbXhXaX`.T.pX2X|.`.}.6XjXhXhX@XkXlXaX2XpX,.h >X4XvXsXsXsXdX{.F.,XfX1X<X,XpX,XT.L.-Xc 0XJ H JXIXUXUXUXGXGXLXHXHXFXFXGXGXFX-.FXHX;.;.;.-.;.;.FX-.%.-.NX;.HXHXGXFX;.ZXZXFXGXLX$.%.FX;...FXGXFXGXLXLXFX=.FXHXFX%.FXLXKX-.BXHXFXFXLX=.$.*./ @ X @ & @ # # # 9 q u t w p d d j h >.5.5.5.1.>.,.<.i.i.b.n.9.8.5.0 0 6.u.<.N.C.Z.C.V.n.N.B.B.B.F.m.b.b.M.'.V.V.N.N.2.B.T.T.N.^. XXX XZ.V.C.C.^.^./.|./.N.I.S.m.S.Y.D.5.g q.t.e.n h.j.b.n.v.j.s 9 m A.D.V.n.n.n.n.b.a.u.u.S.n.n.b.a.a.m.m.b.b.b.b.m.m.i.b.a.a.a.u.u.p.p.u.u.u.u.i.i.i.8.u.u.w.5.5.5.5.5.4.4.h b ",
"u t t d d s d p w r u u t t t p b m n q.q.q.w.q.4.4.5.5.7.7.p.d.i.i.a.i.i.b.F.B.C.U.M.M.D.g.9 # S h.m.F.U.F.F.n.S.M.M.n.F.n.D.G.G.^.^._.U.G.F.F.U.V.V.V.F.T.I.T.Z.C.].].].`./.]./././.^./.].|.].].`.^.^.].[.'.G.G.^.'.F.D.j.F 0 j z.A.n.b.b.v.b.F.B.n.n.M.M.B.G.B.B.n.n.b.b.a.u.>.6.e.m S S F w r y % @ @   7 ' -.HXO.$._ #.DX&.) ^ %.] ^ | &.B / I 1 7 ^ | ;.' ! [ ~ &.O.` O.&.&.;.%.) Y ^ ^ Y Y Y ! ^ ^ ^ B , , 6 6 5 R ^ ! ! P P B B B B V V N N A S x.P.b.T.].3XjX[.U.pXL.u.P.z.d.d.wXP.p.A.I.L.;Xj j :X[.XX=X|.7XzXzXxXxXxXzXzXzXzXxXxXxXxXxXxX@XbXcXlXhXlXhXlXbXlX8XmXcXcXjX3XcXkXmXkXbXzXzXzXzXzXzX7X7X9XzXxX9X9XxXxX9X9XxX9X$X9X9X7X6X4X1X:Xj d ;XY.,XdXnXdXsX`.vXaXlXhXbXbXcXkXcXlXjXlXvX4X<XU.9.dXaXvX6X X3XaXaXlXlXjXsXaXjXjXjXnXnXnXcXcXcXmXnXmXcXmXjXaXnXMXcXbXbXzXbXjX3X`.{.dXaXjXXX}.6XXXhXbX8XkXhX3X3XdXu.j T.dXvX2XsXsXsX[.C.{.fX1X,XH.:XY.S.h.l.K A uXUXUXUXKXLXGXLXGXGXHXFXGXGX-.FXZX;.-.;.-.ZXZXFXHXFX%.-.FX-.GXKXFXGXGX&.-.;.-.FXZX' FXHX%.;.FXFXGXGXFXGXFXHXFXGX=.HX-.GXFX-.LXHXBXHXFX&.=./ 1 X X & @ @ % % 9 9 q u p p j f f h h h >.7.7.7.,.5.u.8.v.v.b.n.9.8.w.0 0 6.5.<.N.Z.Z.Z.V.V.V.G.B.B.F.M.a.b.n.U.N.B.9.V.C.G.U.I.W.Q./. X XZ.V.U.C.^.^./.|.].B.K.A.b.S.Y.A.r.e.g t.D n h.d.b.M.n.j.p 9 m D.n.n.v.n.n.n.b.a.u.u.m.n.b.i.i.a.m.b.b.b.a.a.m.m.a.a.b.a.a.p.p.p.p.p.u.u.u.i.a.a.i.u.u.w.5.5.5.5.5.4.4.h b ",
"u t t p s s s p w r u u t t p p b f n q.q.q.q.4.5.4.5.w.p.p.p.a.i.i.b.a.i.m.F.B.F.U.n.M.D.h.q # l s.m.S.G.B.F.F.S.S.M.V.F.B.n.F.G.G.G._.G.G.F.G.U.V.U.I.I.T.V.U.C.C.].].].]./.]././.^.^./.].|.].].].]./.].'.'._.^._.].G.S.h.F 0 f z.A.S.b.b.v.v.F.G.F.F.F.F.G.C.B.B.B.B.n.b.b.i.7.u.r.4.m d F s t u r q @ @ X O ^ _ AX;.;.;.&.#.-.Y ^ ' *./ | *.X.M | V B B =.` 5 ` ^ ` [ %.R Y ;.O._ ' O.) Y Y Y Y ~ ~ 5 6 Y 5 4 4 7 ^ ^ W 5 ~ ^ ^ L 6 B P P B I V k y l.g.w.:X_.`.dX{.V.pXM.u.J.J.J.f.wXL.u.K.R.I.;Xj j ;X[.3X3X@X7XzX9X9XzX9XzXzXxXxXxXxXxXxXxXxX8XbXkXlXhXvXkXlXbXlX3XmXvXcXcX8XcXcXmXkXbXkX7XkXzX7X7X8X7X9XxX9X9X9X9X9X9X9X9X9X$X$X$X7X6X4X<XwXj d ;XL.,XdXnXdX'.].jXXX3XhXkXcXkXkXlXhX3XjXjXsX2X_.2.<X3XlX6X X3XaXaXvXjX6X3X3X3XjXjXvXmXvXvXjXvXvXvXMXnXvX3X2XnXnXjXkXzXzXkXkXhX`.<XpX2XjXcXkX6X XhXkXhXoX3XaXjXdXf.j Y.dXvX|.aXaX2X<X^.1XfX1X,XL.L.P.x.y.A H JXUXLXUXKXFXHXLXNXDXGXHXHXFX;.-.FXFXZX-.DXDXFXFXFX%.&.HXFXHXKXUX-.GXHX' &.%.&.-.;.%.GX-.%.tX%.=.=.FXLXBX&.HXGXHX-.=.-.FXHXGXHXtXHXFX-.-.&.( $ @ o o @ % q # r r w t p d d j h h h h h ,.i.a.7.,.7.8.8.9.9.b.9.9.b.h.j 0 e.u.<.B.C.0.Z.C.B.B.C.B.B.F.m.i.b.n.G.N.C.2.C._.G.V.V.2.Q./.).oXC.Z.U.G.C.^./.`.'.F.K.m.i.m.L.J.s.t.f c.D m h.d.b.M.b.j.p 0 m k.S.B.n.n.n.n.b.a.u.p.m.b.b.i.i.a.m.m.i.a.a.a.b.b.a.a.b.a.a.a.p.p.p.p.u.u.u.u.a.a.a.u.u.w.5.4.5.5.5.4.4.h f ",
"r r t d s s d p u r u u t t p s f f n q.n 4.q.4.5.4.5.u.p.p.p.a.a.a.b.b.a.S.F.B.G.U.B.M.Y.z.r 9 s s.m.S.F.B.F.I.S.F.V.F.F.B.n.F.B.C.G.U.G.Z.C.G.G.C.U.U.U.U.B.C.G.C.].`.].|./.|.^.^.Q.Q.^./.`./.[.[.].].^.^._._.^._.'.F.S.h.F 0 d s.a.S.n.M.v.n.G.G.G.G.F.F.G.Z.G.G.G.B.9.9.9.8.b.5.,.w.t.g e.f s w r q # & & X o B ` %.-.&.;.FX&.ZX%.5 *.| ..| yXrXV  .{ 1 / tX-...B ] AX' ;.) ~ _ ) W W ) ^ 6 W 6 5 W Y Y R 5 ! ! 6 5 W ~ Y W W W 5 5 6 6 B B / X.V e Z G g.x.:XT.pX{.F.pXm.<.u.L.L.7.L.L.a.K.:XI.;Xj j P.].6X6XkX9XzX9X7XxX9XbXzXxX9XxXxXxXxXxXxX@XbXbXlXlXcXlXlXbXlX3XmXvXvXmX8XjXlXbXhXkXkX6XkXzX7X7X7X9XxX9X9X9X9X9X9X9X9X9X9X$X#X$X7X6X4X<XwX0 w P.D.'.dXfXdXZ..X3X/.!. XkXbXjXlX6XjX3XvXjXjXsX'.2.[.2XjXjX|.6XaXaXvXhX4X4XsX3XvXvXjXmXvX^.^.2X_.'.mXMXsXaX2XnXnX6X8X7X7XkXkXjX!.[._.].6X/.6X6XhXlXlXbX XXXjXjXsXu.j I.2XvX}.aX3X].[.G.G.fX,X:XJ.x.x.l.K yXKXPXJXKXKXFXKXKXDXDXGXHX-.FX-.HX-.;.;.DXDX&.;.-.%.] GXHX-.LXIXKX-.NX$.' ;.;.%.;.-.-.LX;.@.GX%.=.-.FXGXtXtXGXFX-.BXFXFXHX-.-.FX%.&.GXNX=.] 6 . X X @ # # # 9 r r w w p d f h h h >.h h 1.<.i.i.7.,.8.8.<.9.9.9.0.n.D.s.0 0 g.j.<.V.C.Z.Z.V.B.B.B.B.F.I.A.a.b.S.G.V.U.N.Z.G.G.G.I.B.`./.).oXC.V.T.V.C.G.^.^.^.F.R.J.a.A.:XJ.r.q.g x.D n h.d.b.M.v.j.p w m k.F.F.M.M.F.n.b.p.p.p.m.m.b.a.a.m.M.M.i.a.i.a.b.b.i.a.a.a.a.p.p.p.u.p.u.w.<.7.i.a.a.p.u.5.>.4.4.4.4.>.4.h f ",
"r u t p s s d p w r r u u u p s d f m n q.4.4.4.4.4.5.5.p.a.a.a.a.i.b.b.b.b.n.C.G.'.n.M.Y.z.r # s h.A.n.B.B.F.n.n.b.F.B.B.G.D.F.F.F.U.U.F.G._.G.C.G.<XG._._.'.1X'._._.].]./.].|.^.^.Q.C.^.`.|.].[.`./.^.^.^._._._.^.].U.Y.x.g.0 h s.i.b.9.n.n.N.^.'.G.G.G.B.Z.(.B.C.G.G.B.n.n.n.b.i.u.w.>.g q.q.f S s r u # & & X o < R %.FX-.&.LX-.HX;.$...=.| } X.{ } yXX.I C *.LX] 7 tXFX^ ! ^ 4 ] ' ) 5 4 4 2 ) W Y 6 ! Y 2 , 4 5 5 ! ^ ^ W 6 W W 5 Y 5 B B B B  .V N e A l.z.L.L.wXm.R.Y.:Xb.S.S.Y.:XL.A.L.:XY.P.0 j :X].XXhX@X7X9X9XzX9X9XxXxXxX9XxXxXxX9XxXxXxXkXbXlXkXjXlXaXmXaX|.nXmXsXvXjXaXbXbX6XkXkX+XzXxX@X+X@X9X9X9X9X7X9X9X#X#X9X7X#X$X$X$X@X3X4XdX:Xw s P.D.,X,XpXC.MXsX.X}.6XkXkX6XbXkX3XlXlXlX XjXaXC.N.aX.XcX X3X4X/.jX3X}.3XdX2X[.3XvXvXjXsX^.C.sXdX_.vXmXdXsX2XnXnXlXzX7X8XzX6X3X3X[.dXjX6X6XhXkXlXjXkXkXhXjXjXjXdXu.h :X<XvXXX.XsXsX2X(.G.dX:Xj.x.0XJ { JXUXKXUXKXGXFXGXGXDXGXGXDX-.-.FXGX-.-.-.-.DX&.%.DX;.$.;.FX-.KXIXLX-.%.-.FX#.] FX%.FX-.%.-.-.tX-.-.FXBXGX=.tXHXHX-.BXHXLX-.-.BX$.FX%.;.;.&.! O   X o @ @ # 9 9 0 w w w w d f h h h >.1.1.,.,.<.8.8.b.8.8.8.9.9.n.n.B.9.9.u.0 0 r.a.<.0.^.Q.Z.C.V.C.G.Z.F.F.b.a.m.M.G.V.G.C.N.C._.B.U.N.Q.!.~.}.V.C.I.I.F.'._.^.'.I.R.P.d.m.L.j.q.e.D e.f n g.p.S.n.9.a.p w m A.F.F.9.n.F.F.m.u.u.p.A.m.b.b.i.a.m.m.i.i.i.i.i.i.b.a.b.a.a.p.p.p.p.p.w.u.u.i.i.i.a.a.w.w.4.4.4.4.5.w.4.g d ",
"u u t w d d d p u r u u t t p s d f m n q.q.4.4.4.5.5.5.u.a.a.a.a.a.b.m.A.S.F.C.G.U.n.F.Y.z.r # s s.A.S.G.G.G.F.F.n.G.G.G.U.V.T.n.V.U.T.U.U.G.C._.G.'.G.1X'.(.^._.G.^.].]./.`.].^.^.^.^.^.].|.].`.`.`./.^.^.G._.`.^.`.G.Y.P.g.0 h s.a.S.n.S.M.B.G.^.^.G.F.B.Z.Q.B.C.G.G.C.B.B.B.v.8.a.p.w.w.t.e.g f b s u q e % @ & o $ 6 ] -.HX&.FXDXFX&...=.tX*./ I V X. .X.{ B ..tX*.7 tXtX( B R ~ 6 ~ ) Y Y ) W < Y ^ 6 2 4 5 7 6 ! W Y W Y ) Q ^ ^ ! ! R 7 B M V I I N e N y.x.x.qXa.:X:X:Xb.F.Y.Y.:XJ.A.L.:XY.P.0 j wX2X6XoX+X7X9XzXzXxXxXxXxXxXxXxXxXxXxXxXxXzX6XkXkXkXhXcXlXmXjX`.vXsX].vXsXaXnXcXhXkXkX7XxXzX7X8X9X9X9X9X9X9X9X9X$X$X9X9X7X#X@X@X@XhXfXgX;X0 p ;X:X'.G.dXC._.C.vXlXkXXXzXkXbXkXXXjXlXhX6XhXsX_.C.[.|.kXXX6X4X|.jXaX).3X].[.[.dXvXvXjXjX<X'.fXsX].nXMXvXsX2XfXdXXX8X8X7X7X6XXX|._.[.jX6X8XkXlXjXjXlXkXzXXXlXvXfX3.j Y.<X.X3X3X4X4X(.B.>X:X;Xg.l. .yXPXKXLXKXLXGXLXGXFXGXHXHXFXDXDXFXFXFX;.;.DX#.&.ZXDX%.-.ZX;.FXIXUXHX#.' DXGX$.' DXFXFXFX&.FXFX;.FX=.;.GXHXBXFXtXBX=.FXBX-.=.FXBX..&.*.%.=.$.! $   X o @ @ # q i w w p w w d f g >.>.>.>.,.,.,.<.8.8.v.b.b.b.v.9.9.n.V.B.n.b.p.j 0 g.m.9.N.^.Q.Q.G.V.C.G.B.B.S.d.d.j.A.n.V.T.V.9.N.C.B.I.B.^.!.~. X_.U.I.M.n.U.[.].[.F.L.J.a.A.L.A.t.t.e.c.e.n 6.a.S.n.n.j.p t m j.S.M.n.n.F.S.a.u.u.p.m.m.b.a.i.i.v.v.i.a.a.b.b.b.b.b.b.a.a.a.a.a.p.u.w.w.u.u.u.u.a.p.u.w.4.>.4.4.4.4.4.g d ",
"u t t w d d d p t u r u u u p p d f g q.q.q.q.w.5.5.5.5.7.p.a.a.a.b.b.A.A.S.B.B.G.U.B.F.:Xk.r # s t.m.S.G.G.G.G.F.B.G.G.G.G.V.F.n.V.U.U.'.T.G.F.B.G.'.G.G.G.U.T.G.C.G.'./.^./.^.^.^.^.^.`.].|.]./.`.].].(.^.^._.]./.`.G.Y.A.g.0 h s.m.F.S.F.F.F.^.^.(.^.F.G.^.C.C.C.G.C.G.G.G.F.n.b.b.a.u.u.w.g >.h f S w i y q % & & X o 1 / -.LX;.&.-.] $.%.| *.X.} C C o.{ { | / / / | ^ | &./ ! , ! %.$.&.5 2 5 4 , Y ~ [ 4 7 R 5 2 W ~ W Y ^ ^ ) Y 7 ^ | / B B 1 B } X.C e r a F x.q.z.P.L.i.Y.:XY.L.A.J.R.:XR.P.j j wX2XhXXX@X9X9X9X9XxXxXxXzXxXxXxXxXxXxXxXxXzX7XzXkXkXkXcXcXmXjXQ.vX.XQ.vXaXaXnXcXkXkXkXzXxXxX7X7XxX9X#X9X9X7X7X9X9X9X9X8XzXkXkX7XhXjXfXpX;X0 p qX,X<X_.dX.XW.0.vXlXhXoXbXkXbXhXXXhXkXhX6X3XaX_.'.[..XkXXX6XXX.XsXjX).3X_.{.[.dXvXcXlXjXdXpXnXvX2XnXMXvX4X2XsXsX6X8X8XkXkXhX6X`.C.].6X@X8X8XhX6XaXhXkX8X|.hXjXdX>.j K.,XsX/.].dX1XG.Y.L.;Xx.S  .PXUXHXKXKXLXFXGXFXHXFXGXGXFX%.FXLX-.;.FX%.&.;.DXZX&.FXFXZX;.HXIXLXZX&.O.DX;.#.DXGXHXHX;.-.&.-.ZX-.-.FXFXFXBX-.tXBX-.FXFXHX] HX-.( tX=.=.=.] 7 o   X @ & # # 9 i w w j d d d h g >.>.>.,.,.,.,.<.<.8.v.b.9.b.b.v.9.9.9.n.B.n.b.d.j 0 r.m.b.N.^./.^.^.V.C.G.B.n.S.A.j.A.A.M.V.F.V.B.C.F.B.I.U.^.!.!./._.V.E.n.N.U.'.].{.V.J.d.b.m.S.S.j.t.q.h.r.r.h.a.n.n.n.A.p t n j.S.n.M.F.F.n.a.u.s.s.A.m.m.a.f.i.v.v.i.i.b.b.b.b.b.a.i.a.a.a.a.p.u.5.w.w.u.u.u.u.u.p.w.5.4.>.4.4.4.>.4.g f ",
"t u t w s s p t u r r r u w t p d h g n q.q.q.w.5.5.5.5.7.a.a.a.a.b.b.m.A.S.B.Z.C.C.B.Y.>Xh.u 9 l t.d.S.G.B.G.F.F.F.G.G.G.G.B.H.F.U.U.G.T.U.F.T.B.H.'.9.9.F.T.Y.U.C.G._.^.^./.^.^.^.^._.`.].].`.`.`.].].].].'.'.]./.].^.H.A.g.0 h s.m.I.S.M.V.G.^./.].'.F.U.`.Z.C.C.C.G.G.G.G.G.V.F.S.a.<.5.>.h q.h g f s w A r 9 u % % & o * M ( GX-.] -.&.=...| *.X.X.C  .I C V / *.*.( / 7 ^ ] ' &.R ` -.%.5 ` 5 6 4 6 > 6 ` 7 7 6 6 2 ~ _ W W ^ _ ) R ^ [ ! / | ^ 1 B I / } N i u G G l.z.P.p.:X:XL.J.A.A.L.R.Y.;Xj j wX].6X3XhX9X9X9X9X9XxXxXzXxXxXxXxXxXxXxXxXxX7XxXkXzXkXlXcXbXlX^.vX2X`.vXaXjXcXcXlXkXzXzXxXxX9X9XxX9X#X9X9X7X#X7X9X9X#X8XkXxXkXhXjXsXdX:X;X0 s qX:X<X4XsXnX.X.XlXhXhXkXbXkXkX6X@XkXkXkX6XXXaXC.[.[.3XjX6X6X|.3XaXlX|.jX'.{.[.dXjXcXlXlX[.[.fXvXaXvXmXvX|.|.dXsXjXkXkX6XXXhX3X/.C.[.6X8X8X8X@X@XXXXX@X6XXX6X3XpX>.j J.:X'.4X<X{.pXY.k.x.g.J uXPXJXHXUXKXGXGXHXFXFXGXHXAX-.FXHX;.-.-.GX$.#.;.DXO.#.DX;.#.#.GXKXHXDXO.-.GX%.-.GXGXLXFX' -.FX-.$.%.FX=.-.FXFX-.%.HX-.-.%.BX-.GX=.=.FX=.| | / <     o & & & # 9 0 w w j j h h h f g >.,.,.,.,.<.<.<.<.9.v.n.9.9.v.v.9.9.9.n.B.0.b.k.j 0 w.a.n.N.Q.^.^.G.B.C.G.B.M.K.z.z.x.A.K.V.M.n.F.G.G.F.F.U.Q.!.!.!.C.B.V.E.V.U.^.^.'.F.E.b.M.S.D.S.J.s.s.s.r.z.P.a.9.B.B.A.p t 6.A.S.n.F.F.F.n.i.u.s.s.m.m.m.b.a.a.b.b.i.v.b.b.b.b.b.i.i.i.a.a.a.p.7.5.w.w.w.u.7.u.u.p.w.4.>.>.4.4.4.4.4.g f ",
"u t t p s s p t r r r r u w p d d f g n q.q.4.4.5.5.5.5.7.a.d.d.m.b.b.b.A.S.F.C.F.B.V.I.:Xp.u 9 S s.m.F.G.G.G.G.G.G.G.G.G.G.G.H.G.U.G.V.U.G.G.T.T.F.F.9.S.:X:XS.R.U.U.'.^.^.].].^.^.^._.`.].].`.|.}././.].].].].].].|.(.U.A.g.0 g d.b.F.n.n.V.G.^.^.`.^.B.G.^.0.C.B.C.G.^.^.^.G.B.F.F.v.<.,.w.>.g g f f S d p w w w z q % & @ & B ` FXHX' FX-.&.*.} } *.rXV C  .yX{ B =.*.} | ^ B | @.@.FX;.] ^ ` $.' 7 $ O < 1 6 5 7 4 W 5 Y ' ] W 4 Y ! 5 B ( 6 ^ / 6 P 1 B {  .N e N N G l.x.r.;X:XJ.J.A.A.P.F.Y.;Xj j ;X_.XX|.+X9X9X9X9XxXxXzXxXxXxXxXxXxXxXxXxXxX7XxXzXzXbXkXkXbXlX}.nXsXaXjXaXlXcXkXzXzXzX7XxXxXxXxXxX9X9X9X9X$X#X#X7X7X@XbXbXkX@X6XlXaXpX:XwXw d :X:X2X3XvXcXlXlXjXbXkXkXbXzXzXkX@XkXkX7X8X6XjXC.[.'.3XXXjX6X.X3X3XjX XlX.X[.{.[.hXkXkXhX[.{.dXvXaXcXmXjX X4X].[.3X6XhX6X!.|.XX^._.2XkX7X8X8X7XhXhX3X6X6X6XjX4X<X>.j P.:X_._.pXpXL.P.x.F 0XJXJXtXKXKXHXKXLXFXFXFXFX;.-.AXAXZX;.%.FX%.-.-.-.;.] ;.FX;.-.GXGXDX-.-.' FXHXFXHXFXHX-.-.FX;.DX-.;.-.%.FXFX=.-.=.=.FXBXKXNX:.%.KX&.=.-.| =.&.7 + X X @ & & # 9 i w w j j h h h h h h >.5.7.7.7.<.<.8.<.9.9.N.n.n.9.v.b.n.n.n.n.B.B.n.j.j 0 r.d.S.N.C.Q.^.G.B.G.C.B.S.L.z.x.z.j.m.M.S.M.n.n.F.{.F.F.C./.}.!._.U.T.U.U.[.`./.].U.I.K.U.T.G.F.L.j.;Xz.h.k.J.D.n.T.V.A.p a e.P.S.n.M.M.B.n.a.u.s.s.a.a.a.a.f.a.v.b.b.b.b.b.b.b.b.b.b.b.a.a.a.a.u.u.u.w.w.u.u.p.p.p.5.4.>.g 4.w.5.4.4.g f ",
"r t t p s s p w r r r r u t p s d f g n q.4.4.4.4.4.5.5.7.p.a.a.m.b.b.b.m.S.F.B.G.B.F.F.Y.r.u # l h.A.F.G.G.(.T.G.G.G.G.^.G.H.G.C.C.G.G.U.G.F.T.Y.S.Y.L.:XP.P.;XR.T.U.U.^._.].]._.^._._.].].|.|.|.}././.].].].].].|.4X`.U.A.g.0 g j.m.F.B.F.F.G.^.^.^.G.C.G.Q.Z.C.C.C.^.^.^.^.^.G.G.F.n.8.7.a.p.h g f f y.f s d d s 0 u u # % & X - / %.LX-.;.GX-.HX| } { { rXI B } tX| tX*.*.| B / *.B / &./ ] B ` | ~ 6 1 $ $ ! 7 6 5 2 3 W W 5 Y Y Y ^ 5 6 ! ! ! 6 - B 1 B V / I V M e u A G F x.P.z.P.A.A.K.F.Y.qXj j :X[.hX}.XX9XzXxXzXxXxXbXxXxXxXxXxXxXxXxXxXzX7XbXzXzXzXkXlXbXkX3XmXvXvXlXhXcXbXkXzXzXxX7XxXxXxXxX9X9X7X9X9X9X7X7X7XkXzXkXbXbXlXlXlXaXU.:XwX0 j :X1X4X4XbX6XkXhXXXbXkXkXbXkXxXkX8XzXzX@X6X6XaXZ.'.'.aX3XkX6XXX.X2X3X XjX2X[.'.`.6XzX7X8X.X[.[.sXjXkXmXlX3X6X.X2XjXhX6X|.!..X3X].[.aX8X7X8X8X7XkXhX3XXXXX6XjX3XpX>.0 x.:X'.[.T.Y.qXy.J iXPXJXJXKXFXFXLX;.] &.FXFXHXFXFX%.-.&.ZX-.&.' ;.%.O.] ;.;.&.KXKXZXDX#.O.&.HXZX-.HXGXZX;.ZX&.$.FX-.&.-.FX-.-.FXBX&.GX] -.GX-.NXBXFX=.BX*.| =.] $ o X o @ # # 9 q 9 w j d j h h h g g h h >.7.7.7.8.<.8.9.9.9.n.B.B.n.9.9.b.n.n.n.n.B.B.D.j.j 0 p.m.S.B.G.G.G.G.V.F.G.F.S.P.z.x.x.j.A.m.m.M.n.n.F.T.T.F.^.|. X/.^.{.{.'.U.].|.}.|.^.F.I.T._.^.G.S.A.L.P.j.p.A.S.n.B.B.A.p a e.A.S.n.M.M.B.n.a.p.s.f.a.a.a.a.f.a.m.n.m.m.b.b.b.b.b.m.b.b.b.i.a.i.u.u.u.u.u.u.p.a.p.p.5.4.>.4.4.q.w.6.4.m f ",
"r t w w s s p w r r r r u t p s d f m n q.4.4.4.5.5.5.5.u.a.a.a.b.b.b.b.A.S.V.B.G.B.G.F.Y.r.y # s h.A.S.G.^.'.T.F.G.G.G.^.G.T.U.G.C.G.U.G.F.F.I.A.A.wX;X;Xx.x.;XL.I.U.U.^.'.].]._.^.^._.`.`.|.|.|.`././.|.].].].|.}.|.`.U.A.h.0 g j.A.F.F.G.G.G././.^.G.G.G.^.^.G.G.G.^.^.^.^.(.^.G.U.F.b.i.a.p.w.D D D q.g e.n f d d t u y % % & X o / ] GX-.O.LX] tXtXB X.{ I B / / | *.FXtX| | / | ( 7 O 7 B B ! ~ ^ B 7 $ < 1 B B 7 6 5 6 6 Y ~ ` ! 4 4 6 6 L ( ( P P C C M B / } / C M e A a G l.h.J.A.A.I.F.I.;Xj j wX[.jXXX@X9XzXzXzXxXxXxXxXxXxXxXxXxXxXxXxXxX9XbXzXzXbXxXzXbXbXlXbXlXcXjX6XbXzXzXzXxXxXxXxX7XxXxX9X#X#X9X9X9XxXxXkXxXxXkXbXbXlXlXlXaXU.:X:X0 j :X<X3X6XbXkXmXkXhXbXbXbXbXkXbXzX8XzXzX8X@X6X3XQ.[.`.aXhXkXXX4X.X3XXXXXjX.X[.'.`.6XzX9X8X.X[.[.jX6X8XbXlX XkXaXsXvXjX3X}.Q.aXaX.XdXsX6X7X7X8X8XhXhXXX X X3X8X4XpXq.j h.A.G.^.,XwXg.J uXPXJXLXLXFXGXFXO.;.-.FX-.;.FX-.O.;.-.$.#.' ;.ZX&.] ZXFX&.FXKXLX-.;.~ _ DXGXZXGXLXHX-.ZXZX-.FXFX$.&.-.FX;.NX;.$.-.%.&.HXLX%.-.HXBX' BX=.] ( B X   X @ & # # 9 q w w j d h h h 1.>.>.g h 1.,.7.7.7.8.8.9.9.9.0.B.C.B.n.9.b.n.n.n.n.n.B.B.D.j.j 0 p.D.n.B.^.G.C.U.V.F.G.F.S.J.x.x.-Xz.L.v.v.M.M.F.G.F.T.F.]./.)./.C.{.{._._.]./.).|.^.C.U.^.^.(.Z.n.I.A.j.A.p.A.F.9.n.B.D.s v g.A.S.n.M.M.F.M.f.p.s.p.d.b.a.a.f.a.m.M.m.m.n.n.n.n.n.m.b.b.i.i.i.i.u.u.u.u.u.u.p.a.p.u.5.4.4.4.q.q.r.r.4.m f ",
"u t w w s s p t w r r r u u p s d f m D q.q.q.5.w.w.w.u.p.a.d.a.b.b.b.S.S.F.F.B.F.B.F.V.Y.h.A # d s.d.n.B.G.U.F.G.T.G.(.(.H.'.'.[.^._._.C.M.F.S.S.:XwXj.h.g.g.q.J.M.I.U.G.'.].`._.Q.C.^.^./.].|.`.`.|.|.|.].].`.|.}.|./.G.D.x.0 h j.S.H.G._._.G./.`.Q.C._.^.^.].^.^.^.Q.Q.Q.^.`.C.B.G.G.S.m.m.a.s.g g h j j w.n h m f s s t u r % % &   7 R FXFX) FX@.=.HXI X.I B C I / *.X.tXPXFX| / / ( B 1 $ 1 7 B ! B B $ 1 < 1 7 6 5 5 5 4 5 2 ~ :.~ 5 L L W ! ! ` | / / / B P I / { C e e r Z G g.x.k.j.Y.S.S.z.0 j R.'.XX6X@X7X9X9XxXxXxXxXzXxXxX9X$X9XxXxXxXxX9XbXzXzXxXxXzXbXbXbXbXjXcXhX6XbXkXzXxXzXxXbXxXxXxXxXxX9X@X9X7XxXxXxXkXxXbXbXmXbXhX6XlXvXdX>XwXj j :X<X3X6XkXkXbX6XlXkXlXkXbXkXxXkX#XzXxX7X8XhX3X|..X`.3XlXkX|.4X|.aXXX3XlX].[.'.].8XzXzX7X`.`..XlX6X@XlX6X).jX.X3XjX6X3X.X!..X3X.XaXsX6X7X7X7X7XkXhXXX|.|.6X3X2XpXt.d g.5.8.wXwXq.0XPXPXJXHXFXHXGXDXO.;.HXFX-.;.-.$.ZXFX;.&.] -.;._ O.%.GXFX-.KXUX-.;.;._ ' FXHXZXKXKXFX-.HXHX;.-.-.%.FXFXFX-.$.-.-.%.$.HXGX;.;.HX&...=.-.$.| / 1 X X o @ # @ # q r w w d h h h h 1.,.,.,.h h ,.,.7.8.9.n.9.9.9.9.0.C.C.B.B.n.V.F.B.B.B.F.G.B.F.A.j 0 p.D.b.B.G.G.G.U.V.V.H.n.b.j.h.x.x.h.A.i.M.I.n.n.F.F.Y.V.].^.!.}.^.[.'.[..X.X~.!././.C.U.G.^.^.B.B.:XA.a.d.a.D.S.n._.V.A.s v e.P.S.F.F.F.F.M.a.u.s.p.d.b.b.i.i.a.b.m.b.b.n.M.m.m.b.b.m.b.b.i.i.i.u.u.u.w.w.u.a.a.p.w.5.5.q.q.q.w.r.r.6.m f ",
"r t a p f b d p t z u r t t t c s f g n n 4.4.4.w.w.u.u.u.a.a.d.b.b.m.M.S.F.F.C.G.B.B.V.:Xx.A # s s.m.S.G.G.G.G.G.G.(.^.^.(.G.G.^./.'.'.T.F.F.Y.S.A.A.J.P.x.x.qXqXL.K.T.'.`./.}.`.^.C.C.Q.^./.}.|.|.].].|.|.|.|.`.`.|.`.'.L.x.w f s.F.G.^.Q.Q.Q./././.(._.^.^./.Q.Q./.^.!.^.^.^.^.G.G.F.n.n.S.R.8.m.A.a.5.>.>.w.g g m m D s w v y e % # @ $ 6 -.GXP HX-.&.GX( ( ( C M C } yX} HXKXLXFX/ B / / $ < 7 B 7 1 B 7 1 7 1 * 7 B 7 I / ! 4 4 W ' _ 5 ^ Y 6 ~ | ..| } ( B 7 / } / V { M M e A A G g.r.P.:Xd.c.0 j P.<X.X@X@X@XxXxX9X9X9XxX@X8XxXxX9X9XbXzXxXxXxXzXzXxXbXzXzXbXbXkXlXbXkXhXXXkXbXkXkXkXkXxXxXxXxXxXxXxXxX#X7X9XxXxXxXxXxXxXbXxXlXlXkXhXsX1X:X0 d wX<XjXoXkXcXlXhXhXkXbXzXbXbXzX7XzX9X7XxXkX6X3X/.3X!.lXhX6X|.3X3XaX3X}.jX[.[.<X`.8X9XzXkXhX.X3XjX.X4XkX8XhX6X6X XzX8X6X}.Q.XX3XXX6XkXkXjX8X7X9X7X3X|..X|.}.8X1XpXe.0 l.g.g.0X-XiXPXPXBXtX=.LXGX=.&.FXGXDX$.$.-.;.;.-.;.&.-.ZX$.' _ FXGXZXFXKXKX' &.-.) -.GXHXFXLXGXZXGXFX$.;.FX%.-.FXHXtXtX*.-.=.&.=.FX-.;.DXNX%.#.] ' %.%.B + X X @ @ @ # 9 q r w p d h h h h h ,.,.,.<.7.7.<.,.<.8.n.n.9.0.0.0.0.0.!.C.B.B.Z.Z.Z.B.Z.Z.C.B.G.L.d 0 w.S.M.V.G.G.^.G.C.B.G.F.I.L.z.s.s.j.m.n.B.B.T.T.D.T.n.F.`.|./.!.Q._.`.}.).oX~.)./.].G.F.F.F.U.H.H.F.A.d.b.S.D.B.B.C.B.A.v K F k.Y.F.F.n.n.b.a.a.a.a.m.b.b.b.b.b.m.m.n.n.M.M.M.m.b.b.b.m.m.a.i.i.u.u.p.u.u.u.a.a.p.u.w.5.q.q.w.w.w.r.e.m j ",
"r t w w d f b c p z t u u u w p d f f g g >.4.4.5.5.u.7.7.p.a.a.b.b.b.m.S.F.F.F.C.B.G.V.:Xx.A # s s.a.b.F.F.G.G.C.C.^.^.^.].G.^././.(._.F.M.n.n.F.S.m.d.P.qXqXeXeXwXI.T.1X4X|.}./.^.^._.].].}.}.|.|.].].|.|.|.|..X`.|.].'.L.x.w f h.H.^././.Q.Q.`./.`.`._.^.^./././././.^.^.^.^.C.C.C.C.B.N.N.n.b.M.b.i.p.7.5.4.4.g g g D f d l p u y e % @ @ 1 | HXB =.FX] GX-.B I V V C V *.*.*.GXLXFXP 1 1 P 1 * 1 B 7 1 7 B 7 B 1 * 1 C V 7 ^ ^ ^ ^ ! ] ^ Y Y ! 6 6 [ ` ( ..( / B B | | / { C M e N G G y.x.;Xh.g.9 j qX{.XXoX+XzXzX9X$X9XbXxXxX9X9X9X9X9XxXxX9X9XzXzXzXzXzXkXkXxXbXkXkXbXkXkXhXcXkXjXlXjX6XzXzXxXxX9X7X9X9X9X9XxXxXxXxXxXxX9XzXzXlXlXlX3X4X1X:Xj s :X<X3X).lXlXhX6XhXkXbXkXzXbXzX9XzXxX7XzXkX6X3X}.6X!.kX6XXX|.3XXXaXaX`.aX{.'.[..XkX9XkXhX|.|.XXaX.X2XlX@XlXlXzX@X7X8X3XXXQ.XXjX6XkXkX6XXX6X8X7X7X X|..X|.jX4X1XL.g p F G J  .iXJXPXHX=.LXLXGX&.-.HXNX;.] -.FX&.LXDX;.-.HX;.&.O.FX&.%.DXKXKXFX] ;.-.#.ZXFXZXGXLXHX-.ZX-._ -.FX%.-.FX-.HX=.FXBX*...=.HX=.&.-.NX-.%.:.$.$.] < + X X @ # # # 9 9 i w p d j h h h 1.1.,.,.<.i.<.7.7.<.8.9.v.9.0.0.Z.0.Z.C.!.!.Z.V.Z.Z.Z.C.C.C.G.Z.G.K.j 0 w.A.M.V.G.G.U.G.G.G.B.F.F.K.A.k.h.z.M.V.G.G.(.G.n.T.F.B.^.|.|.!.Q.}.oXoX}.oX).)./.|._.F.F.F.Y.F.F.Y.a.a.b.n.B.B.B.Z.B.A.v K S h.S.B.B.n.n.b.i.a.a.b.b.b.b.b.b.b.m.b.n.n.M.m.m.b.b.a.b.m.b.a.i.i.u.u.p.p.u.u.a.a.a.p.5.4.>.4.q.w.w.w.4.f j ",
"r t w w s b s p w u u u t t p s f f g n n 4.q.w.5.w.u.u.u.a.a.a.b.v.b.m.S.F.F.F.B.B.G.H.L.g.N 9 s s.d.n.F.F.G.G.G.G./.^./.]._.'.].].'.'.T.I.F.F.H.Y.L.A.P.P.h.r.z.J.I.T.].}./././.Q.^._.].].|.}.|.].].].`.}.|.|..X`.|.].'.L.x.0 f h.T.(././.^.^.].`.].]._.^.^./.`.}.`././././.^.^.^.G.G.G.B.N.9.b.S.A.a.a.u.w.p.5.4.4.g q.>.h q.f p v y e e & o $ / LX| ' FX' BXtXB } { V M V yX*.=.tXHXtX| B 1 1 1 $ 7 B 1 B I 1 B I I B * C / 7 ^ _ 4 ) ` ) ) Y 5 ! ! 6 ^ | ( | X.} V V I V I C I N y y Z l.l.;Xh.l.9 d qX_.6X7X8X@X7XxXxX7X@X7XxXxX9X9XxX9X9X9X9XxXxXxXzXkXkXzXzXbXbXkXlXbXbXkXlXkXhX@XlX6XXXkXzXzXxX9X7X9X9X9X9XxXxXxXxXxXxX7XzXkXlXcXlX3X2X1X:Xd d P.,X|.}.cXlXjXXX6XkXkXkXxXxXkXzXzXxX7X7XkX6X3X/.6X/.lX3X|.|.3X.X3XaX`.[.'.U.T.].jX7XkXXX/.].XXaX.XaXlXXXlXcXzX8X8XXX|.|.`.aXhX6X8XkX6X6X6X8X7X8X}.`..X.X}.(.1XwXb r U N rXuXPXJXtXBXtX-.-.' GX-.;.FX' -.-.;.HX-.DXLX;.O.-.FXHX-.DXFXLXZX;._ O.&.;.FXFXHXGXZX-.LXHXO.%.ZXFXFX-.FX-.=.=.-.=.&.*.GX=...-.FX-.-.-.$.] ' / $ X X X @ & & q i i w w p d d h h h ,.,.,.<.<.<.i.i.i.u.8.i.b.v.9.0.B.Z.Z.C.!.!.!.Z.V.Z.Z.Z.Z.C.^.^.^.G.S.j w r.b.M.C.G.G.G.G.G.G.n.F.F.S.A.j.z.J.M.V.G.^.'.(.F.:XG.B.Q.|. X/./..XoXoX).oX). X/.].'.T.Y.F.F.F.G.T.a.a.n.F.H.H.Z.C.B.D.v H F z.S.B.B.n.n.b.b.a.a.b.b.b.b.b.n.m.b.b.b.b.b.m.m.b.a.a.b.b.b.i.i.i.u.u.u.u.u.u.a.a.a.p.w.w.4.4.w.r.p.w.n f j ",
"r u w w b S s p w u t u v v a c f f m q.q.q.w.w.w.u.u.u.p.d.a.a.b.v.b.b.S.F.F.F.C.C.U.H.L.g.N 9 l z.A.M.H.G.G.G.G.G.]././.]._.'.`.^.^.G.G.I.T.T.T.R.Y.D.A.J.z.z.u.a.F.1X2X}.}. X/./.^.^.`.`.|.|.|.].].].`./.}.|.|.`.|.`.(.D.g.0 s h.T.(././.^._.].].|.].].^././.}.}././.`.]./.^.].].].^.G.^.G.n.i.m.m.a.a.a.a.j.u.5.5.w.u.w.,.w.q.f d p t N M % @ 1 1 =.$.[ HX' ( JX*.} X.V { / | | =.tXFXtX*.{ 1 P 7 * 1 7 B / B P B B B I B 1 6 5 ^ ` 5 ) ~ ! ) W Y ) ^ , 4 | ( ( } | B M C { { V M K K u Z g.g.g.-X9 d ;XG.kX+X+X8X7X@X@XhXzX@XxXxXxXxXxXzX9X9X9XzXzXzXzXzXzXkXkXbXbXkXkXbXbXkXkXkX@XXXkXhX6XkXzXxXzX9X9XxXxX9X9XxXxXxXxXxXxXzXxXcXjXjXjXsXfX<X;Xp w J.pX4X3XmXcXlX3XhXkXkXkXmXxX8X7XzXzXzXkXkX6XXX}.6X}.kX3X|.|.3X]..XaX`.[.U.I.I.C. X6XlXXX`.]..XaXaXaXlX6XlXlX6XXX6X3X}.Q.`.aX6X@X8X8XhXhX8X6X8X6X|.].[.2X`.2XS.P.F # { yXuXJXJXtXHXtX^ ( *.tX| =.FX%.-.-.-.HXZXGXFX$.%.;.HXZX;.ZXZXFXFXZXO.&.-.FX-.-.GXHXFXGXKX-.O.HXHXGXHX-.-.;.%.-.&.-.%.BXFX..%.-.=.%.=...&.%.[ < o X o @ @ & & 9 i r w w p d d h h >.,.5.<.<.<.8.9.v.i.u.7.8.v.b.n.9.0.0.Z.Z.!.!.!.!.C.C.!.!.Z.Z.Q.^.^.(.H.S.j d s.b.V.C.G.G.G.G.G.F.n.F.I.S.A.A.x.A.F.C.^.^.'.G.n.T.F.G.^.|. X}.}.XX|.oX~.oX). X~./.^.U.T.Y.F.F.G.T.b.A.F.F.H.H.G.C.G.D.v K F z.S.V.B.n.n.b.b.b.b.b.b.b.b.b.b.n.b.b.b.b.b.b.b.a.a.i.b.b.b.i.i.i.u.u.u.u.u.u.a.a.a.a.p.w.>.>.w.p.p.p.q.m w ",
"u u w 0 d S b c p v z z v p p s d f n q.q.q.5.5.u.u.u.u.a.d.d.a.b.v.b.b.S.F.F.F.F.F.G.F.Y.g.N # s z.A.n.F.G.G.C.^.^.`././.].^._.].].[._.G.F.G.T.T.U.H.Y.S.A.A.;XL.n.n.'.4X X}. X}.`.`.`.].].|.|.|.`.^.].}.}.|.|.|.|. X].'.L.l.0 s s.Y.^././.^._.].].|.|.].^././.}././././.|.|./.`.].].^.^.(.^.G.M.a.<.<.m.J.a.7.a.7.p.p.a.a.7.p.5.g h f s v z e % @ & 1 | ..^ FXtX/ BXtX} tX/ / | / ( } *.tXHXBXB / ( 7 * 1 7 I ( / B I P / B 7 6 5 ^ P ' ^ ~ _ 4 ) _ ^ ! 5 4 , / ..| } / / B B M I { V N A y v G F J 9 d ;XH.6X X+X8X6X@X6XhXlX7XxXzXzXzXzXzXzX7XxXzXxXxXzXxXxXzXbXbXmXbXbXbXbXkXkXkXXX@XlXkXkXzXzXxXxXxXxXxXxX9XxXxXxXxXxXxXxXkXkXaXOX.XsXsX<XpX;Xw w P.gXsXjXbXlXvX3XhXcXkXkXmXbX8X8XkXbXbXkXkXhXXX X6X}.lXjXXX.X3X`.].aX].[.{.I.E.V.3XhXlX3X.X.X|.aXsXaXjXkXlXlX6X6X6X6X`.Q.Q..XhX7XzXzX6X6X3XXX@XXX}.`.[.'.^.T.wXl.H X.yXtXLXFXtX=...` | *.BX=.tX-.*.-.FXFXFXHXLX&.;.&.ZXFX&.;.ZXLXFX%.#.$.%.HX-.&.FXGXGXLXKXZXO.-.FXFXGXLXFXNX-.%.=.=.=.%.FX-.] %.FX:.&...' &.| ! * X   o @ @ # % 9 9 i w p d d d h h >.,.,.7.<.<.<.8.9.v.i.u.<.u.i.b.n.9.B.N.0.Z.!.!.!.!.Q.C.Q.Q.C.C.^.].(.(.^.S.j d s.S.B.C.G.G.G.G.G.F.n.F.I.S.A.A.J.S.'._.^.Q.`.G.9.V.n.G.].}.). X X}.oXoX}. XoX X/./.^.^.T.T.G.G.G.T.b.m.V.F.H.G.C.Z.C.D.v A F h.n.B.B.n.n.b.b.b.b.b.m.b.b.b.b.n.n.n.b.b.b.b.b.a.b.b.b.b.b.i.i.a.a.u.u.u.u.u.i.a.a.a.u.u.,.,.,.u.a.p.e.m d ",
"r r w 0 s S b p t t t t y t p s f f q.e.r.w.w.5.u.u.u.u.p.a.a.i.b.b.b.m.S.F.F.C.G.C.G.D.L.g.y # s j.A.n.H.G.G.B.^.^.`././.|.^.'.].].<X'.G.G.G.U.T.T.T.:XY.b.8.m.F.n.G.].4X}./.}./.`.`.].|.].`.`./.^.^.`.|.|. XXX|.}. X].'.L.x.0 f h.F.^././.^._.]./.`.].].`././.}.`././.}.|.|././.`.].].].].^.G.F.m.8.8.m.A.a.7.m.7.i.8.8.9.i.b.7.5.g n m c c z z N @ @ B / ..[ &.FX| | tXtX| &./ B B / B / *.BX*.I | | B C B M / B C ..*...B 7 6 7 6 ` ! ] O.] ` 6 ! O.) 5 6 7 < P } / / | | / 7 M / } { V e A J A K # p ;X'.4X8X8X3X@XhXjX=X}.xX9XxXzXxXzXhXzX7XzXkXkXzXxXxXxXzXxXbXmXbXlXkXlXkXbXkXXX@XkXkXzXzXxXxXxX9X9X9X9X9XxX9X9X9X9X9X9XzXjX`.Z.[.sXsX,XpX;Xw r qXgXdX.XcXhXlXXX3XcXkXkXbXkXkXkXbXbXbXkXkXkX6XXX6X}.lXjX3X3XaX`.].aX].[.,XM.M.U.jX3X3XaX.X.X|.3XaX2X6X6XjXcXkXkXXXXX_._.`.aXhX7X7X8X@XXX4X|. X X/.].'.T.R.:Xl.J yXJXHXHXFXtX=.*...' =.-.tX-.=.| AXLXFXFXGX-._ ;.HXKXFXZX;.FXFXO.] %.FXO.&.' _ FXGXHXLXFX%.;.GXGXGXKXFX-.-.-.FX;.-.-.-.-.%.$.%.-.' $.%.=.] | B o X @ @ @ & # # 9 q w w p d d d h h h ,.,.,.8.8.<.9.9.v.n.i.<.<.7.i.v.v.N.B.Z.0.Z.!./.!.!.C.C.!.Q.Q.C.^.]././.^.S.j d h.S.B.C.G.^.^._.G.F.n.S.I.K.S.S.L.I.'././.^.].'.B.F.N.G.|.).oX XoX~.oXoXoX+XoX X/./.^.^._._.U.U.G.G.b.m.V.F.H.H.Z.Z.C.L.v A F s.n.Z.B.n.b.v.b.b.b.b.A.b.b.b.b.n.M.M.n.n.b.m.b.b.b.b.b.b.b.i.i.a.a.u.u.u.u.i.i.i.a.d.f.p.w.,.5.p.a.p.e.b w ",
"r r w w c S s w w t u u t p p c f m q.r.r.r.w.5.u.u.7.7.u.a.a.i.b.b.b.m.S.F.F.B.B.B.G.V.L.g.y # s j.A.n.H.G.^.G.^.^.}.}.}.|./.].^.^.^.G.C.G.G.G.<X1X(.G.T.T.Y.,XB.'.2X4X4X X XXX/././.`.|.].}.}./.Q.^.].|. X XXX|.}. X|.].I.x.0 S h.F.^./././.`.]./.`.].].]././.}.}.}./.}.|.}./././.|.|.|.`.^.G.V.I.S.b.b.b.b.D.D.8.b.9.8.9.b.b.8.i.,.,.6.n F S t v q @ @ $ B ' ../ HXFX| =.=.*.| / B / / I B | tX} } X.| } / B B P P B 1 / P / P B B ! ] ~ ] ` #.O.! 5 ~ ^ W ~ 5 < P | / B / } / P C C {  .H N H N N # t x.:X1X`.4XaXaXXX3XaXlX7X9XzXzXxX7XhXhX@XhXzXzXzXxXzXxXzXzXbXbXzXkXlXkXkXkXlX6XkXkX6XkXzXxXxXxXxX9X9X9X9X9X9X9X9X9X9X9XbXkX.X`.=XdXdX1X,X;X0 r qXpXdX`.vXaXlXXXaXbXjXkXbXkXkXkXbXbXbXkX8XkX6X6X6X}.vXvX3X2XaX`.].dX].[.T.E.E.U.aX3X3X].].aX XXXaXaXhX@X6XkXkXkX XXX_._..XaX8X8X#X#X+XXX2X`./././.].,XY.;Xl.0XJXKXHXHXHXGX-.tX-...;.FX-.FX=.;.FXFX-.-.-.$.FXGXGXGXZXHXGX;.&._ &.-.GXHX;.O.%.HXDXGXLX&.&.FXHXHXGXGXFXFXFXHX;.-.-.FXFX=.-.' FX%.%.$.' &.' [ <   X @ @ @ & % % q q w p d d j j h h h >.,.,.7.8.8.8.9.v.n.n.8.<.<.i.v.v.v.N.C.Z.0.!./.~././.Z.Z.!.!.Q.C.Q.|././.^.S.j j h.S.G.C.G.^.'._.G.V.V.F.I.I.S.S.L.Y._.^././.|.].C.'.C._.|. X X+XoX~.oXoX}.oX}.}.}.`./.`._.^.^._.^.G.b.S.F.F.H.G.C.C.G.Y.v A F z.n.B.B.n.b.v.b.b.b.b.m.b.b.b.n.n.M.M.n.n.m.m.b.b.b.b.b.b.b.i.i.a.i.u.f.i.i.i.i.v.b.m.a.a.i.u.u.a.d.p.e.b w ",
"r r w w s D b s t t t t t p p s f g q.e.w.w.5.5.u.u.7.5.7.a.a.i.b.b.m.m.S.F.B.B.B.B.G.V.L.g.N 9 s j.A.n.B.G.(.^.^./.|.}.}.|././.[.'.^.C.C.^.].[.(.'.(.U.1X1XT.G.'.2X4X}./.3X6X X X}./.`.|.|.|.|.}./.^.].|.|.|. X.X|.3X|.1XY.x.w D x.I.^./.].`.`.]./.`.].|.|.|./.|.|.|.}.|.|.|./. X}.}.|.|.^.Q.C.G.U.V.n.F.I.F.Y.b.8.n.n.9.n.b.9.8.m.,.,.5.6.n d b t q e # @ $ B ^ ..( ] HX=...=.-.=.( P ..I B } | tXX.} *.X.| } I P 7 B 7 / B P ^ 7 7 ] ` ~ ' ' _ ] ' ) ! ~ ~ 5 5 B 7 7 ..../ / ] ( B B V C I { C N M @ 9 G qX,X,X1X<X2XaXlXaXXX8X9XzXzXkXkXzX7X+XhXzXxXxXzXxX9XzXzXbXbXkXkXkXlXkXbXbXkXbXbXkXxX7X7X9XxXxXxX9X9XxX9X9X9XxXxXxXxXbXbXlXlXjX.X[.dXpXwX0 t qXwXdX`.nXhXcX3XhXbXhXlXbXlXjXkXkXbXbXkX8XkX6X6X6X}.vXvX3X2XsX].].2X`.[.V.T.R.B..XlXjXQ.`.jX6X X3XjXkXXX6XkX@X8X XaX`._.`.XXkX7X9X8XoX}.[.U.C.Q.^.'.:Xx.l.iXPXLXtXHXFXtX-.HXLXFXDXGXFX-.;.HXtXFXFX%.-.%.HXGXHX&.HXGXFXO.&.;.FXZXKXKXKX&.ZXLXGXFXFX-.&.;.-.FXHXHXFXZXFXHXHXFX$.HXFX$.=.%.-.$.$.%.&.` | B + X o @ @ # % # # q q r p d d h h h h h >.1.,.,.7.i.8.8.9.9.9.9.8.<.i.b.m.b.v.N.Z.N.0.!./.~.~.!.Q.Q./././.!.!.}././.^.F.j p h.Y.G.Q.G.^._._.C.n.F.F.I.Y.F.S.S.T.^././.!./.^.0.C.U._.}.XX+X+XoXoXoXoX}.oX~././.|.].].].^.^._.^.G.b.M.V.C.H.G.Q.C.C.I.v A F h.v.B.B.n.b.v.b.b.b.a.b.b.b.b.n.M.M.M.n.n.n.m.m.m.b.b.b.b.b.i.i.i.u.u.f.f.i.i.v.b.m.m.i.a.a.u.u.a.a.u.r.m j ",
"r r w 0 s D b s t t t t t p s s f g 4.e.r.w.5.5.p.p.d.p.p.a.p.i.v.v.m.M.S.F.G.G.G.G.^.H.L.x.N # s h.A.F.G.B.G.^.^.^.|.}. X/./.^.]._.'.'.^.^././.^.C.^.[.5X<X<X].].|.|./.}. X X). X/./.}.|.}.|.|.|.}.].].|.|. X XXX/. X|.'.Y.x.0 s t.F.^././.^.`.|.|.|.|.]./.}. X X}.}.}.}.}. X X|. X X X|.`././.^.^.G.G.G.G.F.F.9.F.D.D.b.b.S.b.m.a.u.u.p.p.r.4.n b v u e % & X $ 1 | &./ *.-.P ' =.=.&./ ( ( | X.HX( ( } *.*.*.( ..( 7 B *.../ } P P ( ~ ! 6 $.O.~ _ ' ' ^ ^ ^ ! ! [ 7 B / *./ / | } ( B M V C V  .I % e a D ;XL.R.:X{.[.3X3X}. X8XzXkX@X@XkXkX XkXxXxX7XxX9XxXzXbXbXbXbXkXlXjXhXhXbXkXzXzXzXzX8X7XxXxXxX9X9X9XxX9X9X9X9X9X9X9XzXbXhXXXaXaX2X2X,X;X0 w qXpXdX.XvXlX3X.XvXcXlXmXlX6X3XlXcXbXbXkX6XkX6X6X3X|.vXsX4X2X2X_.'.2X[.dX[.pXpX{.|.jX3X!.`.3X@X@X3X3XkX+XzXzX+X@X XhX`.Q..X3XzX7X7X8X}.Q.C.U.F.F.F.:XqXl.uXPXGXGXLXFXFXFXGXHXFXGXFX;.-.HXFX=.tX;.$.;.DXGXLX;.#.ZXFX;.&.;.FXHXHXKXIXKXFXHXLXGXGX-.&.#.;.ZXGXHXHXZXFXFXGX$.;.=.=.%.-.BX=.%.%.=.*.] ] ` 1     o @ @ # % 9 q q q r a d h h g h g >.>.,.,.,.i.<.i.m.b.<.8.n.S.<.b.i.M.v.b.M.B.G.Z.2.!.}.!.).~.Q.`.)./.!.OX/./././.(.F.j d h.L.H.G.^.^._._.G.F.M.F.F.F.S.M.S.F._.]././.|.Q._._.'._. X6XoXoXoX~.oX}.}.}.!.3X}./.|./.`./.].Q.^.B.b.S.F.C.H.H.Z.Q.C.S.c K F s.S.9.9.B.n.8.m.A.i.i.b.b.b.b.n.n.M.M.n.n.n.m.m.b.b.b.b.b.b.v.b.i.i.u.f.u.i.i.v.v.b.m.m.a.u.u.i.i.i.u.r.D d ",
"y y r w s b s p p t t t t p d s g n 4.r.r.w.5.5.u.u.a.u.p.a.a.a.i.v.b.b.n.B.B.C.C.G.G.H.L.x.N 9 s x.J.S.H.G.(.'.^.^.}.).}./././.^.G._.]././.].].|.^./.].].].].].4X|.|.}. X3XXX X X)./.}.}./././.|.}.].].|. XXX3X|.OX|.|.(.I.x.0 f r.S.^././.^.].].`.`.`././.).). X}.}.}.}.}. X X|.|. X X X|.|.|././.^.^.G.G.B.n.D.V.V.F.S.S.Y.S.S.a.7.7.u.u.w.4.4.n b v t u e & X o $ ^ *.] ^ FX` ! | *.HX| / / BX| | X.P B tXBX*.( ....P 7 I I =.( ( tXFX[ 5 ~ ^ O.) _ #.] ) ) ] ^ ] 7 B 6 B *...P ( ..| I 1 V V V / { C q w b y.t.J.:X<X<X2X2X}.3XkXkX6XhXkX@XoXhX7XxX7XxX9XzXbXbXmXbXkXkXhXhX6XjXbXkX6XzX7XzX7XzXxXxXxX9X9X9X9X9X9X9X9X9X9X7X9XzXkX@XhXaX2X<X1X:X0 w qXpXdX3XlXcXjX|.hXvXjXcXbXbXlXbXbXcXcXlXlXjX6X6XhX`.vXjX.X.X[.'.[.dXdXdXdXdXdXaX3XlXhX!.|.hX8X8X6X3XzX8X7XxX#X8X X6X`.Q..XXX8X+X XXX|.'.C.pX:Xu.;XqXJ uXPXKXGXDX-.FXHXGXGX-.HXDX&.HX-.$.-.-.;.$.%.DXDX;.;.) ;.;.#.FXZXFXHXKXIXIXLXFXHXLXLXKX-.] %.ZXFXHXGXLX-.;.LXGX) HX%.&.&.NXFX%...-.-.&.` ( ! o   + o @ @ # 9 9 i r i w t p f h 1.,.>.>.,.,.5.7.,.8.i.8.8.b.M.M.9.1.<.i.v.b.n.9.V.B.G.Z.0./.}.~.oX)./.`.).~.!.`.}./.)./.(.S.j d z.Y.H.^.^._.'.'.U.G.F.F.F.M.n.M.F.T.'.`./.!.}.!.].].[.`. X@X+X+XoX~.oXoX}.}.!.|././.|./.]./.`.^.^.C.v.M.V.B.H.G.C.Q.G.D.v A G z.M.0.n.n.n.v.b.A.i.i.b.b.b.b.n.n.M.M.n.M.M.M.M.m.b.v.m.m.m.m.b.a.f.i.f.i.i.b.b.b.b.M.b.i.u.u.i.i.i.u.e.D d ",
"e r w t b D m b p p p p p p d f g g 4.r.w.w.5.5.p.p.a.p.p.d.a.a.b.b.b.m.n.B.B.C.C.C.G.F.L.x.A q d h.A.b.V.G.U.^.^.^.|.).)././.].^.G._.|.].|.|.|.|././.|.].|.|. X3X X X XXX6X3X X X).).|.|././.).|.|.].|. X XXX6XXX}.3X4X5X:Xx.w f t.S.^./././.[.4X|.4X|.|.}.}. X X X X X X X X X3X X X X X X|.|.|.|.].].`.(.G.B.U.n.F.F.M.F.F.M.K.m.i.7.u.u.u.7.5.4.n m c v y e N @ @ $ $ ] *.! *.| / &.( GXBXP / tX=.| tX| | ..X.X.} / =./ B *./ | | ^ tXFX` , 6 ] ] #.) O.;.) ! ! O.] *.] 7 6 ] ..( ( ..*.{ M C C B B V V N t A S g.P.:X,X,XG.4X3X8X3XXX6XhX@XoXhX7XxX7XzX7X7XzXzXzXkXhX6XXX|.XXhXbXkX6XkXzXzXzXzXxXxXxX9X9X9X#X#X9X9XxXxX9X7X9XxXkXhXhXaX2X<X1X:X0 w qX,XdX4XlXcXcXXXjXcXlXvXvXmXlXvXmXvXcXjXkXhX X3XhX/.sXsX.X[.[.].dXsXsXsX3X2XdX.X3XjX3X/. XhX8X8X6XXX6X@X7XxX7X7X@X6X|.]..X X6X).|.|.U.F.T.b.s.qXl.K uXPXLX-.%.FXFXFXFX-.%.FXFX-.-.#.-.-.%.-.AXHXFX%.;.#.#.FXGXGXHXHXZXGXUXIXKXFXFXHXFXZXGX-.&.FX-.FXLXGXHXFXHXGXFX;.FX-.-.=.HX-.&.-.%.....] ^ 1 X X @ o @ & # 9 i r w p w w p s g >.,.<.,.,.,.,.<.7.<.8.i.8.i.v.b.b.i.<.<.<.v.v.V.9.C.Z.C.Z.Z./.oX~.).~.!./.).~././.}.~.}./.^.S.0 w x.:XU.G.G._.'.'.U.U.G.F.F.F.F.F.F.I._.^.Q.!./.Q.`.]..X`. X+XoX XoX/.}..X.X`.Z.^.^.].|.].|.^.^.^._.C.b.M.V.B.H.H.C.C.C.D.v z G x.i.N.F.n.n.b.i.a.u.u.i.b.b.b.n.n.M.n.n.n.M.M.S.m.m.m.m.m.m.m.b.b.i.i.i.i.a.m.m.b.n.M.b.i.u.u.u.i.i.u.e.F d ",
"y r r p S b s s p p p p p d f f g g 4.r.w.5.5.5.p.p.a.u.7.a.u.i.b.b.m.S.F.F.G.G.G.G.G.F.L.-XA q p x.J.A.F.G._.U.^.^.|.).|.).].].[._.]..X|.|.|.|.|././.|.|. X3X3X6X3XXX3X6X6X3X X|.).}. X X X X X X|.|.|. X XXXXXXX X3X|.[.Y.x.0 s t.F.G././.`.`.|.|.|.|.`./.}.). X X X X X XXX@X3XXX X X X|.|./.|.|.|.`.].].'.G.T.9.F.F.n.F.n.n.I.S.b.b.a.a.a.a.7.5.5.6.n m c y q e % o o + 7 *.] | *.^ ^ P BXGX..B ..=.| =.tX/ *.=.tX*./ / *.| / ( ( $.| %.FX~ ! ` ~ O.$.O.O.;.O.` _ [ ( ( | B 7 | ( | } I / { V M C C M { rXH k u Z g.j.:XpX,XdX2X4X|.].XX3XXXXXkX8XzX8XkX8X8XzXkXkXkXkXhXXXXX}.XXkXkXkXzXkXzXxXzX7X7X9X9X9X9X#X#X9X9XxXxX9X9XzXxXzX6X6XaX4X2X1X:X0 d qXpXsX3XlXcXvXaXvXnXlXlXlXmXlXvXmXvXcXcXlXjX|.XXaX`.4XdXdX[.[.[.dXfXsXjXvXhXaX3X6XkXlXXX3XjX8X8XhXXX@XhX7X9X7X8X@XXX.X|.4X4X3X|.|.[.S.m.K.P.l.K 0XJXPXBX-.' -.FXtXAX-.DXFX;.%.DX;.DX&.;.-.;.;.&.&.] -.DXLXLXDXFX;.ZXHXHXKXKXLXGXFXHXGXZX&.FXLX-.ZXLX-.ZXGX-.GXHX&.HXFX;.HXHX-.-.-.%.$.] ] ^ $   X @ o @ @ # q r p d d d d p d f >.,.<.<.<.,.<.,.7.8.<.i.i.i.b.i.<.<.v.b.9.9.n.n.F.n.C.C.C.Z.!.}.}.~.~.~./.}.).~.~.}.}.}.}./.^.M.0 w g.D.F.F.F.G.T.'.U.G.G.G.G.U.T.I.F.F.G.G.^.Q./.Q.`.]..X|.oXoXoX X}./.}.|..XQ.Z.C.^..X|.].4X^./.^.'.C.S.K.F.G.'.H.C.C.C.m.v N l.x.<.9.G.9.b.b.u.a.u.u.a.b.b.b.n.n.M.n.n.n.n.m.m.M.S.K.m.b.m.m.b.a.i.u.i.i.b.m.m.n.n.M.m.a.i.u.i.a.i.u.e.D d ",
"z r w p S b d s p p p p s s f g g g 4.r.w.w.5.7.p.7.p.7.7.p.7.7.i.b.m.S.F.F.G.G.G.G.G.B.L.x.A 9 w c.P.A.F.H.U.G.^.^././. X}.|.^.[._.`.|.|.}.|. XXX`.`..XXXXX@X X8X6XXX6X6X6X X X|.}. X X X X X X X|..X.X3XXXXXXXXXXX6X X2XR.x.j j t.I.G.^.`.`.^.|.|.|.4X|.|. XXX XoXoXoX X X X X X X).|. XXX X|.}././.^.^.'.(.(.B.9.U.U.F.F.F.F.F.F.F.M.b.b.b.b.i.a.p.u.r.n m s a A z @ @ o o $ | &.| | ] ] ~ ' =.HXP ( &./ =.BXX...*.HXtX} { | &.B / $.^ ~ ] ` ] ' ] ! $.;.$.%.-.&.O.' ( P *.tXP / ..| | } I X.V V I I V M U yXrXH y v D g.x.j.L.T.1X1X[..X3X XXX6XXX6X6X6X3X3XbXzXkXkXlXhXXX.X}.XXjXhXhXkXzXkXkXhX7X7X7X7X7X7X7X7X9XxXxXxXxX9XxXzXzXkXhXaX3X2X,X:X0 p wXpXsXhXcXjXjXjXcXcXjXhXjXmXvX3XnXlXcXlXjXlXXX.XsX|.dX2XdX[.[.[.sXfXsXjXkXjXaXaX6XkXjX3XlXkXzX8XlXhXXXlXzX7X@XoX X X|.].4X|.|.`._.T.A.h.p.l.J  .JXLXtX&.;.HXFXFX-.-.GX;.FX-.HX;.;.&.;.;.;.-.-.] &.HXLXLXFXFXZXFXFXKXHXZXIXHXZXGXHXDX-.;.-.GX;.HXKX-.-.FXFXFXFXFX-.-.O.LXFX' FXFX..] / ] B o   X X @ % @ @ 9 r w s h h f j j d h ,.<.8.9.8.<.8.<.8.8.<.b.8.8.v.b.i.b.i.<.N.B.B.C.Z.C.Z.C.C.0.!.}.).~.~.oX).).oX~.}.oXoXoX)./.G.m.w u g.j.S.S.V.F.U.'.'._.G.G.U.U.T.T.Y.I.I.T.'./.|.^.].|.4X X).oX+X@X|.`.|.|.].C.C.G.^.2X].].2X].`._.'.V.S.L.F.G.'.T.G.C.C.m.c A l.x.<.n.F.9.b.i.7.u.u.u.a.a.b.n.M.M.M.n.n.n.n.m.m.M.S.S.b.b.b.m.b.b.i.i.i.i.a.m.M.n.b.M.A.b.i.u.u.u.u.u.4.n p ",
"u r w p F D b m p p s s s f f g n 4.6.w.w.u.u.p.u.7.p.7.7.a.u.i.i.v.m.S.F.F.G.G.G.G.G.V.D.x.N 9 w t.j.m.D.n.F.B.G.G././. X|.`.Q.[.G.^.].}.}. X X|./.`.XXXX6X@X+X8X@X@X6X6XXX X X|. X X X X|.}. X X|..X3X6X3X@X@X3XXX6X X4X:Xx.d w t.Y.G.^.|.`.^.4X4X4X3X4X3X6X8X X X X X X X X X X X X XXXXX X|.|.|./.^./.].'.(.B.G._.T.U.G.F.G.B.F.G.F.n.b.b.n.b.b.i.a.5.4.g h b p u # % @ @ o X B *.=.| ..$.] ^ ] FX| ..../ / JXtX} X.X.*.X.} | tX] ~ ^ ^ ~ ~ ] ' ;.^ ) %.%.O.O.O.$.&.*.( P | =.} B P / I C V  .V C V V V H C yXX.{ N a F l.-Xj.I.:X,X'.[.2X.X.X3XXX6X3XjX4X3XkXkXlXjXhXaX.X}.XXXXhXXX6XkXzXzX@X7X7X7X7X8X7X7X9X7X7X9XxXxXzX9XzX7XkXlXlXhX3X<X1X:X0 w qX,XsXlXcXjXlXlXcXcXjXhXjXlXvX|.cXvXcXjXjXcX3X.XjX2XsXdXdX[.].[.sXsXdXjXjXhXaXaX6XkXjX|.lXkXkX XhXjX|.hXkXzX@X).XXXX2X].5X(.5X].T.J.t.y.g.l.rXJXtX..=.=.DXFXFX-.-.FX-.#.$.FX$.&.;.;.;.-.-.$.%.FXKXKXZX&.ZXHXZXZXFXFX;.-.ZX-.;.ZXFX-.;.HXDX;.GXGX-.-.HXHXFX-.FX-.%.HXKX' | -.-.-.$.! 6 1   X X X @ & % % # r t j h h h >.h h h >.<.8.9.0.9.9.9.<.9.9.<.b.9.8.9.b.b.S.S.v.N.Z.C.G.Z.^.B.C.C.0.!.}.).oX~.oX}.).).~.).}.oXoX)./.^.A.w y l.P.K.S.I.T.{.{.{.'._.^.^.G.G.I.T.R.Y.T.'.].2X^.].].|. X).oX+XXX}.}.|.].'.B.G.C.C.[.[.].2X].]._.'.V.S.S.F.F.H.H.C.C.B.a.v A G t.8.F.F.v.b.8.7.u.u.u.a.a.b.b.M.M.M.n.n.n.n.M.M.m.m.b.v.b.b.b.b.a.i.u.f.a.a.m.b.b.b.m.m.a.u.u.u.u.u.w.4.n d ",
"z z t p S m f d d p c c c f f g 4.4.6.w.w.u.u.p.p.u.a.u.u.a.a.a.b.n.m.M.S.B.G.G.G.G.G.B.D.x.A 9 t g.z.A.F.F.F.U.U.G././.|./.`.^.[.G.^.|.|.). X X}./.|.XXXXXX@X@X@X+X@X6X3XXX|. X|. X XXX X}.}. X X|.|..XXXXX@X6X XXXXX/.5XY.h.j p t.I.(././.`.`.|.|.4X4X4X|. X@X@X@X+X+X@X@X@X@XXXXX3X3XXXXX|.|..X.X|.].[.[.'.G.B.1X'.U._.G.B.G.H.H.G.G.F.V.n.n.n.b.b.i.7.5.4.4.t.f s 9 q % % @ $ o @ B =...` :.` ~ &.] | *.] ../ HXBX| X.VXJX} @.@.=.@.5 ^ ~ ] ` ' ] ` %.] R -.-.;.$...*.*.| X.X.BX| B 1 V } M C U } V C C C M I yXyX .K y N J x.P.:X:XT.{.2X.X.X3X.X3X3XsX4XsXcXbXkXlXlXhXaX=X}..XhXXX@XkXkXzX@X@XhXhX7X@X@X7X8X@X8X7XxXxX9X7XzX8XzXlXjXaX3X<XpX:X0 w ;XT.dXjXlXkXcXlXlXcXlXhXlX3XbXXXnXmXmXcXhXvX.X].jX[.sXsXdX'.].<XsXsX2XjXkXkXlXhXjXkXjX|.aXlX6X}.aXsX`.=XhXhX7X~.XX3XsX[.^.G.].'.S.s.y.l.0XuXJX| ..GXFX-.DXDX-.;.&.@.;.;.%.^ &.#.;.-.;.-.DXHXLXUXGX%.O.HX-.ZXDXLXZX;.LXGX-.;.ZXFX;.-.FX;.HX-.FX-.-.GXHX$.;.FXFX-.FXFX' HXFX' $.' ` P +   o X $ & X @ % & # u p d h ,.,.,.h h h ,.8.9.0.0.0.9.9.9.9.n.8.v.9.9.v.v.i.m.S.S.N.Z.^.Z.B.^.Z.C.Z.0.!.).~.oX~.).}.).).~.~.~.oXoX)./.G.m.w y x.;XJ.K.Y.T.{.{.[.'.^.^._.G.F.F.T.R.:XR.U.^.|./.].].}. XoX).+X X/.`.].`._.N.G.V.B.'.[.].2X|.|.^._.V.A.S.M.B.H.H.C.C.B.a.z A S n i.F.V.n.b.<.u.f.u.u.u.a.b.b.M.M.n.n.n.n.n.n.n.m.b.b.v.v.b.b.m.b.i.i.a.a.b.m.b.b.b.n.b.i.u.p.p.p.u.w.4.n d ",
"u u r t b D m f s s c c s f f g g 4.4.w.w.w.u.p.p.u.a.7.7.a.7.i.b.b.m.m.n.n.B.G.G.G.G.V.D.x.A q w y.h.m.S.n.F.U._.^.]./.}./.`.`.[.^./.|. X|. X X X|.XX6X X}. X@X+X X@X6X3X X XXX|. X XXXXX X X XXX|.|.|.|. X XXX@X6X6X|.5XI.h.j d q.S.(./.!.Q.`.|.|.4X4X4X X X+X@X+X@X@X@X@X@X@X X XXX3X4X4X.X.X|.].[.[.<X[._.B.B.2X(.G.1X^.G.^.(.(.^.^.G.G.G.F.F.n.n.b.a.7.u.s.p.n b 9 u e e % @ o o $ 1 *.-.~ $.&.[ %.` ` ` ^ P HXBX=.yX} X.HX=.[ | *.=.] ^ ! ~ [ ! ` $.&.] ` &.%.| *.} / yXX.I { | I B V / { V M I X.U C C C C I } yXuX{ e N S g.;XqX:X,X<X'.].2X].2X|.2X].3XjXkXlXjXhXaXaX.X!.`.3X6X6XhX6XkX+X@XkXhX@X@X@X7X+X+X#X7X9X9X9X7XzX8X7XkX6X6XaX2XpX:X0 t ;XR.<X3XhXlXbXlX3XlXlX3XhX|.mX|.lXcXlX6X3XjX/.`.aX_.dXfXdX'.[.2XsX3X].3XhXhXaX.X.XjXhX].3XlX6X/.aXsX[.=X}. XXX!.`..XdXT.F.D.S.a.5.F l.iXJXHX*.=.FX-.-.FX-.] ;.&.' ;.&.$.%.%.' $.-.;.&.;.LXUXLXHXO.O.-.GXGXLXKXGXZXZXDX-.GXDX&.#.%.;.-.FX;.FX-.DX-.FXFX;.FX-.FXFX-.' FX-.$.$.] ! 7 +   @ @ & & o X & x q # w s h >.,.,.,.1.1.,.<.8.9.0.0.0.9.9.9.n.n.8.9.n.9.9.9.8.b.v.<.0.Z.].Z.C.Q.C.C.N.2.!.}.~.oX~.~.).).oXoX).).oX+X)./.G.j.i r g.z.J.K.I.T.{.'.'._.G.^._.U.F.F.Y.Y.wX:XF.C.]./.|.|.|. X).oXXX X/.|./.`._.N.U.V.V.{.[.`.2X|.|.^._.F.S.K.F.V.H.F.B.C.B.k.v J G n a.S.M.S.m.<.u.s.w.r.u.i.a.b.n.n.n.n.V.n.n.N.N.b.m.M.n.n.n.M.M.m.b.a.m.b.b.m.b.b.b.m.a.i.u.p.s.s.p.r.e.D p ",
"N z q a f b f f d p a a s f g n g g 4.w.w.5.5.p.a.p.p.a.u.7.u.u.i.i.A.A.S.b.F.F.G.C.^.B.D.x.A q r l.7.D.b.I.n.T.'.].]./.).).}.|.}.`./.|.|.|././.|. XXX@X XXX X X@X@X6X6X6XXX X X).|.XX). X XXX|.3X.X|.|.|.|. XXX6X6X6XXX1XL.x.j D h.M.^./.~./.|.`./.]. XXX X+X+X@X@X8X6X6X6X6X@XXX X6X X|.4X.X^.].[.'.'.'.'.G.B.U.2X_.'.].^.].4X].(.(.^.^.'.^.^.G.B.n.b.m.A.A.j.7.4.s 9 w z t N e % @ @ o $ ] -.P NX&.L ;.:.P ..tX/ tXBXX.| } X.tXX./ ( ..tX*./ ^ ] R 5 ! ] HX@.^ | / } X.V V U V I o.o.M I / M  .U M C } } V V V V V  . .yXrXN k A J x.;XwX:XU.'.].2X|.|..XaX.X6XkXkXhXlXhX|. X/.}.kXkX3X6XjXXX6X@XhXlXlXXXXX@X+X8X7X9XxXxX@X@X7X7XxXxX7X7X6X4X<XwX0 0 J.:XdX3XhXvX6XXXlXlX3X|.6XcXkX X6XcXhX3X3X4X].].2XG.nX{.'.<X^.].sXvX2X2XaX[.fXdX|.4XjX/.|.lX6X!.].vXpX'..X.X].C._.pX,XI.P.p.g.F J 0X .yXtX| FXFX-.;.ZX;.&.&.] $.%.-.&.' ;.-.' -.-.FXLXKXGXHXGXFX;.FXHXKXIXLXGX%.HXFXDXFXFX;.DXDX%.FXFX%.FXNXHX%.%.;.-.;.' -.-.$.&.GX-.#._ ) B $ X X @ @ # # % @ X % z 9 # a s h ,.<.<.<.,.,.<.i.9.2.0.0.0.0.0.0.N.n.v.<.B.G.0.2.N.v.9.C.B._.!.0.!.Q.Z.V.B.2.OX}.oX).oX)./.}.oXoXoX X XoX).!.R.g.9 u D d.a.m.F.'.{.T.U.T.G.G.F.F.K.I.Y.Y.L.:XY.U.].`.].|.].|.|./.|.XX}.oX}.}.Q.C.C.V.U.{.[.|.|.|.].^.'.V.b.m.Y.F.S.F.I.F.n.k.z N A D d.Y.m.d.p.w.q.y.y.q.s.u.i.m.n.n.n.n.B.n.N.N.m.m.m.M.b.v.n.S.S.b.b.m.b.m.m.m.b.a.a.a.f.f.p.p.p.p.p.r.e.b p ",
"x z q a s f f f d p a a s f g g g 4.4.w.w.5.u.a.7.7.7.a.u.u.p.a.i.i.A.A.A.b.n.B.G.C.G.B.D.x.N # u l.p.n.n.I.n.U.].].]./.).).}.|.|.}.}.|..X|.|.}. XXX6X3X X6XXXXX@X@X7X6X6XXX X|././. X}. X}.XXXX|.|.|.|. X|.|.XX@X@X6X.X1XL.x.j f s.S.^./.~.).|._.^.].XX3X+X+X#X@X@X@XXX@X@XXX X8X3X6X X|.2X].^.].].[.<X<X'.G.B.1X<X(.'.]./.].2X].(.].'.].].^.^.'.G.F.F.S.m.a.7.7.4.b 9 u v v c A 9 % & @ $ $ 6 ..L ] NX:.` $.P &.*.1 | *.X.BX| X.BX*.=.=.| tXBX| / &.! ! ' ] | *./ *.V V  .H U  .N N U U { V { M U } I C I }  .C H U k C M rXyXU k N G l.;XqXL.,X,X1X[.].3XhX3X@XkXkXhXlXlX3X6X XXXkXcX6X6XjX3X@XXXXXhXXX.XoX@X+X7X7X9XxXxXxXxXzXxXxXxX9X7X6X2X<XwX0 0 P.:XdX2X.XhXhXaXlXcXhXXX3XbXbXhXkXbXkX6XjXvX].5X<X'.nXpXdXdX^.4XvXjX2XvXdX{.fXsXdX2XjX|. XvX8X^.2XvXdX[.].].[.U.I.Y.K.J.h l.F  .rX .X.*.BX-.DX-.&.%.&.' $.] $.%._ $.-.;.-.;.FX-.-.GXFX-.ZXLXGXFXLXHXKXUXLX;.-.DXDX;.GXZX;.&.%.ZXGXDX;.HXFX-.-.$.%.%.:.%.FX-.%.%.FX-...' ! < + X o @ # # 9 9 e # X % N i 9 a f h ,.<.8.8.<.<.8.v.N.0.0.&X&X0.0.B.B.V.v.<.N.^.&X0.V.V.V._.C.^.!.!.|.^.B.V.N.2.Q.}.).).}././.}.oX~.).oX XoXoXQ.Y.g.q y q.a.m.n.G._.'.T.T.T.F.F.F.I.K.I.T.T.S.Y.Y.U.].`.}.|./.].|.`.|..X~.oXoX}./.Q._._._.[.]..X4X|.].C.G.N.m.A.S.S.n.M.M.b.n.j.z N K D u.i.J.j.s.w.e.y.e.q.p.5.8.n.n.n.n.n.B.V.n.N.b.m.b.m.b.b.n.S.S.b.b.m.A.m.m.m.A.m.d.f.f.p.p.p.a.p.p.p.y.S p ",
"e y q a s f f d s s s s s f g g g 4.q.6.5.w.p.p.p.7.u.a.u.u.u.7.8.7.j.j.L.m.S.V.U.F.G.U.Y.h.y % r l.p.n.m.S.b.n._.'._.^./.).}.|.|.}.}.|..X|.|.|. XXX X).). XXXXX8X@X6X6X6XXX X X|.}.|.}.|./.}.|.`./.|. XXX X XXX@X+X@XXX1XI.x.j j s.I.'.}.). X|.].].|.XXXX+X+X+X@X@X@X@X@X6X@X X@X6X6X X3XhX|..X.X].[.dX<XG.B.C.dX[.^.].]./.|.|.].'.].].].|.^.^.[.G.B.n.n.m.b.a.a.w.D 9 t Z c b v i e % @ X X $ 1 ( ..' &...5 %.( | tX/ I ( ( | yX} X.*.=.=...*.tX*.^ [ ^ 7 ` [ ( X.X.V C V H V C  .{ V C { / { V C C I I C C o.yXH U 0XU U k rXyXrXK A G l.x.P.;XR.T.'.].2XhX6X8XkXkXhXkXlX6X6X@X6XkXbXkXkXlXkXkXkXkXjXhXaX6X6X6XxXxX9XxXxXxXxXzXhXxXxXxX7X6X<X,XwXw w P.:XdX3XaXlXlXlXcXcXjX3X6XbXcX3XjXkXkXjX3XcX].5X'.[.nXdXfXsX|.jXvXjX3XmXsX'.sXdXsX[.sX.X.XcXjX/.|.vXsX2X.X2XpXI.K.R.s.D S t iXiXH X.yXtX-.DX-.;.#.&.) _ $.O.O.O.;.&.O.-.O.FX&.%.FX&.LXKXLXZXGXKXFXHXKXFXZXZXGXDX#.GXZX&.-.;.-.DX-.FXGXFX-.-.%.FX%.$.DXFX` %.;.-.%.=.^ 6 O . X o # # # q q q e & o e A w 9 s m h <.8.9.8.<.<.8.v.N.0.&X!.&X0.Z.Z.Z.B.N.<.Z././.Z.G.F.C.G.^.Z.!.|.|.Q.B.V.N.2.^./.~.oXoX}./.}.oX}.). X XoXoXQ.L.g.q N y.f.E.M.G.'.'.'.T.,X_.G.T.R.K.Y.T.F.S.Y.T._.].|.|.XX/.`.]._.`.]./.}.}.}.`.`.`.`.`.`./.|.3X`.].G.G.M.b.m.S.S.n.M.V.n.D.j.v A G F ,.<.A.f.u.w.q.q.q.q.p.7.i.M.M.B.B.B.B.V.N.N.m.m.b.M.b.b.b.n.A.b.b.m.S.b.b.b.A.J.A.a.f.f.f.f.a.a.a.p.t.S s ",
"e e q p s f f d s s c c b m g g 4.6.w.5.5.w.p.u.a.7.a.a.a.p.p.7.8.7.p.p.J.A.S.S.T.F.G.U.:Xh.y q i G p.A.A.K.m.M.T.G.^._././.].|.}.}.`.`.|.].]./. X X X}.}. XXXXX@X@X@X@X6XXXXXXX|.|.|./.}./.}./.}./.|.XX3X3XXX6X@X@X6X3X<XY.x.j j s.R.'.}.). X|.].].|.4XXX XoX+X@X6X6X@X6X8X6X X X6X6XXXhXlX4XhX3X2X.X[.'.G.^.'.dX(.(.|.`./.|.|.].^.].`.].|.^.^.].G.B.n.S.F.S.S.a.5.S 9 w c b b Z A i e e % % X @ $ B =.] %.BX6 &.| | tX/ B / *.tXX.X.| } X.tX*.tX*.=.^ ^ | R / / B X.} C C V V C U H C C V I rXU U I V U U I C U rXU U  .U U U V yXyXK A J G l.x.z.L.Y.T.2X3X3X6XhXkXhXkXkXhX6XhXhXkXkXkXlXlXlX6XkXlXhX3XXXXX}.6XxX9X7X9X7X7XzXkXhXxXxXxXkX3X<X>X;X0 w ;X:XdX3XvXcXcXlXlXcXlXlXlXmXcXhXjXlXcXcX3XvX].<X'.{.fXfXsXsX2XvXvXvX3XjXsX].vXdXfX[.dX[.2XvXsX/.|.vXsX|.sX4XpXR.J.x.F l A iX .C X.yX*.=.%.%.#.%.' #._ ' ] ! &.;.;.&.-.FXFX-.FX&.ZXLXKXLXHXKXKXHXKXKX-.LXFXLXGX&.FX;.;.FXDXHXDX;.-.FXHX;.;.-.FX` FX-.DX%.;.$.-...*.B 1 +   o & % q # 9 w w w N & @ e A w 9 c m >.7.<.9.9.<.8.9.N.Z.Z.&X!.!.!.C.Z.Z.Z.N.8.Q.).)./.F.n.B.G.^.0.&X}./.Z.V.U.n.N.C./.).|. X}./.}.oXoX X X X).~.!.S.g.q N y.f.M.V.G.].'.'.T.,X1X(.T.R.K.Y.T.F.F.T.[.].}.XXXX3X|.].].'.'.]._.`.`.}.`./.}.|./.).). X3X^.'.U.F.I.i.m.F.F.n.M.F.M.D.j.z N G y.u.i.K.a.u.w.w.w.w.r.f.u.v.M.F.G.G.B.B.V.N.N.M.M.M.S.b.b.b.S.A.b.a.m.m.b.v.b.A.A.m.a.f.f.a.a.a.a.a.u.t.D s ",
"e e q p s f f d s s c b b m n 4.4.q.w.w.w.u.p.8.7.7.u.a.a.a.a.p.a.a.p.w.j.a.i.b.I.F.G.U.:Xh.z e i G h.A.J.L.L.K.U.G.G._.]./.].|.`./././.`.].]./.|.4X X|. X3X3XXX@X@X@X@X6X3XXXXX/.|.|.!.}.|.XX}.|.|. X6X6X6X6X6X@X@X8X3X2XY.P.j 0 s.Y.'./.). X|.`._.].|.XX@X@X@X@X@X@X X@X@X@X X@X6X6XXX6X6X|.3XaXaX2X`.^.^.].2X2X^.].2X/./.XX|.].^././.].|././.]._.G.'.T.R.S.b.b.p.e.0 p S F e.b G K N r q e & o @ @ $ ..| B BX..P tX*.*.} B P *.yX} P } | X.*.=...tXBX^ / -./ ^ } B C I C M U H C C N V I V V  . .o.U M U rXU C U H U N U rXU H H  .yXyX .J J J l.x.P.R.<X3X3XXX@XhXlXkXkXbXkXkXlXkXkXkXlXhXhX8XkXkX6XXX3X X}. X7X7X8X7XzXzXkXbXlXbXxXkXhX2X'.:X;X0 w P.:XpX].hXlXkXkXlXcXbXcX3XmXcXvXlXvXcXjXvXcXsXdX<X'.fXsXsXsX3XvXjXlX3X3XjX3XvXsXfXpXdX[..XsXaX/.}.lX6X|.4X[.pXL.t.l A  .0XH C { tX....$.&.] ] #.` _ O.$.] ` %.O.-.GXLXFXHXLXFXFXKXLXGXGXKXFXFXGXLX-.-.ZXLXZXDXHX&.&.ZXZXFXHXHXFX-.DXHX$.ZXFX;.-.;.&.DX:.FX&.' | B $   o @ & # 9 q r w w p p N # @ q Z t 9 s n ,.8.9.9.9.9.9.9.B.C.!.~.~.!.!.!.Z.C.C.B.N.!.!.).).F.v.B.].C.0.!./.!.Z.U.T.V.N.2.^.}.}.}.}.!.}.}.~.).}.}.}.~.!.S.g.q y y.f.m.n.C._.'.G.U.'._.C.F.F.I.R.,X_.H.G.[.].}.XX XXXXX`._.U._.[.'.`.`.}.}.~.oXoX).). X3XvX'.'.T.S.M.i.m.Y.H.n.n.M.n.n.k.z A G y.f.m.Y.m.u.u.r.r.r.u.a.i.v.V.F.G.G.Z.B.M.n.N.M.S.M.S.b.b.m.M.A.m.a.d.b.b.b.b.m.A.m.d.a.a.a.a.a.a.a.p.r.n f ",
"e z i p s S f f f s b b m g n >.4.4.w.p.s.p.a.a.a.7.u.a.a.a.a.7.a.a.r.4.j.p.a.m.m.S.G.U.:Xx.v y i F h.A.A.L.R.L.U.F.F.U.'.^.^.].`.`./.^.^.`.]./.|.|.|.|. X3XXXXX6X@X@X@X3XXX|.|.|.|.|.!.|.|.3X|.XXXXXX3X3X3X3X6X@X@X8X3X<XY.x.0 j t.K.G././.|.|.]._.].|.3XXX+X@X8X8X@X X+X@X8X@X6X6X6X6X6X6X X6X3XhX3X|./.].2X3X].^.2X3X/.|.3X4X|.].].].|.2X|.|.].].(._.'.T.F.n.b.d.l.0 c F g.e.g.S s 9 w A z q @ @ @ @ $ / =.B ..*.7 *.=.*.BXtX} tXBXP / X.} ( X.BX=.=.*.} | | ..} / B 1 C M V { I U V I I V C {  .U I } V V rXrXU rXU rX0XC U U C N H o.rX{ C H J l.x.P.,X4X2XXXXXlXlXlXbXbXzXkXzXkXlXkXkXhXkXkXkXkX6X3XhXhX6X@XkX7X7XxXxXzXzXlXhXzXkXkX6X2X'.:X;X9 w P.:XdX.XhXlXbXcXlXbXbXlX3XmXvXjXvXvXvXvXcXvXvXsX<X'.vXsXvXsX4XcXlXlX3XjXjX3XjXsXsXdXdX[.[.aXsX`.}.kXjX4X[.,X:Xr.S J  .0XH N  .{ | ..$.:.' ] ' ] ) ~ ' ) ` $.-.FXGXHXGXKXGXZX;.LXKXLXGXFX-.FXLX;.;.HXDXGXDXFXGX' -.-.;.ZXGXFX-.HXHX%.%.HXZX-.DX;.-.:.#.FX' ~ ` > +   o o & & q q w p d j h d Z 9 @ q v p 9 b n 5.8.9.0.0.0.9.0.B.!.!.~.~.!.!.!.Z.!.!.C.Z.^.!.).}.F.v.B.'.0.!././.Z.Z.U.I.V.N.2.`.|././.}.`.}.OX!.~.). XoX~./.S.g.q y t.f.n.V.^.].]._.U.'.'.G.F.F.T.:X,X1X'.G.2X|. X8X X@X.XQ.G.U._.[.[.[.`.}.oX).%X%X+X+X).|.nX<XR.Y.S.m.<.b.Y.F.n.n.V.n.n.k.v A K e.u.v.Y.S.a.u.u.s.u.,.i.i.v.V.C.G.G.B.B.V.n.N.M.M.b.M.b.n.M.S.A.m.d.d.b.b.n.m.m.m.m.m.b.a.a.d.d.a.a.u.p.q.g ",
"e N i t s S b f f f b m m m n >.4.>.5.p.d.p.a.m.a.8.a.a.a.a.u.7.u.p.w.4.x.p.p.d.a.S.U.T.:X-Xv u 9 S h.d.j.J.R.Y.T.F.V.T.'.G.G.[.].`.^.Q.G.'.'.'.].].}.}.|.XXXX X6X8X6X6X3X4X|.].|.`.|./.|./.|.XXXXXX X3X3XXXXX3XXX@XXX4X1XY.z.0 j r.S.G././.|.].[.].|.|.3X X X@X@X6X6XXX X@X6X8X6X X8X6X6X6X6XhXXX3X3X4X|.|..XaX`./.3XXX/.XX3X3X|.|.2X|.|.|.|.|.|./.^.^.G.G.G.F.9.a.x.0 d f 6.6.h d D s d S v t e q e @ X $ 7 ] ! / =.( / | | =.JXBXX.X.HX*.X.} ( =.tX..| tX} / | tX( } / M C C V rXrXC k I o. .U k V o.U U U C o.rXU rXU rXU C U H C C I { } rX{ U J l.x.;X:X,X.XXXjXlXkXxXbXxX@XxXzX7XkXzXkXzXkXkX6X6X3X3X6X6XkXzXzXzXzXzXzXkXhXXX6XkXhXhXdX,X:X;X0 w ;X,XsXjXlXkXmXbXcXbXmXjXlXMXvXvXvXvXmXvXjXjXvXsX_.dXnXsXvXjXaXvXlXjXhXlX6X3X3XvXdXdX[.<X.XdXsX].|.lXjX[.,XwXx.l A  . .I C I C | &.] %.:._ ] ` _ ` ~ ] ` O.-.HXGXHXKXUXHX;.FXFXHXFXFX-.ZXDXHXO.-.ZXHXGX-.ZXHX;.&.;.ZXFXGX-.ZXZX$.' ZXFX;.-.ZX;.%.O.;.;.` ' 4 o o X @ @ & # 9 w p d d j h n h Z q @ e Z p 0 S q.7.9.B.0.0.0.0.Z.!.!.~.~.~.~.!.!.!.!.!.C.Z./.).|.(.M.b.M.B.0.!.|./.Z.Z.F.M.F.V.0.`.].`.`.}.|.|.}./.~.|.}.}.~./.S.g.e y c.a.V.C.`.|.]._._.'.'.[.U.F.R.{._.<X1XG..XXX X6X+X8X|.!.G._._.[.[.`.!.oX+X%X#X#X%X X/.^.nXpXS.K.I.S.i.b.F.F.n.n.F.F.D.k.z N G e.u.i.S.M.i.<.u.f.f.,.b.i.N.B.G.G.^.Z.n.n.n.n.S.M.b.n.n.M.S.M.m.m.m.b.m.n.M.M.M.m.m.m.b.b.m.m.m.b.a.p.p.q.n ",
"z N q t s S b f f m m m m n 4.4.w.>.>.p.a.7.u.b.a.7.i.a.a.a.a.u.7.u.w.g s.w.5.u.7.M.H.H.:X-Xv e i F j.j.j.J.wXY.T.V.V.T._.G.G.].].`.^.Z.C.U.'._.[.].].|.|.3X3XXX6XXX6X3X3X4X|.].].Q./.].|.!.}.aX.X.X X3X4X|..XXX X X X|.,XL.x.0 d r.A.U.]./.|.|.].].]. X3XXXXX6XXX@X@X XoX X@XhX6X).@X6X@XXXXX3X3XXX4X3X4X|.|.sX]./.3X X}.6X@X@X|.|.4X|.|.|.}.|././.`.].'.(.G.F.Y.L.x.0 d m h.p.s.t.g q.q.D F p u N e % @ o $ 1 ( B / =...| ../ } HXJX} BXHX../ X.B } *./ | X.tXX.P | | / } M C V U o. .} M C rXI V M C I U } } C U U U rXU U U V C V V M I } I o. .{ J l.-XqX:X'.`.3XlXkXzXbXxX@XbXxX7XzXxXzXzXkXkXhXjXhXaX3X3XkXbXkXzXzXbXkXkXkXhXkXkXkXlXsX<XpXwX0 p ;X,XsXjXkXkXbXbXcXmXmXvXjXmXvXvXvXdXsX.XaXcXvXvXN.dXnXdXaXvXcXlX3XcXlX6XjX3X|.nXsXaX[.aX[.2XsX]./.sXdXT.wXx.y.A K H C M V V C | *.;._ :.:.' W ! ] ` $.-.GXKXGXLXLXHXHXFXGXFX-.ZX-.&.-.-.-.O.ZX-.GXHX%.KXFX&.DXFX#.ZXDX;.-.;.] O.GXFXO.GX-.#.;.O.-.&.' ] , .   o @ & # # q 9 0 j d j j h 6.n F i # r Z a 0 D w.8.n.0.0.0.Z.Z.Q.!.~.~.~.%X~.~.~.~.!.!.Z.0.!./.(.G.b.A.S.9.!.).|./.C.C.F.M.F.T.Z.].`./.`.`.`.`.}.}./.}./.!.~.Q.b.g.q y c.b.V.C./.|.].^.^.'.^.<X_.G.{.T.G.[.<XB.]..X X@XoX@X X!._.[.'.[.[.`.!.oX+X+X+X%XoX}.].'.nXwXi.b.L.S.M.S.F.H.n.F.F.V.V.k.u N G g.s.b.M.S.b.7.i.J.m.u.b.v.N.B.C.G.^.Z.N.n.n.n.F.F.n.M.B.V.F.n.n.m.m.m.M.n.n.M.M.M.m.b.b.m.m.A.m.m.a.a.p.5.n ",
"z A i t s D q.h h g h m 4.4.4.4.4.5.5.p.a.7.a.8.b.i.i.i.a.A.m.7.a.5.4.q.r.w.>.u.d.m.H.Y.:Xx.v x i G p.D.A.J.J.Y.T.U.I.T.'.'.'.'.|.|._.C.G.T.{.U.C.].|.]..X4X X6XXX6XhX3X|.|.|.].].].].].].].|.3X.X.X|.|.|.].]..X.X}. X].'.L.x.0 d z.L.T._./.`.].[.].].|. X6X6X@X6X X X@X6X6X6XhX6X6XhX6X6X6X X X3X6X3X|.0.Q.sX2X/.!.hXXX/.6X@X6X X/. X6XhX3X/./.|././.^.'.^.B.G.F.A.t.0 D n 4.j.w.r.4.h z.r.f g.c v y e # & @ o 1 / ( P BXtX....X.} X.JX*.tXBX=.| } I | X.X.} X.tXHX| } I C I C C M U I yXyXC I { I I C C M I { o.C V U U  .o.V I I V C C M M | I / yXV K J 0Xx.K.[.2XaXcXbXxXxXxXbX#XxX@XbXxXzXkXkXcXhXaXhX3XcXbXhXkXbXbXbXbXkXbXkXkX@X@XhX4XpXY.P.0 p ;X'.sXcXbXbXbXlXmXmXcXbXjXnXvXvXsX[.2X2XsXsXvXsXZ.2XnXsXnXvXlXlXcXcXlXaXjXvXsXvXvX].].3X|.3XsX^.U.,XI.wXc.F J U C k x C M M R { / ` ~ _ ) ! ~ O.&.;.FXGXKXKXKXFX-.-.;.HXHXHXGXGX-.ZX;.ZX%.%.$.HXGX;.FXHX;.GXFX;.HXHX-.$.%.;.&.FX;.FXHX%.$.&.%.&.&.%.[ O   X o @ # % q q i w j h h h ,.1.5.4.g.i @ u Z s 0 D p.8.B.0.!.!.&X!.!.!.~.~.~.%X~.~.~.~.~.~.!.Q.Q./.Q.n.i.J.<.n.`. X|.Z.G.N.n.F.M.F.C.C.Q.C.C.`./.`.}.}./.!.}.}.).Q.K.g.q A h.I.U.Q./././.].[._._.].G.G.I.T.G.sX,XU.[..XoX+X+XoX!.!..X].`.|.Q.`.oXXX~.).7X).3XQ.G.,XgXwXK.S.Y.T.M.m.F.U.V.G.U.G.V.j.u z K g.h.m.S.M.M.b.m.m.a.a.i.b.M.B.C.C.C.C.Z.B.n.n.n.M.n.n.G.G.G.G.G.F.M.M.S.M.M.M.M.M.M.S.b.m.m.m.b.a.a.a.u.w.4.",
"y z q t s l D h h g h h 4.4.4.6.5.5.5.a.a.7.a.a.b.i.i.b.a.b.a.7.p.w.r.w.r.w.>.u.a.m.Y.H.;Xh.z N i G p.A.A.A.A.K.F.V.V.U._._._._.].]._.'.{.{.T.U.B.[.].].4X4XXX6XXX6X6XXX|.|.].].].].[.].`.|..X.X.X.X|.|.].].[..XaX.XXX].T.L.x.w f z.S.F.].]./.C._.^././.|.XX3XXXXX X XXX6X6XXX@X6X6XhX6X6X3X/./.|.XX3XXX^./.jX3X|.XXlX3X X@XhX@X6X XXXXXXXXX X6X3X|.|.].|.2X(.'.T.K.s.0 D q.5.j.a.z.p.,.j.p.>.e.S a y u & e & @ o $ / } / | -.tX} X.yX( BXHXHXX.} *.X.{ } yXVX| } X.BXBX*.I C V C I C V I rXo.C C I I I / B C I I I C M C C I X.{ I V V V M * V { B I { { N V J x.Y.,XsXvXkXkXbXzXbX7X7X7XzX9X8X6XjXlX3X.XaX3XjXkXkXkXzX7XkXbXbXbXbXmXbXbXlX4X1XY.;X0 p ;XT.|.6X6XcXcXlXlX4XlXvXjXvXvXsXdX2X<XdXvXsXsXdXN.2XMXnXvXvXvXcXlXjXhX3XvXvXaXsXsX2X2X4X2X2X1XT.S.wXwXq.-X0XH C k M C e N M { } / ' ] 5 ` &.&.-.-.FXKXUXKXFXDXHXDX;.GXZXGXKXKXGX-.ZXFXDX$.$.ZXKX-.ZX#.O.LXHX-.HXDXDXHX-.$.%.-.$.GXGX$.O.;.FX-.$.$.6 X X o @ # # 9 q w r d d h >.,.,.,.,.7.5.g.w # y A s 0 e.p.v.B.!.!.!.!.!.!.~.~.%X%X%X%X~.~.~.~.).!.Q.Z._.G.<.1.3.,.9.|.oX`.N.B.v.v.n.F.F.B.Z._._.Q.`.Z.Q.OX`././.|.}.~.Q.S.g.q v z.T._.^.).}.|.|.[.'.].].G.G.T.,X^.dX,XI.'..XoX+XoXoXoX}.3X|.|.XX}. XhX@X~.~.oX/..XG.T.R.R.L.K.Y.F.M.m.m.F.H.n.V.U.G.F.j.u z K l.h.a.n.n.v.i.a.d.m.b.b.b.n.B.C.C.C.Z.Z.B.B.B.V.C.B.B.G.G.G.G.G.F.V.M.M.M.M.S.S.n.n.M.M.m.m.m.b.a.i.a.a.w.5.",
"u t 9 p s f D g g m h h n 6.4.w.5.u.7.d.A.a.b.D.b.i.b.b.a.i.i.7.p.p.h.t.r.w.5.u.a.b.F.S.L.g.z N q G p.A.m.A.m.S.F.F.V.F._.'._._._.G.C.I.Y.I.M.M.V.'.[.].|.4X X3XXX3X3XXX.X.X].].^.<X<X^.^.|..X].].].|.].].].[.dX.X`.`.^.F.A.x.j f z.L.F._.^.^.Q.].].|.|. XXX3XXXXXXX3X3X6XhX3XXXaX3XjXhXjXhX X XXX|.|.3X|.2XvX2X^.3XhX}.XX XzX@X XXX8X8X@XXX XXX X/.|.`.`.].].(.U.A.s.0 n e.p.A.p.d.f.,.d.a.5.r.F p a t q e e & @ @ @ I | / B BXtXyX} tX| } BXLXJXyXX.I I o.o.yXyXX.I I *.X.X.V V } M V { { U I C B C I | / / I C V U I I V I } X.X./ V I I C * B X.B { tX*.M H l.x.wXpXpXfXvXcXkXkXkX6XzXbXbXzXlXjXvX2X[.aXaX2XlXkXkXkXbXbXkXkXkXkXzX8XhXhX2X1XD.;X0 w :X'.|.6X6XkXlXcXlX`.mXcXvXvXvXsXdXdXdXsXsXsXsXfXC.2XMXnXvXvXcXcXlXhXhXjXvXvXsXsXdX2X2X'.1X,X:XL.P.qXy.l.0XV N k x C M e M C C R | ' ~ ] FXHXHXGXHXKXGX-.O.HXZX-.%.LXGXGXKXKXKXKXGXDX-.;.&.;.GXZXZX;.FXGXLXHX-.%.&.FX;.&.ZX-.;.GXFX$.&.-.-.' %.%.< X @ @ @ # 9 q i w t p d h >.,.,.<.<.<.8.7.g.0 # y G c j e.a.b.C.!.~.~.~.~.!.~.~.%X%X%X%X~.~.&X~.).!.Q.Z.[.'.v.3.j.a.G.}.oX/.N.V.N.v.v.F.T.G.C._.Q.Q..XZ.Q.OX`././.|./.~./.Y.g.w v P.{.]./.~. X X2X2X].]._.C.G.T.pX^.<XpXI._..XoX@X+X~.oX}. X}./.|.}.XX+XoX!.}.`.`.[.V.Y.R.L.K.Y.T.V.n.m.M.F.H.n.B.C.U.G.j.r x K g.h.a.v.v.v.i.i.a.m.m.m.n.N.B.C.G.C.Z.C.V.B.V.V.F.F.C.G.G.^.(.G.F.B.M.n.n.M.S.S.n.n.n.M.m.m.m.b.b.i.u.p.w.6.",
"t t 9 s l f n g 4.6.m g 4.6.4.w.5.u.7.a.A.i.D.A.M.b.b.A.b.i.i.i.7.s.h.r.w.p.7.u.i.b.F.S.j.g.N k i G p.D.m.A.m.S.F.F.V.F._._._._.[.T.F.F.K.L.K.M.M.{.[.].|.4X XXXXXXX3XXX|.|.[.'.'.1X[._.^.].]./.`.].].]./._.[.2X.X.X2X_.F.A.x.d f z.K.S.G.^.].].[.].4X4X X X|.XX}. XXX|.XX3X.X`.3X|.3XaX3X3X|.|.2X^.C.^.].2X4X`.Z..XhX!.XX X7X+XoX+XkXkX8X6X X XXX/.|.]./.2X<X_.F.b.s.0 m e.a.a.a.a.u.,.m.A.u.s.e.d d p i u y e q % o @ M yX| B X.yXtXX.X.JXyX| JXVXyXBXU U  .} rXyXVXX.{ }  .rXI C C % C } rXrX{ M C I I I } C C M C V C M C C I =.yX| I C V C 1 } / 7 | | FX{ N F -XeX:X:X<XsXsXjX3X.XhXkXkXkXjX3XsX]._..XaX.XaXkXkXkXbXbX6X6XbXkXkX6X6XaX<X,XD.;X0 w wXpXaXjXlXlXlXcXvX.XmXvX.X.XvXdX[.dX<XsXvXsXsXvXG.<XmXvXnXvXcXjXjXhXlXvXvXvXfXfX<X1XpXY.:X;Xz.eXl.Z 0XU C M & C C e M M x M { @.| ` &.FXHX%.GXKX-.-.%.%.KXGX-.-.LXGXZXUXIXUXKXGXHXZX-.&.-.ZX-.;.ZXZXGXKXFX&.%.HXZX_ FXHX%.FXFX-.FX` ;.$.] -.[ + X @ @ & # 9 i w w w d j j h ,.<.<.<.8.9.9.8.h.w # y F b j e.a.n.Q.!.~.~.~.~.!.~.~.%X%X%X%X%X~.&X~.~.Z.C.2.B.B.<.u.d.b.B.~.)./.V.E.M.v.v.G._.G.C.^.^.^.|.^.`.`.`././.|.!.~./.Y.h.w c L.[.]./.). X X2X.X_.`.^.C.U.T.pX].2XpXI._.[.|.@X+X%XoX).}./.}.).oX X X}.!..X_.[.{.V.N.R.R.I.R.U.B.G.m.S.F.H.B.C.C.U.F.j.r z K G r.a.b.n.b.i.i.a.m.b.M.n.n.n.C.G.C.B.V.V.n.M.V.V.C.C.Z.G.^.^.G.B.B.M.n.n.M.S.M.n.n.n.n.m.m.m.m.m.a.a.u.5.4.",
"v t 9 s S l D g 4.4.4.4.6.q.4.q.5.u.7.d.A.i.A.S.n.b.b.S.b.i.i.a.7.p.s.4.w.s.u.i.i.b.F.D.h.F N x e G p.D.d.d.d.A.M.M.M.M.G.G.U.U.'.'.I.M.S.Y.L.M.M.{.[.].|.3X X X XXX3X4X|.].'.'.[.[.[.]._././././.`.].].].`.].[.`.`.|.^.n.p.g.j f s.a.v.G.'.[._.'.].4X4X4X X.XXX}.XX3X.XXX3X.X/.2X`.2XaX2X4X|.].].G.G._.[.dX2X[.C..XvX!.@X6X+X@X7X8X7X@X8X8X@X@X6X|..X].`.2X<XG.G.S.z.j n w.p.7.L.a.u.<.K.m.7.p.r.h g d w p A y u # e & X % { | / I X.BXyX( VXBX} =.yXyXJXPXrXo. .o.BXVXyXyX} rXrXV { V C C I X.yXo.} I C B } { I V C C V C C I M / | yXX.V B B V B *.P 7 ] &.tX .N A -X;X;X:XpXdXfXdXdX2XjX4XhXjX2XdX[._.dXsX2X3XlXcXkXkX6X6XcXcXkXcXkXkXaXT.S.J.qX9 w qX,XdXaXcXjXbXcXjX3XvXvX2X2XnXsXdXfXsXvXnXfX2XsXB.'.MXnXvXvXjXjXjXjXjXvXvXsXfXfX<XpXpXj.P.t.x.l.J { U C % M I C k M % C / / / | $.%.%.] ~ FXHXO.;.;.FXUXGX-.;.HXHXDXUXIXKX-.HXGXGX-.ZXKXLX;.;.-.HXHXGXFX-.;.FX%.%.;.;.%.%.;.HX-.` FX&.;.&.1 X o o o @ # q w w j d h h h h ,.<.<.<.8.0.B.0.9.z.j # t F S j w.i.n.^.~.~.~.~.~.!.~.oX%X%X%X%X%X%X~.~.).Z.C.V.V.C.V.J.b.F.^.).+X/.V.K.M.b.n.G.G.0.0.'..X`.`.^.'._.`.^./..X}.~./.H.h.0 c K.].]./.).oX X|.].^.`.^.C.U.U.{.'.dXpXI.'.[.}.+X#X@XoXoXoX X XoX X XXX`.!._.Z.U.{.V.9._.{.U.T.G.B.I.b.M.F.V.F.V.V.V.n.k.r z A F r.a.v.n.m.i.i.a.m.a.M.M.n.n.B.V.C.V.V.M.M.M.M.V.B.B.B.G.^.^.G.C.V.V.M.M.M.S.M.n.n.M.M.m.m.m.m.m.a.i.u.r.4.",
"Z a 9 s S f g g g 4.4.4.r.q.q.q.w.u.7.m.A.b.S.S.n.b.b.S.b.a.a.a.u.u.r.4.p.j.a.b.b.b.F.D.p.G M % e G p.d.a.d.a.m.M.M.M.M.F.G.F.F.M.I.S.b.m.L.P.a.b.{.1X].|.3X X X|. X4X4X].^.^._.1X[.'.[.].].`.].].].|.|.|.].].`.2X.X3X|.U.A.h.d d r.a.b.F.G._._.'.].4X|. X|..X.XXX3X3X4X3X3X2X`.].C.[.dX2X4X2X[.C.G.{.{.{.<X<XdXC.`.vX!.XXkX X7X7X+X#X+X@X7X+X XhX|.|.`.].[.^.G.B.L.P.j q.r.p.7.:Xa.u.u.L.m.7.u.p.4.q.h f s Z Z a r r # & @ & C X.X.{ | yXyX} X.BXJXBXyXVXVXPXyX} { I X.X.yXyXrXI yXo.{ I I C V rXrXo. .} C I } { C C V I I I B I B B } X.| / B / B B &.` 6 | ( *.| { H l.-X;X:XR.pX,XgXpXsX2XvXvXdXdX<X[.dX<X2X3XlXcXlXkX6X6XlXjX6XjXjXhX.XF.m.j.x.9 w P.T.2X.XaXhXmXvXvXjXvXmXsXsXnXsX[.dXdXdXnXfX<XsXF.{.MXvXjXjXjXcXvXjXjXjXvXsX2XdXpXpXwXt.e.0XG J  .V C % M I C N k e M 1 / ..' ] $.' ] @.HXFX@.;.GX-.HXFXHXKXLXZX-.KXIXKXHXFXGXFX-.-.-.FXZX-.FXGXHXGX-.FXDXFX' ;.FX-.-.FX%.HX-.-.%.' -.$.> o   X @ % e 9 w w j j h h h h ,.<.8.2.9.2.0.0.0.n.J.d # t F D d r.a.n./.~.~.~.~.~.!.~.oX%X%X%X%X%X%X%X~.}.C.C.B.V.G.V.m.<.G.|.+X+XQ.B.n.S.b.F.B.G.0.0.^..X}./._._.C._.Q./.|.}.oX/.T.k.0 b S.].].}.).oX X|.].^.`.Q.C.C.B.U.^.2XpXY.'.].).+X#X#XoXoX). X X}.oXoX/.Z.Z.C.V.U.'.G.Z.].].'.'.U.V.M.m.M.D.B.G.G.V.V.n.a.r x A S e.a.8.b.m.i.i.a.m.a.m.M.M.n.B.C.C.V.S.M.m.m.n.n.n.n.B.G.^.G.G.G.F.V.S.M.M.M.M.n.M.M.S.S.S.m.m.b.i.u.u.6.n ",
"Z v 0 s s f n g 4.6.4.4.6.q.D q.u.u.7.m.A.b.S.S.n.b.b.b.b.b.b.i.u.u.r.w.s.A.b.m.M.b.F.S.p.G M & e G w.a.p.p.d.m.S.K.K.M.F.U.I.F.F.I.Y.A.J.L.P.m.v.T.[./.|.6XXXXX X X4X2X]._.G.G.1X1X1X[.[.2X2X.X.X|.4X4X2X.X]._.3X|. X|.T.D.x.d j s.A.n.B.C._.'.^.(.`./.)./.`.`.XX4X4X|..X.X]._.^.B.'.2X<X2X<X[.C.U.<XU.G.T.G.'.Z.`.2X/. X6X@X7X7X+X+X8X7X@XoXoXhXXX}.`..X2X^.^.B.Y.P.0 q.r.p.A.L.i.u.<.L.S.a.a.p.u.p.g e.e.n F c w t y y # @ o & / | } I } tXX.| JXPXJXJXyXVXVXrX .o.U U X.X.X.yXyXX.yX{ V I V k V U  .rXI M C } U I U I I { I I B B 1 C / / B / / ! 6 FX| *.( 6 ..=. .K F t.s.d.J.J.wXR.{.'.dXdX<XpX{.{._.C.^.3X3XlXlXlXkXlXhXvX6X6X3X3X[.T.L.p.y.# r x.Y.dX.X2XlXcXlXvXvXmXmXvXnXMXnXsXnXnXfXvXfX<XfXT.pXMXsXsXjXvXcXjX3X4XvXvXsX<XpXwXqXx.F l.K 0X .C M 1 1 I C M e e N M B ] ~ ] %.:.$.AX-.~ -.HXHXGXFXGXHXKXUXKX;.ZX-.HXUXGXHX-.;.&.%.-.-.) ZXKXFXGX-.-.FXFX;.;.-.$.$.;.HX-.%.%.%.~ &.^ .   X o @ % # 9 w w j h h h 1.>.,.7.7.9.2.9.0.0.0.Z.B.J.j 9 d e.D d r.i.B./.~.~.~.~.~.!.!.oX%X%X%X%X%X%X%X%XoXZ.V.N.V.^.G.V.2.`.+X%X+X!.n.m.K.b.V.B.(.G.B.G.`././.`.^.C._./.Q.}.}.).}.,Xk.0 f S.].|./.oX+XXXXX.X`.].C.Z.C.V.{._.<XpXT.'.|.}.#X#X#XoXoX~. X X~.}.}.Q.Z.C.C.{.{.'.^./.|.|.].].'.F.n.m.K.S.n.F.F.C.U.F.k.r M A F e.a.8.n.m.i.i.a.m.m.A.M.M.M.V.V.V.M.K.m.m.b.m.M.M.n.B.C.C.C.C.F.F.V.M.M.M.S.M.n.n.M.S.S.S.m.b.i.i.u.p.r.n ",
"S c 0 s s f D D q.6.4.4.6.4.n q.u.u.7.b.b.b.n.S.b.b.m.b.i.b.b.7.5.,.w.5.a.b.8.b.S.n.F.S.p.F k & i G r.p.u.p.a.A.K.I.K.S.F.I.I.V.I.I.I.S.m.J.m.m.9.T.[./.|.6X6X@XXX X X.X|.`.^.^.].2X2X].].3X3X4X3X4X4X4X4X|.`._.aX|.|.2X<X:X;Xh f h.A.n.G.^.].].`.`.|. X X3X3XaXjXhX3X3X3X2X.X|.sX].sXvXsXsX4X[.dXdXdX_.U.{.G.^.^.2X.XXX3X6X6X8X9X+X8X7X7X@XoX@XXX/.!.!.|..XQ._.G.:X;X0 e.r.a.A.m.i.i.7.K.L.m.a.u.u.a.,.k.p.4.D b s a t t u q % @ @ V *.} C } ..X.} } BXBX{ BXVXyXrXX.X.o.I { I } rXX.rXyXo. . .C k k C I C V C I yXrX} { I I X.} I I B 7 I / / / B $.( 7 *.] ! ~ ~ ^ {  .-XG l.qXqXqX;XY.m.E.pX,X,XpXpXpX{.V.'.[.4XlXhX|.4XvXcXjX4X2X.X[.{.S.J.h.F 9 y x.L.pX.X3XcXXXXXcXjXnXdXG.{.dXfXdXvXMXsXmXnX<XdXF.pXMXsXvXvXvXjX3X2X3XvXvXsXpXpXP.c.l.K H  . .C M 1 1 C V H M % M C / | ~ &.;.%.:.O.;.@.@.ZXLXFXHXKXKXKXUXUXGXGXZXGXKXZX-.HX#.$.O.;.HX&.-.LXHXHX;.ZXFX;.&.-.;.' ;.FXGXFX;.%.' [ | > .   X o @ & # q w p j h h >.,.,.,.<.7.8.9.9.0.0.0.0.!.B.A.j 9 p y.q.j w.i.B./.~.~.~.~.~.~.~.%X%X%X%X%X%X%X%X+XoXZ.N.N.C.^._.U.n.|.).~.).Z.B.M.L.b.n.B.G.C.0.^..X}./._.C.V._.`.Q.}.}.~.).1XA.0 d S.].|./. X@XXX3X.X[..XQ.Z._.T.dX.X4XpXR.[..XoX+X#XoX#X#X~.XXXX/.}.}..X`._.C.{.'.`./.~.).)./.^.^.G.n.v.S.M.n.M.C.C._.I.h.r M A F q.u.i.M.M.i.8.a.m.m.M.M.M.M.C.G.F.M.S.M.m.m.m.M.S.V.B.B.B.B.B.C.F.M.n.n.M.S.M.n.n.n.M.M.m.m.a.a.a.p.h.g.y.",
"F s 0 f f f q.q.6.4.4.4.5.6.4.5.7.i.i.b.b.b.b.F.S.M.b.b.b.b.i.p.u.u.p.a.b.n.M.M.V.F.C.M.h.S k # i G y.r.p.d.m.M.T.M.F.F.T.T.V.I.{.U.M.n.K.S.M.I.U._.Z.]. X6X@X@XXX X3X.X.X/.`.`.|.XX6X6XXXXX@X6XXX3XXX X3X4X`.^.|..XXX/.1XT.J.h f x.I.G.^././.}. X X XXXXX3X6X6X6X6XlXXX3X.X3XXX X6XkXhXhXlX3X.X3X2XnXC.'.[._.Z.`.3XhX}.6XXXXX6X7X9X+XhXzX@X+X+XkX X4X).6X6X].^.Q.'.;X0 e.h.8.S.I.I.b.b.R.R.n.i.d.u.i.S.I.S.w.r.n d b s p c 9 i e @ @ C X.} C B } tX( I } I | } / } yXX.( } / | I I } o. .rX .rXo.I k & % k C M V I yX} o.o.I I } } / P B 6 ^ [ ] ] / ( ( B / ^ ` ^ / } V  . .J l.qX*Xc.d.wXm.Y.wXY.R.wXR.pXpXC.'.2XjX3XaX3XvX].<X2X'.{.,XgXR.z.e.g.9 y qXwX,XsXjXcXcXbXbXvXmX<XK.j b.fXdXvXsXnXmXmXpXgXI.T.MXvXfXnXvXsXjX2X].sXdXpX:XP.x.F y U { } { 1 1 C M M M M M % 1 ( ( ^ [ DXNX;.&.%.HX-.ZXGXHXHXKXKXKXLXLXLXFXGXKXKXHX;.ZX&.;.&.;.-.$.' GXBX-.HXHX-.&.%.$.-.$.%.FXZX;.-.-.' &.( o   o o & # # 9 i w w j j h 1.1.,.<.<.,.<.9.v.v.9.0.0.0.Z.B.K.j # a y.>.d t.a.V./.~.~.~.oX~.~.~.%X%X%X%X%X%X#X%X~.+X!.Z.^.0.C.U.m.W.}.).!.}.2.U.M.I.S.8.n.C.^.0.Q..X]./.^.^.U._._.OXOXoX%X).1Xm.j g m.<X/.~. X6X@XoX`.OX}.Q.0.Q.C.[..XaXpXT..X|.XXXX@X+X#X#X#X@X}.0.XXoX~.~..X_.[._.|.).).).~./.|.'.F.F.v.I.D.b.Y.B.C.G.R.e.N e A S q.w.a.F.b.v.m.b.m.m.S.F.V.B.C.G.G.B.M.M.M.v.m.M.S.F.n.B.B.B.B.V.B.n.M.M.m.M.M.M.M.M.M.A.m.d.d.s.s.h.s.r.q.",
"m f j n f f n n 4.4.4.4.5.5.5.5.7.8.8.8.n.b.n.S.M.b.v.v.b.b.i.a.u.p.a.a.b.b.n.F.C.F.V.S.h.F y q q F y.e.p.f.A.S.H.V.F.F.U.T.I.U.{._.V.V.T.T.U.T.C._.C..X|. X X6X@X X6XXXXX`.|.|.XX6X7X8X@X@X@X6X3X6X@XXX3X4X].`..XaX3X|.2X,XL.h d h.Y.H./. X X@X+X+X+X@X3XXX8X7X6X6XhX}.XX}.XX X6X@X8X6X6X6XoX}.hX`.aX`.aX[.Q.Q..XhXhX XkX6X6X6X7X9X@XhXhX+X@X8X6X3XkX X8X6X|..XQ.T.P.0 g.h.8.F.G.F.v.n.:XT.n.N.i.7.8.n.F.S.7.w.e.h D b b b w r i e # o % { | / P ( / | | I / ..X.X.C X.yX| *./ X.{ I U U  .{ o.rXU U k & % M M C V U rXU U rXX.} / ../ 7 P B 6 [ | ( B ^ / ^ ( [ ( / C { H K 0X0Xg.l.qXx.P.z.wXK.L.Y.Y.Y.R.R.M._.[.3X2X4X2XsX'.dX<X'.,XT.wXqXqXt.g.9 y P.:X,XsXnXlX8XbXmXlXmXpX:X1.:XnXfXvXsXjXcXcXpXgXR.R.MXvXnXMXvXsXsX].'.fXpXwXL.x.S K { V V / C M M M C M 1 1 $ $ B B ^ %.' ;.-.-.DXHX;.GXZXLXKXIXKXFXKXKXIXHXFXUXKXLXFXZXZX;.&.$.;.] $.GX&.=.HX-.;.%.-.&.$.] -.GX-._ AX&.' ] B X   @ & @ # # 9 i w w d h h >.,.,.<.i.i.<.9.N.v.N.0.0.0.0.Z.N.K.j # v y.>.d r.v.Z.!.~.~.~.oX~.~.%X%X%X%X%X%X%X%X~.~.oX!.C.^.0.G.{.M.v.`.!./.`.2.F.n.S.M.8.n.G.`.Z.Q.].`.^.Q.G.U.U.Q.!.!.~.%XoX5Xm.j g A.1X/.~.|.3X@X+XoX}.XX}.!.oXQ.`.}..XpXR.[./.}.OXoX@X%X#X#X@X}.0.|.).~.~.XX_.<X`.|.~.).).~.`.[.U.F.F.b.L.A.8.S.n.Q.G.L.y.K N v b D q.a.I.M.v.v.v.M.M.M.F.F.B.F.G.G.B.V.F.M.b.m.M.m.M.n.n.V.V.V.V.V.M.M.m.M.M.M.M.M.M.S.A.A.d.p.r.r.r.r.q.n ",
"F F d y.D f n n g >.4.4.5.w.w.u.a.8.8.i.M.M.n.M.n.b.v.v.b.b.a.a.u.a.m.b.b.n.F.Y.F.V.M.S.h.F u q q F g.e.r.u.A.S.F.F.n.F.G.F.U.V.[.'.U.G.'.T.T.'.B.'._.2X}.}.|.hX6X XXX.X3X.XXXXX6X6X6X7X8X8X8X6XXX6XXX X X|.`.`.2XhXhX|.2X,XL.h d h.I.^.|. X X@X+X+X+X8X6X@X8X8X6X@X6X|.XXXX6XhXkX6XkXkXkXjXXXhXaX.XaX`.aX.X.XQ.aXhX6X@XkXkX6X6X+XxXhXhXhX@X7X7XkX6X6X3X8X8X3X.XQ.G.x.0 g.h.b.F.U.F.8.S.,XT.n.M.A.i.b.F.T.T.A.j.r.m e.n n m d p u y e 9 @ @ C X.} B / | I ( | I X.| / B / =.tXX.X.X.I I { rXo.{ VXrXV C M % C k % V M C } } I X.{ X.*.( / P 4 ! ^ B ] ^ 7 ( | [ | | ( R C { K A J -Xl.g.qXqXh.P.wX:XY.K.L.R.wX,X{.[.dXdXdXpXdX,XdX'._.,XM.m.z.P.x.l.# t P.R.{.sXjX6XkXbXkX XcXfXgX1.F.nXvXsX3XvXvXvXpXgXR.T.MXvXsXnXfXdXdX'.F.wXR.qXt.d 0XrXN C C B B B B M C M * 1 ( =.=.FXGX%.FXGX#.-.-.;.-.FXKXKXKXKXKXLXKXIXGXHXKXLXHXO.LX;.ZXDXO.#.' FXFX-.FXHX=.%.%.FX&.' &.-.%.$._ -.@.$.! O   X o @ @ & 9 i r t d d f >.h ,.,.<.<.i.i.2.N.N.N.N.B.Z.&X&X!.Z.K.j # v t.>.h s.n.Z.~.~.~.%X%XoX%X%X%X%X%X%X%X%X%X~.!.}.!.C._.B.F.I.a.<.^.!./.`.2.F.M.S.S.n.n.G.].!.Q.].'.].Q.G.T.T.^.!.~.oXoX).'.8.0 g A.{./.).|.XX@X+XoXoXoXoXoX+X/.OXoX3X[.U..X}.oXoXoX+X#X$X#X@X}.Z.|.).~.~..X_.pX_.`./.)./.`.[.{.I.I.K.m.J.k.5.a.8.B.G.m.l.U N z c D e.a.K.b.i.i.b.M.M.n.V.V.B.B.G.G.B.V.F.S.m.m.m.b.b.n.M.V.F.V.V.V.M.M.n.m.M.M.M.M.S.S.A.A.a.p.r.w.r.r.q.D ",
"S d 0 S n f n e.g 4.5.5.5.5.u.u.a.i.i.i.M.S.n.M.n.n.b.b.b.m.b.a.a.d.A.S.D.S.I.Y.Y.M.S.J.x.G e % 9 F G e.w.w.d.M.F.H.n.F.F.V.U.V.].'.G.G.'.{.'.{.N.[.[.2X/./. XhX6X XXX}.XX.XXXXXXX@X@X8X7X7X7X6X X@X@X X X|.`.`.|.XX3X|.2X,XL.h d g.I.^./.}.}.XX X@X8X8X6XXX@X8X8X@X@XXXXX3XhXjX3XXX6XhXhXhXXX3XaXjXaX`.[.`.=X`.hXXX6X6XkX8X8X6XoXkXhXhXkXkXxX7XkX6X6X X7X8X3X|.Q.F.h.j g.g.D.H.'.T.b.n.,X,XV.I.J.u.b.F.T.T.S.A.w.g 6.4.y.D f l t y y u # @ @ % X.{ V B / X.*.X./ } X.X./ I | yX*.X.}  .I I X.VXo.rXo.U rX .% M C & M M V } { C I { tX....-.[ 6 [ B B ^ ] &.$.] $.| ..1 R V { K A J 0X0Xg.x.x.t.;XL.u.u.d.a.m.,X{.{.[.pX<X{.pXpXdX[.1XdXS.b.j.z.x.l.9 y P.R.{.sXsXjXzXbXkX6XmXnXwX1.I.fXvXsXsXvXvXsXpXpXR.I.MXvXdXnXfXpXT.Y.Y.wXx.F l.iX0XN V C B B ^ B B / B / 1 1 | &.| -.GXGXHX-.&.;.&.HXLXLXGXLXHXFXLXFXUXLXHXLXGXLX;.FXFXZXFX;.DXGXLXFXFXFXBX%.=.%.] ] %.;.-.%.) &.FX@.( B O   X @ & & % # q r t p s f g >.>.,.<.<.<.9.v.2.Z.Z.Z.Z.Z.&X&X&X!.Q.I.j # v r.h h d.V./.oX~.%X~.%X%X%X%X%X%X%X%X%X%X%X~.!.}.C.C.'.N.n.M.u.<._./.`.Q.2.F.M.S.S.S.M.U.].Q.^.`.^.^.G.U.T.T.G.Q.OXoX~.}.U.7.0 g K.'.|.3X.X|.@X@X+X~.+X%X%X+X~.oX+XhX[._..X}.@XoXoX#X$X$X$X@X`.Q..X}.+X~.`.U.pXV.U.[.^.Z.C.U.K.m.m.a.J.J.h.w.p.7.B.V.p.l.{ x y A F y.j.S.i.7.b.S.I.n.n.V.C.V.B.G.G.F.F.I.S.m.A.m.b.b.M.M.V.V.M.n.n.n.n.m.m.M.M.M.M.M.m.m.m.d.p.p.p.s.r.r.q.",
"F s w S b h n 4.>.5.5.5.5.u.u.u.a.b.i.b.m.M.n.S.n.M.b.b.b.m.b.a.a.b.A.S.D.S.S.m.Y.M.S.J.-XJ N % 9 K G F e.w.d.S.S.F.n.F.F.V.U.C._._.^.G.].[.1X<XN.2X2X.X/.|.3X6X6XXXXX}.XX.XXXXXXX@X@X8X8XkX8X7X@X6X8X@X3X X|..X/.|.XX|.2X,X:X4.j e.S.G./.}.}.XX X X8X8X8X@X@X7X8X6X6X3X.X.X|..X3XjXjX3X3XaX|./.sX2X[.[.2X^.`.`.6XXX6XkX8X8X8X8X XkXaXXXhXxXxX7X8X6X8X6X7X@XXX}.Q.F.h.0 F e.D.F.'.{.M.b.,X,XU.R.A.7.b.F.G.T.S.A.k.6.6.6.h.e.D D s c p t u u # o @ V rX*.B B X.X.X./ / X.| I I / X.| { X.X.} } o.U rXyXrXU U rXI M C % M M M C } { I B *.BX&.&.:.! ` ` ^ R ~ $.| $.[ | *.B V V K K A A 0XiXl.Z l.c.x.x.x.qXP.J.R.pXdXpXsX<X<XfXnXdX1XpXdXI.L.P.z.z.l.9 a P.R.'.sXvX3X6X8XlXkXbXsXL.,.pXnXfXvXvXaXvXpXwXwXR.I.nXfXfXfXpXwXwXwXz.c.G 0XuX .C V C / B 6 / ! ! ` ( ( | ! | | ' FXGXLX-.O.O.;.-.FXGXHXLXGXFXHXZXKXKXGXKXHXKX;.HXHX-.DX;.GXLXGXDXDX#.-.%.-.;.' $.$.;.ZX` ] %.' @.R .     @ @ o & e # r w p d d f g g >.,.<.<.8.9.0.N.0.!.!.Z.Z.!.&X&X&X~.!.I.j # v r.h 1.m.C./.oX~.~.~.%X%X%X%X%X%X%X$X%X%X%XoX!.}.C.B.U.v.M.m.w.,.G.Q.].^.N.F.S.m.b.M.F.U._.C.^._.C.Z.C.F.I.I.C.C.OXoX}.|.U.7.0 f A.G.[.3X.X.X6X@X+XoX7X@X#X#X).oX+X8X[._.`.!. XoXoX#X$X$X#X+X!.^..X/. X}.].F.pXK.I.T.B.N.n.I.J.J.z.p.j.h.g.e.s.7.n.F.d.l.{ e z G G g.p.J.d.a.m.K.I.M.V.V.G.G.G.G.G.F.F.K.S.m.m.a.a.m.S.S.F.M.M.n.n.n.M.m.n.n.M.M.M.M.b.m.m.d.d.s.s.s.r.5.n ",
"F G S g.m m q.g 4.w.u.7.7.u.i.7.7.i.i.i.m.M.n.M.b.n.b.v.i.b.b.a.m.m.S.S.D.A.b.i.S.i.A.k.x.-XN % # A G F y.r.A.K.S.S.n.F.G.G.U._._.]._.^.].[.'.[.C.dX2X.X|.3X6XXXhXXXXX}.XXXXXXXX@X@X8X7X7XkX8X6X6XkX8X6X6X4X.X.X`.4X3X|.2X1X:X4.0 D S.G.`.}.}.3X X X6X8X6X6X@X8XkXhX4X3X.X<X].<XsXsXvXaXsXvX.X_.2X]._.^.].[._.!.aXXX8XzX+X8XzX8X6XjX.X}.@XxXxX9XkX6X6X6XkX@X3X`.^.Y.x.0 F 6.S.F.C.{.n.9.T.,XF.I.L.a.D.U.^._.F.S.J.5.p.5.z.6.e.q.D f b S v t r q @ @ @ { yX} B I X.*.| C I X.X.C I X.rXX.I } } } U U rXrXyXrXU  . .C M & 1 M 1 C V  .} B | -.-.HX-.! 7 ` ! 7 [ ] ` ..| / *.{ M N K A A A J 0X0Xy a l.l.y.x.x.s.a.Y.T.{.dX<X'.<X<XdX<X{.,XK.Y.P.h.z.l.9 a qX:X'.dXvX|.@XkXkX6XlXfXwX1.:XfXnXvXvXaXdX<XwXwXL.R.nXfXpXpXwXqXqXc.y.l.iXyXU I V B / ^ 6 ! ~ ] _ ) O.[ %.( -.HXFXLXKXHXDX#.;.;.ZX&.O.GXKX-.DX-.ZXIXZXHXDXKXZXHXO.ZXFXZXLXGXKX-.FX-.&.&.%.' ` &.] -.%.` ;.$.O.$.O   o X @ @ @ & e 9 9 t d d d f g g >.1.,.<.<.9.9.B.0.0.!.!.!.!.!.!.~.&X~.Q.I.j 9 c t.,.,.M.Z.!.~.~.~.%X%X%X%X%X%X%X%X%X%X%XoX~.!.`.B.n.T.v.m.d.>.,.F.!.`.C.B.F.S.m.b.b.V.V.C.C._.'.C.V.C.V.K.F.C.C.OXoX X.XH.p.j f A.M.U.[.{.'.3X@X XXX6X+X#X~.}.}.XX X'._.`.!. XoX).#X#X#X+XoX!.`.`.Q.!.}.{.n.wXL.K.m.n.n.K.L.J.P.P.z.f.s.t.t.x.p.F.S.z.l.{ % z J K S g j.j.d.a.b.I.F.V.V.V.G.G.F.F.F.S.K.M.m.m.a.b.K.M.S.S.F.V.M.V.M.M.m.n.M.M.M.m.m.b.m.A.d.d.p.p.s.r.q.4.",
"w p p F F m r.r.5.u.p.7.7.i.i.7.i.a.i.i.m.S.n.n.b.n.n.v.i.b.A.b.m.M.S.S.S.D.m.a.A.u.a.5.g.E M % # A F F e.s.A.K.S.n.S.F.T.T._.'.`.[.].'.[.].^.^.^.2X].4XXX6X6XXX6X@X6X|.aXXX3XXXXX@X8X7X8X8X7X6X8X8X8X8X6X3X|.|..X3XhX4X2X,X;Xg 0 q.K._.`./.OX.X X X6X6X6X8X8X8XhXhX.X4X[.<X,X<X1X'.<X[.dXdX[.'.[.[.[.B.C.dX[.C.3X X6XkX).8XkX6X4XaX|.|.@XkXxX9XkX6X XXXkX@X3X_._.Y.h.0 F r.Y.G.B.'.n.9.T.T.N.I.K.u.S.U.G.G.F.M.D.p.a.7.j.4.r.t.w.4.m f d s a i e # @ @ M *.tX/ I tXX.X.{ V rX} I I } X.X.X.I } o.U U o.rXrXrX . .U yXI M M 1 C C I } X.| &.-.NX%.-.$.! ^ ) ) _ ] ..^ B / X.{ U H K A A K A  .0XK J K K l.l.h.j.L.:X,XfXpXpX<X{.fXgX,X:XL.Y.J.z.z.l.9 p qXwX{.2XvX4XbXmXcXhXvXnXwXg :XfXnXdXfXsX<X,X;XqXm.R.fXpX:XpXeXx.e.J 0XrXrX} / C 7 ( ] ! ~ ~ ~ ' _ ) ' ~ $.-.AXGXKXGXLXUX-.FX;.FXFX$.ZXKXZXFXHX-.UXHXFXDXHX-.HX;.-.-.FXGXHXNX-.-.#.;.;.%.] $.-.%.%.] $.;.` ] [     o X o & @ % q 9 u t 0 d h g g g >.>.>.,.<.8.9.B.0.0.0.!.!.!.!.!.~.~.~.!.!.Y.j 9 c g.,.<.M.Z.!.%X%X%X%X%X%X%X%X$X%X%X%X%X%XoX!.!._.B.n.I.i.a.a.>.1.G.^.^.C.C.M.M.m.i.b.n.B.C.C._.[.C.C.F.F.K.S.F.C._.}.|.[.L.h.d f A.n.I.R.R.T.dX.X`..X.X}. X}.`.Q..X.XG._.[./.3X).~.@X#X#X+XoXZ.`.`.C.!./.'.S.wXP.j.d.i.K.L.J.J.J.P.P.s.t.t.g.x.s.F.S.r.J { % x H y t d s.s.p.i.b.S.V.V.C.C.V.I.F.V.M.S.K.S.m.m.a.m.K.m.M.M.F.V.V.V.V.M.M.M.M.S.M.M.m.m.A.A.j.d.s.p.s.p.r.6.",
"p w 0 g.g.m 4.w.5.p.u.7.i.a.i.<.b.A.i.i.M.S.n.9.b.n.n.b.b.m.A.b.b.n.F.S.S.D.A.J.J.a.d.4.e.E M % # A F D e.r.d.A.S.b.I.F.G.'.^.].C._.'.'.[.[.'.^.^.]./.4X3XXX X6X6X@X6X XXXXXXX XoX X@X7X7X7X6X8X8X8X8X8X6X3X|.|.`.2X3X2XdX,X:Xq.0 y.K.T.].^.^..X|. X@X6XhX6X8X8XlXsX].<XT.T.T.,X:XF.U.'.<XdX{.{.dX,X<XC.V.<X_.<X3X|.XX6X!.8XkX X|.2X[.XXkX7X9X7X@XhX3XXX6XoX3X[.C.S.e.0 S g.:XG.C.{.F.n.,XH.9.I.L.a.H.'.^.^.G.F.S.i.m.8.A.,.s.j.J.5.4.r.m d s v u # e # X % I yXX.( X.*.X.X.{  .rXI I I } yXX.rXU U o.U U rXrXU  . .I rX .I C C V C V } tX=.~ &.%.&.-.$.~ ~ ^ ) ` ' | | / { V H H K K A K H 0XH  .H J l.0Xl.c.;XwXwXL.wXR.pXpXpXgXpXY.R.L.L.z.P.x.l.9 u qXpX{.2X.X|.cXkXkXlXnXfXP.z.MXMXfXsXnXdXpXwX;XqXp.;XgXpXL.P.t.S 0XuXrXV I P B P / | ] ! ' Y ) _ _ _ _ _ _ ZXAXLXKXKXKXHX&.;.ZX-.%.FXO.&.FXKXFXHXLXZXHXDX-.GX;.ZXFX;.GXGX-.HX-.&.&.&.:.#.-.;.$.$.] $.@.` ~ >   X X @ @ & & q e 9 i t p d h >.6.4.4.4.w.5.7.8.9.n.B.Z.Z.!.!.!.!.!.~.).~.~.!.!.R.j # v g.,.<.M.C./.+X%X%X%X+X%X%X#X$X%X%X%X%X%XoX~.Q.`.B.n.N.<.a.z.w.>.H.G._.C.G.M.m.b.i.8.F.V.C.C._._.B.B.U.F.S.S.V.C.Q.`.`.'.A.h.s l J.M.R.wX:XwXdX[._.[.[.[.3X`._.U.[.<XU.'.<XQ.}.!.~.xX#X@X+XoX!..X`.C.].^.T.R.gXx.j.P.m.wXwXL.P.L.P.;XJ.f.t.g.x.p.S.b.4.J { % M H e i f t.r.u.d.K.I.M.F.F.C.F.U.I.V.M.S.I.S.S.A.a.d.K.b.b.n.V.F.V.F.F.F.S.M.S.S.M.M.M.m.A.A.j.j.d.d.s.u.r.6.",
"c a p g.n m 4.5.,.7.i.7.7.i.8.<.i.i.i.i.M.S.n.b.n.n.b.8.8.b.b.b.b.n.8.n.S.i.m.A.u.u.p.4.F -XM x # A G F e.p.A.b.A.D.I.T._.^.^./.G.G.{.U._.[.G.'.Q.2X/.3X X@X8X+X8X+XXX}.XXXX@X X@X X+X7X8X@X X X8X7X8X8XkX6X].`..XjXjX4X<X,XqXh w F P.T.^.^._.[.3X3X6X6X3XhX6X6XhXsXdX{.T.R.:X:X:XI.:XpXpXpXT.T.dXdXF.,XT.pX<X{.4X].XX6X6X6XkXjX3X[.`.OX@X7XxX9XhXhXaXXXkX@X}._.C.m.g.0 F g.L.T.[.<XT.n.T.T.n.M.J.A.9.'.].4X_.G.I.S.Y.S.A.7.f.d.J.7.5.w.4.n f s t u N e % X @ 1 X.*.yX( X.yXVX .} o.} I I I } U o.o.V U U U U U U o.U U X.rX} I { V V / ( ( *.[ ' =.$.&.%.] _ ^ ^ ` ! } *./ M H N k N H H N N H K U J J G l.g.eXeXeXP.J.J.L.wXR.L.R.L.Y.R.J.P.qXx.x.9 w ;XR.pXdX.X2XhXlXlXhXaXfXqXeXPXMXpXdXnXpX,XwXx.x.t.P.wXL.w.x.G l.0XU  .B I P ( ' &.' ! ` _ ] O.] _ _ ) _ &.O.O.DXKXGXFXZXZX&.ZXO.;.ZX^ -.LX-.ZXKXFX;.-.%.HX%.&.LX-.LXGX-.=.` | =.%.=.DX-._ #.O.;.$.~ ' ! . . X $ & & & # 9 9 i r t s d h g ,.>.4.r.w.>.,.u.v.n.n.B.Z.!.!.&X!.!.!.!.~.).~.~.Q.R.j # A e.>.u.M.Z.~.+X%X%X~.+X+X%X%X$X%X%X%X$X#XoX}.OXQ.V.M.v.m.K.d.r.>.F.H.<X[.V.n.S.b.i.v.V.U._._._.'.U.C.I.S.K.S.F.Z.'.`.].T.A.g.t F P.S.K.pXwXR.pX_.B.V.U.{.'.{.T.I.T.{.I.{.[._./.!.+X+X7X+X@X|.!.C.[.U.'.'.Y.z.qXx.s.d.m.b.S.K.K.L.D.L.a.d.z.x.h.j.b.i.x.0X{ 1 M N e r D s.p.u.A.K.M.M.n.V.V.V.V.E.E.M.S.M.M.m.a.a.m.K.S.S.F.F.V.F.F.V.M.m.m.m.S.K.K.S.b.A.A.A.A.j.d.s.p.h.6.",
"p c c y.n 4.r.p.5.7.u.7.8.i.i.8.7.i.7.8.b.m.b.v.M.M.b.9.8.b.b.i.v.n.9.n.S.b.A.K.m.A.a.6.m J x x # A F F r.j.A.8.S.S.F.R._._.].|.G.U.C.G.'._.^.^.].3X X3X6X8X7X7X7X@X6X XXXXX@X X XoX+X7X8X@X X+X8X8X8X8X8X X|.2XaXsX4X].1XY.;Xm p F P.T.U._._.[.aX|.4X3XsX3X6XjXaXdXdXpX:XL.P.P.:XL.wX:X:XpX{.T.pX,Xv.I.M.T.T.U.2X].4X3X X3X3X|.[.[.[.`.XX@XzX7X3X3X2X].3XXX|._.G.m.t.0 g.h.Y._.'.G.,XY.H.,XT.I.j.A.V.1X].|.^.'.T.F.F.S.S.b.m.A.A.7.u.u.5.w.4.D m p y u e @ @ @ * *.JXyXX.I } rXrX{ { } } I C I U yXyXU I U  .o.U I U  .U } rXrX{  .C V ..X.....( ..' $.=.&.' ~ ~ ^ [ 7 B V e N N N N N N N N N H K J J G J G 0XqXeXqXx.x.c.P.qXwX:XJ.d.P.qXx.x.l.l.# i x.Y.pXpXdXaXjXvXlXaXsXgXeXeXCXMXfX[.fX{.:X;Xx.0XF -XeX;Xe.G iXH V  .C ..~ ^ =.&.[ ' ` ` _ O.-._ O.) ] &.#.%.&.FX;.DXFXZXFXLXFX) FX] Y ZXLXKXHXGX;.GX' -.FX;.KX-.GXKXHX$.| @.&.tX-.tX%.' ' $.' ` ] ] 6 . X X o & & & q # i i r w d f f g >.5.,.5.u.w.,.,.<.i.n.n.B.Z.Z.!.!.!.Q.Q.!./.~./.~.Q.Y.j # N F >.u.E.C.~.+X%X%X~.oXoX~.%X%X$X%X%X%X%XoXoX}._.V.M.M.M.K.m.r.1.n.^.^.'.n.b.S.b.b.b.V.U.^.Q.Q.C.C.B.2.v.S.A.F.C._.Z.Z.M.j.-Xa Z z.S.K.wXR.R.pXG.N.n.T.T.U.T.R.K.R.R.S.R.{.C.Q.!.+X@X~.}.6XoX0.Z.U.V.G.T.L.P.qXx.s.d.b.b.F.I.I.I.S.F.b.m.z.z.x.j.A.A.g.l.{ M M N e y D s.p.p.A.K.M.F.n.V.V.V.M.E.I.M.S.S.S.m.b.a.m.K.S.F.H.F.F.F.F.V.S.M.m.m.S.K.K.A.A.K.J.A.j.j.d.s.p.h.6.",
"F F m g.n g 6.u.p.a.i.i.i.i.i.i.7.a.i.i.m.m.b.b.S.M.b.v.b.b.b.i.i.M.n.n.S.n.S.K.K.R.A.p.n K N x # z A F r.j.A.7.A.A.A.S.G.'.|..X_.{.B.G.[.[.2X].].|.3X}.6X8X7X8X@X@X8XXX6XXX6XXX X X+X7X6X@X@X8X@X7X8X8X6X4X.XdXaXaX3X2X1XY.;Xf a G P.Y.U._.U.[.<X].|.2X2X.XXX6XaXdXdXpXwXL.P.P.wXJ.L.S.Y.pXpXU.,X{.9.M.M.,XT.U.dX].3XXX}.3X3X.X2X[.[.`.6XkXkX X].[.dX2X3XXX`.Z.U.m.e.0 g.h.Y._._.{.'.b.:XpXF.:XP.A.D.<X3X4X].[.'.T.G.n.T.M.m.K.a.<.u.u.u.u.w.w.g s c A z % # @ o o 1 yXJXrXI o.yX . .V U rXV V U } { {  .U o.I U U V U rXU U yXyX*.{ / I ( ..BXHX..( | =.-.' ` &.! / ^ $ M { e N N N N N N N N N H N K 0XU u G l.l.0X-Xl.x.qXs.P.P.P.s.x.qXl.l.l.l.# i x.R.pXpXdXdXjXvXjXaXsXgXeXeXPXgXgX{.fXT.wXz.l.-XZ l.qXl.0XiXH V  .M ( P ! HX] ^ &.! ~ @.#.;.$.' O.%.O.;.-.ZX-.;.-.DXKXHXGXZXZX&.O._ KXHXLXHX;.FXHXFX-.HXO.KXZXGXZX-.;.FX=.tX=.tX=.%.` ] ~ ] ~ | ~ + .   o o @ % e q r 9 w w d d d g g >.5.5.5.5.p.w.,.,.u.v.n.n.B.Z.C.!.!.Q.C.C.Q.^./.!.OXC.K.j # N F g u.E.Q.~.%X%XoX~.~.).~.~.%X#X%X%X%X~.).oX}.`.C.B.F.n.M.m.r.h 9.^.G.'.M.v.A.b.m.n.U.U.Q.`./.Q.C.V.2.N.K.b.V.G._.N.N.m.x.-Xv Z z.S.Y.pX:XwXdX'.I.T.Y.{.'.T.K.m.Y.R.M.R.R.V.C.Z. X@X!.oXhX}.!.Q._.B.F.R.P.qXqXx.r.d.n.M.T.F.I.T.H.H.n.m.z.x.x.z.K.P.g.G  .V N z y Z y.p.p.d.A.A.S.I.M.V.V.M.M.I.I.S.F.F.S.S.m.d.A.K.S.S.F.F.F.F.F.V.S.S.S.m.A.A.S.A.K.J.J.A.j.d.d.s.p.h.4.",
"F s d g.6.h 4.j.j.a.i.a.i.i.i.a.7.a.b.a.m.m.b.M.M.n.b.v.b.b.D.b.i.M.M.n.S.n.M.S.S.R.S.A.g.G N M @ z G F e.p.j.a.d.A.a.m.F._.].].C.U.N.Z.'.'.'.G.`.`.6X/.6X8X+X+X+X@X8XXX6XXX6X6X X X@X7X6X@X8X6X6X8X8X8XkX3X|.].aXsX3X2XdX:X;Xd t S s.b.V.C.V.F.G.'.1X^._..X.X`.[.{.pXpX:XJ.z.P.;Xs.d.i.m.R.T.N.,X,Xn.I.I.pX{.U.dX.XaX}./.lXkXjXsX[.].`.lXkXkX X'.{.dXdXsX|.`.C.{.A.D 9 F h.R.'._.<XT.<.,XgXn.wXP.A.F.<X3X X].2X<X,XU.B.{.F.n.J.a.7.a.a.a.a.u.p.g m S Z a r q e % @ @ % { yXyXU  .o.C  . .I  .{ U C U I rX .U o.U V U U C U o.C { X.*./ I | | =.tXX.*...| $.%.FX&.' ^ ] / & % V M M N N k N N N k k H H e  .iXK A 0X0X0XeXqXP.qXz.x.qXc.x.qXg.G g.-X# i x.wXpXpXpXdXaXvXvXjXsXfXwXeXMXgXpX{.dXpXwXx.0XJ A A 0XJ 0XH k V V | / ` =.&.] ' ` ~ ' ` ;.&._ $.#.AX;.-.;.LX-.LX-.GXFXHX-.-.) ZXKXHXLXFXDX-.HX-.;._ FX&.-.-.KXFX-.FXDX;.tX@.*.FX| $.&.' [ 6 &.!   X X o @ @ # q r w w 0 w j d d f 4.g >.5.u.7.u.u.u.,.<.i.N.n.B.Z.C.Q.Q.Z.Z.Z.V.C.Z.Q.!.!.Z.L.j # N S g u.E.Q.~.oX~.oX~.}.oX).~.%X%X%X%X%X~.~.~.~.!.C.C.Z.N.M.K.f.h 9.(._.'.V.9.S.m.S.n._.Q.Q.`.`.OXQ.Q.V.V.Y.M.F.G._.N.N.m.g.G i Z h.8.S.,XR.R.,XG.Y.T.n.I.G.U.M.i.S.I.M.R.R.I.C.!. XoX).oX@XoX!.`._.V.V.:XP.qXqX-Xp.A.n.B.U.F.F.T.H.B.n.M.J.x.x.x.P.L.y.A  .V N z u F t.p.p.j.A.m.M.Y.M.M.M.M.S.I.I.S.F.S.S.A.m.d.A.K.A.S.F.F.F.F.C.F.K.K.A.m.m.A.J.A.A.J.J.j.j.d.d.s.h.h.6.",
"F d d t.r.h 5.d.a.a.a.a.a.i.u.u.7.a.i.i.b.b.b.n.M.n.b.b.b.b.b.b.i.m.M.n.n.D.n.M.M.T.S.D.g.F N M # x K F 4.p.j.p.a.A.d.m.Y.'._.`.[.].[._.[.2X^.^.].|.jX}.3X6XXX6XoX+X6XXX6XXX6X6XXX@X@X7X6X@X8X6X7X8X8X8XjX4X].'.dXsX4X1X,X:X;Xd a S r.b.F.F.M.S.B.T.1X_._.[.].^._._.T.R.J.d.z.P.wXP.wXR.I.I.,X{.dXpXU.U.V.pXU.C.dX|.3X/./.kXkXlXjX2XdX.XhXXXhXjX<XT.,X,X<X/..X.X,XA.D 0 g.z.R._._._.T.n.Y.gXR.R.A.A.T.<X|.!.`.aX<X[.^.B.,XF.M.Y.A.a.m.m.a.d.a.p.p.q.D F c t r i r # # @ @ V yXJXX.X.I } { }  .} } U V U U  .rXU  .rXo.U U o.rXo.} I X.X.} | | I | | yX| / | ] $.-.&.] B | | 1 * M M N N N N N N N C k N  .{ { rX{ K J 0X0XqXeXqXqXx.qXg.l.qXl.G F J # e l.P.wXT.dXdX3XjXlXvXsXdXqXP.gXgXpXpXpXpXP.qXl.0XA { U 0XN M I I | | &.=.%.&.&.&.%.' ) ' %._ #.&.%.;.ZXZXZXLXLXZXFXO.%.;.-.GX;.HXLXGXHXFX-.ZXHX;.-.HXHXFXLXFX-.DXHX%.ZXFX| BX=.| -.-.' ` ^ ] 1   o @ @ & # # # r t t p 0 j j f h g q.>.>.7.u.u.u.a.u.<.8.v.N.n.N.B.C.C.Z.0.Z.B.V.B.Z.C.Q.Q.Z.L.j # N F g u.V.Q.}.oX~.oX~.oXoX).~.%X%X%X%X%X~.!.!././.Q.Q.C.C.G.S.f.,.F.].'.'.n.8.S.b.F.V.^.!.!././.OXOX_.U.V.I.F.G.G.C.N.N.d.g.G q v h.7.M.pXwX:XY.n.S.K.i.v.9.n.S.S.F.F.M.Y.Y.M.C.!.+X%XoXoXoXoX~.!.Q.U.N.Y.P.qXqXqXj.I.9.B.G.B.N.G.H.B.n.M.z.x.l.x.J.P.y.J  .x K Z w D j.a.j.A.m.a.m.L.K.S.M.M.S.S.F.I.S.K.S.A.d.j.J.J.A.S.S.F.F.V.V.M.S.K.A.m.m.J.J.J.A.J.P.z.z.j.d.s.h.h.4.",
"q.m h r.4.5.5.7.8.7.8.a.a.a.u.7.,.u.i.i.b.b.b.b.M.n.b.b.b.b.b.b.i.v.m.b.n.S.n.F.U.T.F.A.r.G N M & e A S n h.s.5.u.j.d.a.Y.{.^.^.^.^.[.^.].].G.^.].4X2X^.`.XXXX6X@X@X6X X6XXX6XXX6X8X8X7X6X6X@X@X6XkXkX8X3X|.].2X2XsXdX1X,XwXqXd A G h.A.I.Y.K.I.Y.T.'.<X,X'.'.].].{.{.Y.J.j.z.P.;Xk.wXR.I.V.pX{.<X<XT.U.n.pX_._.aX`.hX}.}.kXhX3XjX[.[.`.3XXX3XsXT.K.:X,X'.^.2XdXT.m.D 0 g.z.Y.G.Z.'.T.S.:X:XS.Y.P.A.Y.'.|./.|.aX`._.^.C.'.V.M.Y.J.d.A.d.a.m.a.a.u.r.r.g.b p w t r y r # # # k { VXyX} X.o.I  . .} }  .U I U C rXrXU U  .U U { rXX...| } =.| { X.V V  .| | | ] %.$.%.AX@.B / / B M M M N N N N N N H C k H {  .{  .rXH K 0XqX;XeXqXx.qXx.g.l.l.G Z J # e l.z.L.Y.fXsX3XjXjXjXsXpXqX>.:XgXpXpXT.wX;XF U N rX{  .{ V / | tX| =.*.' $.-.-.;.' ~ ' ' &.] &.;.%.;.ZXHXLXHXFX;.%.;.DX&.ZXDX&.' ZXGXHXDXHX-.#.-.FXFX;.HX%.DXGXFX-.;.FX%.FX$.*.-.%.` ` ` ^   X X @ & @ & # # 9 t a s f j j j g g 4.r.4.5.u.u.u.i.a.i.8.v.N.n.B.Z.Z.C.C.Z.C.C.I.F.B.C.C.Q._.C.L.w # N S g u.F.^.).+X%XoX).).).).~.%X#X%X#XoX~.!.~.).)././././._.M.u.<.U.]._.G.n.<.L.b.F.F.^.^././.}././.`.C.N.n.n.B.B.Z.N.8.a.x.-Xz y g.m.b.wXgXgXwXL.K.J.d.m.n.F.I.S.G.F.M.K.m.v.C.`.7X#X+XoX@X@X+X~.Q.'.V.R.P.qXeXqXA.Y.n.C.G.B.N.F.F.H.n.m.z.l.l.l.x.x.g.J { e K F d D j.a.A.J.b.i.m.K.K.S.M.M.S.S.S.S.S.K.J.d.d.z.J.J.A.A.S.F.F.M.n.M.S.S.A.m.m.J.J.P.J.P.P.P.J.z.j.s.h.h.g ",
"g g h r.5.u.a.a.7.8.8.7.p.a.p.7.,.u.i.i.b.m.b.M.M.n.n.n.b.b.b.A.m.i.M.n.F.F.n.T.T.G.G.A.r.G N V & e A S D h.s.5.q.c.s.u.K.T._.`.^.].2X2X2X2X].2X^.4X`.Q.Q.`..X3X@X+X@XoX6XXX6X X6X6X8X8X6X6X@X X@X7X8X8X3X|.[.dX[.dXsX2XpX:X;Xd Z F g.d.A.n.m.K.:XT.,XpXpX{.'.<X[.dXpXR.Y.P.;XP.qXd.wXY.T.<XfX_.'.<X'._.V.dX].[.2X/.hX X}.lX@XhXvX.X_.C.XXhXjX[.I.K.pX,X'.`.4X<XG.a.D 0 e.h.I.G.Z.[.F.S.,XY.m.L.;XA.F._.3XXX3X3X]._.].^.'.C.F.Y.J.s.j.d.m.S.m.a.7.5.w.h.b p w c p a t 9 e # @ & C } HXX.} X.{ I o.I I o. .U U U o. . . . . . .{ I | X.} / X.yX} rX{ I { X.*.( ` $.&.' %.&.7 7 / C M M M N N N K N N K A y M  .rX{ rXyX .J G qXqXx.g.0X0XF Z J J Z J # e l.s.P.R.dXsX8X6XjXjX3X<XwXh :XgXpX,XT.R.z.g.K  .U  .V C { BX..] HX=.] =.&.&.tX] B ` [ %.&.&.#.;.-.HXHXLXGXKX;.ZXGXKX&.ZX' ) ;.ZXFX-.&.-.-.-.;.FX-.%.FXFX-.DX-.-.DX-.;.FX&.%.;.$.^ ' ' 7 X   o & # # q # q 9 9 p S m m j h h g g 4.r.w.5.7.i.i.a.m.b.v.n.V.C.C.C.C.C.C.Z.G.U.I.V.B.G.C.Z.Q.V.L.j # z S g i.G./.).%X%X+XoX~.).~.~.%X#X#X%X%X~.~.~.).).}./.)./.^.N.u.<.G.].G.C.n.9.Y.9.F.G.^.`.}.).}.}./.`.C.n.n.9.0.0.C.B.<.p.l.E e u g.j.a.L.eXgXgXL.z.z.j.L.K.Y.S.b.F.T.b.m.b.i.C.}.xX#X+XoX+X#X7XoX/.].T.wXqXqXeX;XA.I.F.G.'.C.n.F.F.U.M.m.c.g.G l.c.x.D G N e A F f >.d.i.S.K.b.i.m.K.L.M.m.M.S.S.S.S.m.A.J.z.z.z.z.z.J.J.K.K.F.M.M.M.S.K.A.A.A.J.J.J.J.P.P.z.j.j.d.s.s.r.g ",
"D g g h.w.>.5.u.p.a.a.7.a.d.a.7.,.7.7.i.b.m.b.n.M.n.S.S.n.b.n.K.K.b.S.M.F.F.n.T.G.B.U.D.r.G y V # e J G F l.c.r.>.s.s.u.K.T.'..XQ.2X].2X2X`.].].^.sX`.`.Q.|.aX6XXXoX|.}.3X3X6X X8X8X@X@X6X6XXXoX@X@XXX6XjX3X.X2XdXdX2X1X>XD.;Xc A G x.A.n.n.M.R.:X,X<X<X,X,X,X[.].dXdX,X:XwXqXP.wXP.gXR.T.{.fXC._.<X2X[.C.dX_.`..X!.XX/.}.lXhXlXsXdX[.C..XlXvX2XT.:XgX:XG.].jX2XG.a.D 0 D k.T.'.].U.N.I.,XT.pXL.P.A.Y.'.3XXXhXaX3X.XdX<X{.F.T.R.J.s.j.d.m.L.K.A.m.7.>.r.D m p c S s S w r 9 k & @ % } X.tXyXX.} U I U I U rX .U  .rXo. . .{ U { | ( ..yX( } yXX.X.rXX.V / | ( / &.O.$.] &.=.! 7 B M C x e N A J y K A K 0XN k V I } {  .rXJ a Z 0XG J 0XZ a -XJ A J # e J t.J.:X[.2XjXkXkXjX4XpXwX>.gXgXY.Y.wXL.e.F iXo.U M V V tX..=.BX| ' %.-.] %.` ^ ` ~ ] ;.&.;.-.#.HXGXLXUXUXFXLXKXFXDXZX-.DXHXLXFX-.FX;.-.%.&.-.-.&.FX-.;.-.-.%.-.-.%.-.&.%.' ` ;...' ,   X o & & # q q q r i 0 s D 4.4.j f g q.g >.r.w.5.u.a.a.b.M.n.n.C.C.C.C.B.Z.C.Z.B.^.G.S.b.n.G.C.N.Z.N.P.j # z D 1.v.G.!.oX+X%XoX~././.~.~.%X%X%X%X#X}././.).).}./././.^.n.v.<.G.'.C.C.F.b.R.8.M.G.C./.}.).~.}./.`.C.C.U.V.G.G._.n.b.z.l.G q A x.A.A.P.qXgXeXz.t.h.j.j.b.M.S.m.F.I.b.m.m.N.^. XxX+X+X~.!.~.7X+X/.Q.U.R.wXqXeXP.A.S.F.G.{.U.n.M.M.K.A.j.c.G G G c.x.S A N N Z F y.r.a.b.S.K.a.a.J.J.P.A.m.S.S.S.S.S.A.J.z.z.x.x.x.z.z.J.K.L.I.S.M.K.J.J.J.A.A.A.J.J.d.j.j.d.s.s.s.s.s.p.h ",
"l l q.r.w.4.4.q.w.p.p.7.8.b.a.p.7.a.i.8.a.b.b.n.M.S.F.S.n.n.n.S.M.b.A.S.n.D.F.F.F.T.H.D.p.g.N C # x H 0X0XG l.D 4.p.d.b.F.'..X].`.`.`.3X`..X].^.^.dX2X^.|.jXXXXX6X3X^.'..X.X X).7X7X8X8X6X6X3X@X@XXXhX.X3X3X4X3XaXdX<X<XpX;X;Xp N J h.L.U.C.F.T.:XH.G.<XdX{.1X2X3XaX'.pXwXJ.P.;XP.:X,Xn.F.dXU.{.9.fXdX[.C.[._.[.[.].|./.|.kXhXlXsX{.I.{.jXkXjXsX:X:X:X,X'.[..X2XU.a.g.0 e.J.T._.G.,XV.U.].'.pX:X;XP.:X_.2XjXlXhX3X3X1X,X,XR.,XR.J.d.P.a.L.A.Y.a.a.5.u.h.f F w F e.h D d p 9 y e @ @ @ C } yX*.| X.I C rXU C  .yXU U U rXrX .V V | ( } ( =.=./ X.*.X.*.X.V C M } ( | ] | $.| =.^ 1 1 V M e N u N K K K A J  .V e C I X.{ { yX{ K H H N H 0XA J J J H & q l.q.L.pXdXvXjXbXjXsXdXgXwXh P.wXwXqXx.D 0XuXyXI M I *.=.*.=.=.~ ] -.-.:.;.[ 5 ' ) O.&.' $.&.FXLXKXKXKXUXDXLXGX;.-.' %.;.HX-.ZX-.-.FX-.' ' BXFX=.FX-.%.;.' ..NX-.$.$.%.-.` &.$.] ! $   X @ @ # # 9 q q r w p 0 g 5.7.4.h d f g q.r.5.p.p.p.p.7.b.V.n.N.C.F.F.M.n.n.C.C.C.^.G.Y.K.S.M.n.N.F.F.;Xj # v D ,.B./.!.~.+X).}.}./.!./.!.).oX#X%X~.~.OX`./.!./.2XG.n.n.M.n.9.V.T.F.F.T.v.M.<.n._.^./.}.).).}.!.^.C.C.C.0.^.^._.D.a.h.g.l.q y h.A.A.;XeXgXeXx.r.h.J.d.m.b.K.v.N.K.A.i.,XC..X X@XoX!.OX~.~.+X+X).}.^.,XwXx.qXqXK.b.v.V.{.T.I.M.a.J.j.x.l.l.G G x.-XG A N x F F q.r.A.b.A.J.u.u.z.J.L.A.A.S.I.b.Y.S.L.J.x.g.c.-X-Xx.-Xj.;X:XS.M.K.m.J.J.J.J.L.A.A.K.A.A.A.A.z.j.d.s.h.w.4.",
"l l q.r.5.>.n e.e.t.p.p.i.b.a.7.7.a.i.i.b.m.m.M.n.M.n.n.b.b.n.S.S.b.m.S.D.V.G.G.F.Y.H.L.k.l.N N # N H 0X0XJ S b n h.J.S.G.[.2X|.Q._.^..X`.2X]._.[.].`.^.|.3XoX@X}.2X^.U.[.[.|.).7X7X8X8XhX6X6X6X@XXXaX`..X4X6X3XsXdX<X,XpX;X-Xv N K r.S._.^.,X<X1XG.^.2X2X_.U.'.4X4X[.,X:XJ.j.J.L.:X:XF.T.{.T.T.C.'.<X[.Q..X`.aX[.[.dXQ.|.cXlXlXsX{.E.{.sXkXjXdXR.:X:X,X'.[.3XaXU.j.g.9 q.J.{._.V.,XT.].`.^.,X:XqXP.R.G.|.hXlXkXXX4X[.,X:XY.,XT.J.d.A.m.S.S.L.A.A.7.p.x.D y.p D 4.g e.j d p Z i # % @ & M { } *.X.} o.U {  .V { rXrXU U 0X .U { } / / ..| | *...tXX.( | } B C % / ^ ] ] ] ' ] $.` 1 1 C M N A N K A A A K H H  .M M I rXtX} rXyXV M  .N H K J J J H % q 0Xe.R.pXfXjXhXbXjXvXgXgX;Xj z.eXP.t.y.K U rXU C } X.*.*.=.&.=.] $.;.-.#.` ~ ' Y #.;.$.&.O.HXKXKXKXKXKX;.LXLX' ;.&.&.FXHXHX&.;.DX-.&.$.%.-.tX-.=.BX-.&.` &.%.;.~ ' -.;.' ] %.| 6 $ X X @ @ # % q i r w t t v 0 g 8.8.u.g d l 4.r.r.5.p.a.w.u.7.v.B.B.0.Z.V.M.M.M.n.V.Z.Z.^.B.b.A.A.K.E.b.M.Y.;Xj 9 v q.,.B./.~.~.+X)././.!.!.Q.Z./.~.%X%X+XoX`._._._.G.F.<.b.I.F.9.n.F.I.F.F.I.n.M.<.B._././.). XoX}./.`.G.G.C.0.C.C.G.n.p.h.g.l.i v h.j.a.P.eXgXeXh.r.j.A.A.M.M.I.M.M.K.m.v.U.Q.}. X6XoX!.).).~.+X@X X}./.,XR.P.qXP.A.n.I.M.B.n.F.S.a.P.g.y.y.F G l.-XqXJ e % e G D n h.S.i.a.a.p.z.z.z.J.J.L.L.Y.K.R.S.D.J.x.x.l.x.-X-X-Xh.;X:XS.S.L.A.J.J.J.J.L.S.A.K.K.K.J.A.J.z.j.j.h.r.4.",
"s S e.r.6.g n g.y.g.h.p.a.a.a.5.7.p.i.8.b.m.m.S.n.n.n.n.b.b.n.S.S.b.m.S.D.H.G.G.S.F.F.L.k.g.N C # N H E 0XJ c S q.j.L.Y.T.[.|.].Q.`.`.[..X.X^.C.dX].].].4X6X6X8X|.3X[.'.[.<XaX6X7X7X8X6XhXhX6X6X@XXXaXC.].3XjX3XaXdX<X,X:XJ.;Xv K J s.M.^.^.'.,X<X1X|.2X2X].'.].4X3XdXT.Y.P.J.P.:XpX:X'.1X{.,X{.T.C.dX[.Z.`._.dX[._.sX0.`.kXkXlXaX{.E.U.3XjXjXdXY.R.:XT.U.'..XaXF.j.g.0 n J.{._.F.,XG.'..X`.,XL.qXJ.T.^.4XkXkX6X3X3X[.T.Y.Y.{.T.m.d.m.K.m.I.L.S.A.p.p.h.e.y.p S q.4.g.h b S S u i q # # o & V o.} o.rXrXrXU {  .V U rXU o.U V C I X.( I } ( ( ....*.*.*.tX{ / / * B ] *.*.=.` $...| 1 % V V N N N A K A A A K  .U M C } *.yXX.yXyX .M { K K 0XK H H % q 0Xg.P.Y.dX=XlXmXjXfXY.j.qXg x.x.x.l.l.J H I U X.} I *.=.=.-.*.` $.%.O._ ] ` ~ ] ZX) O.&.FXKXLXKXKXLXZXKXHX-.O.;.-.GXDXFXFXDX-.-.&.' ;.FX-.-.FX-...' &...%.~ ] -.%.&.` ` | / 7 o X X @ & # 9 q r t t t p a s j h 8.b.u.g d D r.r.r.4.p.p.5.u.u.v.B.Z.N.B.n.n.n.b.n.C.C.Z.C.N.i.d.d.m.v.<.v.D.;Xd 9 a q.<.B.|.).~.+XoX/.!.!.!.!.Z./.~.%X%X~.~./.^.T.R.R.;Xu.a.S.n.b.n.F.n.G.G.F.S.V.n.C._./.~.oX XoX}./.Q.C.n.Z.0.C.G.G.F.k.h.g.l.r v g.k.u.j.eXeXeXh.h.P.A.m.v.n.n.N.v.E.M.n.C.`.oX X@X~.!.}.oX~.oX+X X}.].{.J.;X;XP.b.F.Y.N.N.n.I.S.a.z.g.F F S J G -X-XK K C e Z D e.h.i.m.L.J.w.s.P.P.P.;X:XJ.L.Y.wXK.L.J.-Xx.l.l.-Xl.x.x.P.L.S.S.P.J.d.J.J.A.K.S.M.S.K.K.K.A.A.A.d.z.h.r.4.",
"s S y.r.4.g n g.g.g.g.p.p.p.p.7.7.p.i.8.b.m.M.S.S.S.S.M.b.b.n.S.S.b.m.S.F.F.G.G.F.F.F.S.a.e.z N # N N H 0XJ Z F t.P.:XR.'.[.].`.C.`.`.`.[.].C.C.'.^._.^./.3X XoX}.3X.X_.{.].3X X+X7X8X6X6X6X6X@X6XXXdXC._.aXjX3X.X2X<X,X:XL.;Xc N J p.B.Q.^.'.1XdX2X2X.X|.2X4X4X3X3XdXT.L.:XL.wXwXpX,X<XdXpXpXdXG.U.fX[.Z.Q.'.[.'.C.sX0.}.kX6XkXaX[.U.U.4X6XsXdXY.:X:XY.T._..XaXM.d.g.9 f J.T.U.U.'.C.^..X2XpX:XqXJ.T.].jXkXkXkXkX8X[.T.Y.Y.{.T.m.J.A.K.S.Y.Y.I.A.p.h.h.e.e.w F t.6.h.n e.F S s i A i # # @ @ C U } yXo.X.rXo.U U o.V rXo.U V U { { X.} / } I ( | ( =.=.*.| | | I P 7 / *.HXtX/ / | } B % e N H k A H A A K N N U  .M M V yXyX} rXrXo.H N K J z J H & q 0Xy.P.S.dXaXaXvXsXpXP.P.x.f e.y.l.0X0XU U U V I X.=.*.*.&.] | ..' %.%._ &.%.&.FX_ &.O.GXKXLXGXGXDX&.GXHX] ) FXDX;.FXFX;.-.FX$.' ;.FXFX=.HX-.%.| [ ' %.$.' $.%.' *.] ` ] / $ X X o # % # 9 q r w p p p s c s j h b.b.u.h h q.r.p.q.>.u.p.w.r.u.8.n.C.Z.Z.B.n.n.v.N.V.C.C.Z.M.J.d.u.u.u.<.<.S.;Xd 9 v r.<.B..XoX).+X+X}././.)./.!.`.~.+X%X%X~.!.C.m.3.q.c.s.p.m.S.D.n.D.B.B.F.V.F.F.C.C.`./.~.).oXoX).!.Q.U.U.G.0.C.C.G.S.j.h.g.l.i y g.j.p.j.eXeXeXz.j.J.L.S.b.M.n.M.b.I.M.V.Z.XXoXoXXX!.!.oXoXoXoXoX}.}.].U.d.P.qXP.A.Y.M.b.n.M.I.M.a.x.x.F y.F l.G -Xl.K H V e p e.e.r.S.F.K.m.p.z.qXx.qXqXqXJ.P.P.wXP.;XP.x.l.l.-X-Xg.x.x.x.L.M.M.J.A.a.m.m.A.K.S.M.S.S.S.S.A.m.a.d.d.h.r.4.",
"p s D e.4.h m F g.g.g.r.p.u.u.w.u.a.i.i.b.M.S.S.S.S.S.M.n.b.D.M.M.b.M.S.F.V.G.B.F.F.M.S.a.e.z N & x N K J G S b t.J.Y.R.'.<X].^.C._.'.^.].'._.1X[.'.<X[.|.3X@X X).3X.XG.{._..X}. X+X8X8X6X6X@X X6XXXdXC._.3XsX4XaXdXdXpX,XP.;XS z J j.G.^.Q.'.,X1X<X2X|.|.2X4X4X2X2XdXT.Y.:XL.:XwX:XpX1XpXdX{.dXn.{.dX2X`._.[.[.].^.sXZ.XXhX@XkXlX2X_.'.XXjXsX<XR.wXpXY.,X].2XaXn.a.g.9 h j.T._.B.T.'.`.XXaXfXgXwXL.,X].6XkXbXbXzXjX].T.Y.R.,XT.S.J.L.K.S.S.:XI.D.p.x.z.e.D d g.t.5.h.6.e.e.f D S t r y q q # @ k I I o.yXyXo.rX .o.rXU I rXrX .I I X.X.X.*.( ( ( ......*.=...tX| } ( B ! &.FX*.| / / / V C M C N N A N A H K K K U  .C C V X.X.{ X.X.rX{ M e N  .{ & # 0Xg.;XY.pXdXaXsXfXwXs.x.F s l.*X0XJ U U U V { X.=.X...tX| | &.] -.] ' #.$.] ;.' #.O.FXLXLXHXGXZX$.HX-.#.&.HX-.' FX;.&.FX-.&.' FXLXNX%.%.%.| ] &.=.-.&.' %.&.' %.( | / B $ X X @ # # q q w w p d f f f m b f j >.n.S.i.h h e.s.p.4.>.u.p.w.p.u.i.n.G.C.C.B.B.N.N.N.C.Q.C.N.I.;Xz.u.d.m.<.2.S.;Xd 9 a w.<.Z..XoX~.+X+XoX!.oX)./.!.OX~.%X%X%X~.&X0.<.h j j q.s.P.;XA.b.S.G.9.n.n.B.F.G.G.`./.oXoX+X+XoX}.OXU.T.U.W.B.G.T.M.p.h.g.-Xr y g.x.h.z.eXeXeXz.h.p.A.D.b.S.S.K.m.L.M.F.Z.XX/.}..XOX[.`.oX X}././.`.].H.J.P.eXP.D.Y.S.M.M.v.b.A.k.x.g.F l.G -XJ qX0XJ N M e Z g.D r.L.Y.S.m.p.x.qXP.qXqXqXx.P.x.qXP.;Xz.x.l.l.x.-Xx.x.x.z.J.A.S.J.A.A.J.J.K.Y.I.S.I.S.S.M.m.m.a.a.d.j.r.4.",
"p s D e.4.h b F g.g.g.h.h.p.w.5.5.p.i.i.b.M.M.S.n.M.M.M.n.b.A.A.M.n.S.S.n.B.B.B.F.F.F.S.a.g.z N % x H H K G S f w.a.S.F.T.[.].^.Z.C.[.'.<X'.'.'._.G._.].]./.!. X XXX].G.[._..X|.XX8X8X6X6X7X@XoX@X.XdXC._.2X3X|.sXdXdX,X:XL.;XS z J J._./.Q.T.T.1X1X2X|.|.|.5X].].2XdX,XR.Y.L.L.wXY.<X'.1XdXG.<XV.'.'.dX<X'.[.[.'._.4X/.3XhX7XkXlXdX[.`.4XjXsX,XY.:X:XF.pX[.3X3XV.a.y.9 h d.T.'.G.'.'.].XXaX<X:XwXJ.'.|.jXkXxXbXzXjX(.G.R.:X<XT.Y.L.L.A.S.S.Y.L.L.7.P.P.r.q.f l.r.w.j.4.6.h.4.y.f D p t v u # # @ & % X.I } JXo.yX .U yXrXV U o.} V I | | X.yX} / ( / *.| &.=...tX| *./ / *.*.| / } { / } / * M C M N N N A K U U H o.U C C C X.{ X.X.yX .rXN N H H & # 0Xl.;XY.{.dXpXfXgXJ.g F G G 0X-Xl.K U U C I rX*.} *.*.] &.=.&.%.! ' $.' O.-.&.-.FX-.HXGXFXZXLX;.GXFXO.FXHX%.-.;.O.-.FX$.' FXGXHXFX-.=.$.| &.=.FXBX-.$.&.:.%.$.[ *./ 1 X X @ & & # q u 0 p d d h m n m m m f h ,.S.F.i.1.h t.j.d.5.,.u.p.r.p.u.i.V.C.C.G.N.B.B.Z.C.Q.!.Z.V.I.L.J.d.K.E.W.N.Y.;Xh 9 s w.<.V..XoX).+X+XoX~.oX)./.!.Q.!.oXoX}./.!.0.b.d.g j w.x.;Xz.p.A.I.n.9.n.n.n.U.G._.]./.oX+X+X+X+XoX`.V.I.I.N.B.U.{.I.7.r.g.-Xr y g.j.s.h.eXqXwXP.p.7.a.A.m.A.A.A.d.J.J.M.B.].C._.[._._.C.`..X`.!.Q.`.(.H.J.x.eXP.A.S.A.m.m.a.A.P.s.g.e.m y.G l.J -X0XK N M x Z l.e.h.A.I.K.J.r.s.eXqX*Xx.x.x.P.x.;Xz.P.z.x.l.g.l.x.qXx.x.z.J.S.K.J.A.J.K.M.K.Y.I.S.I.S.S.M.m.m.m.d.d.j.s.w.",
"p c D y.n m m G l.l.g.g.h.h.r.w.5.u.i.i.b.m.b.n.M.M.n.b.b.b.A.S.S.M.S.S.n.n.B.F.F.U.F.S.a.g.A N % x H H K J m h >.u.S.F.T._.^.^.C.G.<X[.2X'.'.C.{.{.[.]..X|./.6X).}.].C.{.V.].}. X6X@XXX6X8X8X+X@X.XaXC.`.2X3X4XaXdX<X1X,XD.;Xm q F A._.].`.<XpX,X1X2XXXXX4X5X].].aXpXpXwXR.R.R.,XT.,X'.2XdX].<XF.G.{.dXC._._.[.^.[.|./. X6X7X@X6X2X[.].3XjXdX{.Y.:XR.b.pX<X3X2XG.a.y.9 f f.T._.,X,X'.`.XXhX'.Y.:XA.T.4XkXbXbXbXkXjX].T.:XwX,XU.Y.Y.K.K.b.Y.T.Y.L.,.J.P.s.t.q.g.r.5.p.,.5.z.4.h.>.n f b p p w i # @ X & I I I o.yXyXyXU rXrX .C I  ./ I } X.X.*.*.X./ ( *.=.*.| tX=.tX} } | R { | ( } X.| X.| * C M N N A K K U 0XrXC  .U I I C / } / *.yXV  .{ V V & # 0Xl.qXY.pXdXI.gXR.s.x.-Xl.l.l.K H H U V U  .} } | } ..=.| %.&.6 ] ` -.;.' -.GX-.-.FX-.FX-.HX;.HX-.O.DX-.` %.;.&.-.ZX' FXFX-.-.-.BX-.*.=.HXAX-.-.;.;.$.&.;.' ! ' B o X @ @ # & 9 q w p j j h h g 6.4.g g D f g 1.F.F.a.1.h r.j.j.5.,.f.f.p.r.u.v.F.C.C.G.0.Z.B.C.^././.!.Q.C.K.K.M.I.V.N.V.T.:Xh 0 S f.<.Z.[.}.oX+XoX).!. XoX}.!.Q.Q.OXOX_.[.`.C.G.T.m.,.m.J.d.>.>.d.K.9.9.n.F.n.U.C.^./.!.).oX+X+X+XoXOXU.E.U.B.C.B.F.M.p.h.h.l.i y g.h.p.p.qXP.P.P.a.a.j.A.P.j.z.t.t.x.z.u.m.K.M.Y.L.J.i.N.U.[.Q.Z.C._.G.F.J.x.qXP.j.m.a.a.d.A.J.z.r.g.g.n F F G F l.-XK H C N Z l.e.h.L.S.a.j.z.x.eXx.x.x.x.x.P.z.P.j.z.z.l.l.y.y.x.qXx.x.J.A.S.K.J.A.J.J.M.K.K.S.M.S.S.M.m.m.m.J.d.f.j.p.w.",
"p c F F m f b G l.l.l.g.g.g.r.r.5.p.i.i.m.M.n.n.F.S.M.b.b.b.A.A.S.M.S.S.n.n.F.G.F.I.F.S.d.h.A N & M H K K F s h 5.d.I.T.'.'._.^.[.U.[._.'._.1XG.'.pX<XG.].2X|.3X6X X2X_.pXV.[..X XXXXX XXX8X7X+X6XXXaX_.].2X3X3X.X2XdXdXdX:X;Xn w F A.U.].`.{.T.,X,X].|..X|.4X5X].dX{.{.pXR.pXpX,X,XT.'.dXdXaX2XB.C.dXdX2.[.[..XG.dX]./.|.6XxX+X X.X].`.3XkXsX{.wXwXR.v.pXpXaX3XU.a.F 9 s p.I.U.'.1X[.`. X3X1XpXgXL.'.2XkXbXbXbXkXjX<X,X:X:X,XF.I.Y.m.L.b.:X:X:X:X,.A.;Xj.j.t.t.x.>.5.5.p.j.,.P.5.w.h f S F p i 9 e @ X $ C X.} U rXo.rXrXo.U yXU I yXX.I | X.X.X.( ( B / | =.tXX.tX*.| *.| 1 1 B | | tXyX| *.X.C C C k C U U U U  .U U  .} | C 1 7 / | I }  .{ V { @ @ J l.wXwXwXR.m.wXc.n -XJ -Xl.J K U H U U U } / X.X.*.FX` %.] R ] @.$.;.-.GX;.&.FXZXZXFXZXDX-.&.;.-.DX-.O.HXO.$.HX-.O.FXZXFX-.%.] *.GXFXtX=.$.$.FX-.-.&.' ` -.] $ X   o o & # 9 q w w d g j h >.4.w.5.>.h r.4.4.,.F.T.b.,.h p.A.a.7.,.f.a.u.w.u.m.U.C.Z.Q.Z.Z.Z.Q.^./././.!.C.V.I.G.C._._.C.T.:Xh 0 D A.N.N.`.}.).+X~.!.&X X).}.!.Z.Z.!.!.B.V.C.Q.Q.^.^.F.<.7.u.3.>.w.f.i.9.9.F.9.F.N.C.C.!.~.oX+X+X X}.OXB.N.B.U.{.V.G.U.A.A.h.g.9 u g.p.A.j.:XJ.A.L.p.k.j.j.x.e.y.Z F G g.D c.x.x.x.t.y.h w.Y.{.n.9.C.G.B.F.d.x.P.;Xj.m.d.p.z.z.h.r.e.-Xg.F D F F G x.0XJ N x N G y.m h.A.L.j.P.x.x.qXx.x.x.x.z.J.z.P.j.J.j.g.l.g.l.x.-Xg.x.z.A.S.S.m.m.J.J.J.K.L.K.m.M.M.m.a.b.m.A.d.p.s.r.q.",
"y Z b n F b c F J J G e.g.g.y.t.5.a.a.a.b.m.n.S.F.M.M.b.7.i.A.m.M.F.m.m.n.9.F.G.F.I.v.b.A.-XK H M % N N K Z f h ,.m.Y.T.G._.^.C.G._.'._.1XG.n.'.pXF.U.^.'.].jX3X|.3X^.pX{.B.C.`.|.|. XXX3X6X8X+X@X6XaX[.|.4X X}..X3X3XdX<X,X;Xm w F D.G.Q._.,XI.T.,X[..X2X2X2X4XdX2XdXpX{.T.:XpXT.,XdX[.sX.X.X2X9.{.pX[.N.[.[.Q.].]..X|.}.bXzX@X6X3X.X|.6XkXaX{.:XpXY.F.R.{.3X.XB.P.g.9 w c.K.U.T.'.2X|.}.4X<XpXwXL.,X^.jXbXmXhXlX|.dXT.wXwXF.T.T.T.K.m.S.Y.pXpXL.,.P.P.L.P.w.t.c.w.s.>.u.J.u.j.w.p.>.q.n e.b p y e e o X o %  .yXH U rXrXyXVXyXX.} I } X.} } X.*.| | | I B B *.=...tX*.*.*.} B B / | *.JXBX| *.*.M M V M V U H K rXrXU } { I I B B 1 I X.} { rX} { % @ J l.;X:XwXwXd.*XqX*XeX0XJ J J K H U U V { } X.X.*.*.] ] ` ~ ] ;.;.ZXZX;.ZXHXZX;.GXLXLXFXGXHX' O.ZX-.] FX-.O.DX;.-.FXFX-.FX$.%.-.HXHX&.%.-.=.HX-.-.` &.%.' 6 +   X X X & e q i w w d h h h ,.7.7.7.5.5.,.r.r.,.8.G.T.i.,.h d.S.8.a.,.b.m.u.u.i.i.V._.Z.Z.0.Z.^./././.).).~.!./.].|.|.}.}.!.'.:Xh 0 e.S.9.B.[.|.~.oX~.!.~.@XoX)./.Z.Q.~.0.V.C._.`.}.XX X/.C.v.d.J.f.3.p.7.S.n.b.M.b.N.C.^.!./.oXoXoXXX}.!.B.N.U.C.B.B.2.B.F.L.j.g.9 a g.h.a.m.a.S.m.K.A.j.s.t.F S A A K H H A K J 0Xl.0Xl.0Xg.P.Y.n.n.n.V.n.I.u.h.g.;Xa.7.j.s.s.t.t.t.F l.F n D F G G l.x.J y N H F y.m e.p.P.P.t.t.x.x.c.x.x.z.j.J.L.P.A.L.P.c.y.y.l.x.;Xh.z.A.A.F.F.M.J.J.m.m.K.K.K.m.m.m.A.m.f.d.d.f.p.s.r.w.",
"a Z S F F m c F J J G e.g.g.e.r.5.a.a.a.b.n.n.S.F.M.S.m.i.a.A.m.b.S.b.8.8.v.F.F.F.S.n.8.d.-XA H M % N N K F m >.u.S.T.U.G._._.C.G._.'._.[._.B.T.{.G.T.F.N.C.2X|. X3XG.{.T.{.[.`.}.|.|.|. X3X8X6X6X6X3X[.|.4X X}.XX3X4X2X1X1X:Xe.9 F J.T.Q._.,XT.F.'.'.`.].].5X2X.X[.<XpX<X{.,XpX,X<X<X[.aX.X.X2XC.U.[.C.C.aX.XQ.].[.|.|.}.kX7X6X3X3X4X X6XhXaX[.pXpXT.F.R.{.aX3XN.J.g.9 0 t.K.{.G.T.2X.X@XhX<XwXwXP.T.^.aXcXbXkXlX3XdXT.pXpXR.T.'.T.m.A.Y.,X<X,X:Xu.;XA.b.L.j.w.r.r.s.5.w.d.a.p.a.u.>.r.r.e.m b w y k @ X o o % k 0Xo.I o.yXyXyXo.} yX} I ( | } X.X.} | *.../ ( *.*.*.HX*.} *.{ V B B / *.LXLX| } tXV 1 U V N H K U yXrXU I C I B I B 1 / { }  .} | & o K y.P.:XwX;Xc.x.0X0X0X0XuX0XJ K A N U  . .} X.| | &.' ^ ) [ HXFX] &.-.-.HXZX%.GXUXKXLXKXKX-.FX-.-.&.&.&.$.HX&.ZXZXFXHX%.' %.-.GX-...BX-.&.-.-.] ..] &.` < +   X o X o & r r t d d h >.>.,.,.7.7.7.7.7.,.u.p.7.8.G.G.m.p.h j.L.9.b.<.b.m.i.7.i.N.U._.C.Q.!./.|.|. X X XoX+XoX4X X3X6XoX X~.].>Xh 0 e.S.N.C././.~.~.&X&X~.#XoX).}.!.OX}.&XOXOXQ.!.~.oXoX}.G.v.i.a.b.i.3.,.M.n.M.F.n.v.n.C.!.!.). X X X}.Q.Z.C.Z.C.Z.N.Q.'.F.D.a.r.9 a g.p.m.S.S.Y.S.L.A.A.h.g.G K K C C C M C C M e M C N N a y.j.b.n.n.n.n.S.r.c.t.;Xp.5.5.e.t.e.y.g.F g.F F l.y.l.F c.x.G y N H Z y.b e.6.r.r.q.y.x.-Xx.c.x.z.A.A.S.S.A.D.j.e.f e.x.x.x.h.z.m.m.F.F.m.J.J.A.A.J.A.d.d.m.a.d.d.d.d.z.d.s.z.s.w.",
"t Z S F F b c F J J F F g.g.e.e.5.a.a.a.b.b.n.F.M.M.S.m.a.d.A.d.b.S.i.<.<.9.F.v.S.m.M.8.a.-XN  .N & N N Z G m r.d.K.T.F.F.U._.^.C.G.'.(.'._.B.G.F.I.T.T.B._.].^.|.2XC.T.I.T.<X`.|. X X|.|.XX3X@X@X6X3X2X2X3X6X3X|.2X3X4X1X,X;Xn 9 F L.T.Q._.,XR.T.,X].`.[..X2X2X].[.[.[.[.<X<X<X1X<X].]..X3X|..X[.U.dXC._.aX.X_.[.[.|.|.}.lXzX7X|..X4XXX8X6XaXpX,X<XT.F.R.{.3X4X^.L.F 9 w t.m.I.F.G.].|.XXhX,XL.qXz.S.G.aXcXlXlXlXsX1XF.wXwX:XG.T.,XY.Y.R.T.<X,XK.,.wXK.S.:XJ.h >.s.s.d.u.p.J.u.d.u.u.w.s.t.r.q.f A N @ X % @ @ # # U o.I rXVXo.yXVXI X.} } } X.yX} X.} } yX| / | *.*.*.*.tX*.X.*.V B / / | HXBX/ B | I M U U M H  .U  .U C } V B P C * C M V X.*.*.% @ K 0XP.:XwXqXy.l 0XiX0X0X0XJ K H H K K H } X.*.| ] [ ^ ' &.FX-.%.HXFXFXLX-.$.LXUXKXHXKXKX&.FXDX;.$.;.DX;.GX] O.AXFX-.-.%.| %.HX&.-.GX=.-.-.=.FX%...] 5 O     X o @ o @ % u w d f h g ,.,.<.<.8.8.i.i.8.<.d.a.i.<.G.B.b.u.h j.Y.n.M.i.n.M.b.i.N.V.U._.C.`./.). X X X X X+X%X~. X X+X+X~.+XoX|.>X1.0 r.S.Z.Q.Q.~.oXoX&X&X@X%X%X+XoX~.oXoX~.oXoXOX!.~.~.oX/.C.v.v.m.K.m.3.d.b.n.S.I.n.N.V.C.^.!.~. X X|.}.`.C._.C._.C.Z._._.F.S.m.w.9 a h.j.S.I.I.T.F.F.b.j.c.y.A N x 1 1 7 1 7 1 1 1 7 7 1 & q S h.A.S.S.n.n.K.p.h.h.P.p.5.w.y.g.y.y.g.G G G F F F l.g.x.x.F y H E a e.s F x.x.x.g.l.l.l.g.y.x.P.A.A.A.S.A.D.j.e.d D x.x.h.s.j.d.b.S.M.m.m.J.J.J.J.d.f.a.d.d.d.d.d.z.z.h.s.h.r.q.",
"t c S F m c c Z J J G F g.r.e.e.5.a.b.a.b.b.n.F.n.M.M.m.a.a.d.d.i.b.i.i.b.b.S.v.S.S.S.b.j.-XA  .V & N N Z F n s.A.K.I.C.C.G._._.C.C.(.'.'.G.n.F.R.I.b.n.N.{.<X[.].(.F.T.S.N.[.2X}. X4X.X|.|.|.|. X@X4X2X4X3X6X3X.XaXaXdX1X,X;Xn q G L._././.'.T.G._._.Q.`.].].5X]..X.X`.].[.2X<X[.[.^.].|.aX|.3XdX'.vX^.].2X[.[.[.]..X|.}.hX7X7X|.|. XXX8X6XaXdX[.<X_.'.pXpX4X|.[.L.F 9 w y.a.M.I.G.'./.}.3X,X:XqXz.b.G.jXnXhXlXlXjX1XT.wXR.T.T._.,X:XwXR.'.<X<X:X,.R.K.F.R.L.,.>.w.d.P.f.d.J.u.i.u.d.,.s.j.j.w.n F A @ X M % # # q # M o.o.U rX .} yX} C yXHXX.| / X.X.} } *.*.X.( *.=.} X.X.*.*.BX| B / B / tXtX/ P X./ M V V N C H C U } I I C M C C I % % V } X.* @ J qXP.R.wXP.D F iXuX0X0XK K U U K H U  .rX} X.=.' [ ' &.%.ZX-.FXLXGXLXZX&.KXIXKXHXKXKXZXFXFXZX&.-.FXO.ZX%.-.HXFX&.-.-.' -.FX' &.FX=.=.-.-.-.[ ` &.B O   X X @ & # @ @ e p d f g h >.<.<.<.<.8.9.b.b.v.8.S.b.b.<.G.n.a.w.h A.H.F.F.n.C.F.S.M.V.V.C.C.Z.}.).).).).).).oX+X+X%X+XoX+X#X%X#XoX|.,X,.0 t.F.C.!.}.+X#X+XoXoX#X#X#X%X+XoX+X%X~.%X%XoX~.!.!.}.`.B.<.i.8.M.S.,.J.S.B.F.S.b.n.G._.^././.).}.|.|.`.G.]._.`._.Z./.^.F.H.:Xs.9 a x.P.S.F.F.T.F.F.b.a.x.g.A e % 1 1 7 < , < $ > > < 1 % q F h.A.Y.F.n.n.I.d.z.h.x.p.p.z.t.l.g.y.g.G G l.F S S l.g.z.x.y.a H  .v F p F x.x.l.y.G l.g.F y.c.z.A.A.S.S.S.A.z.y.s D x.x.x.t.h.a.b.F.S.A.J.J.J.J.A.d.f.d.d.d.d.s.s.h.h.s.s.s.w.4.",
"t a S F b s c A G J G e.g.r.e.r.5.a.a.a.b.b.n.F.S.S.M.b.a.a.d.a.i.i.7.a.A.S.F.S.K.Y.S.D.;X-XK { H & N y v G q.p.A.S.F.F.G._.'.'.^.C.(.1X<XG.n.Y.R.M.<.9.9.T.'.[.].'.T.T.K.N.1X2X}.|.|.].].].].}. XXX2X2X2X|.|./.2XaX.X[.'.:X;Xn q G A.G.`.`.'.T.1X<X.X.X3X4X2X2X].aXsX3X.X2XaX2X.X2X`..X.XjX3XhX<XU.fX_..X[._.[.].^.2X|.|.6X7X@X.X[.|.6X7X7X3X.XdXdX[.{.pX<X4X|.G.L.G 9 0 D d.R.Y.T.]./.}.aXpXwXwXP.b.G.jXbXhXkXcXjX2X,XpXY.,X<X1X,XL.Y.,X1X2X1X:Xu.wXY.U.T.:X,.w.,.d.:Xf.J.J.a.i.u.d.,.f.A.d.u.5.D K @ @ C e q q # & & & } yX .yXo.o.} rXI I yXX.*./ X.tX/ | *...../ ( *.} | | | *.tX*./ / / / BXtX/ / *.{ M M C C C C U  .U } I C V M V C M 1 1 I 1 @ K l.J.R.wXs.S 0XuXrXK K K U U K N U 0XrXV X.| / ` $.%.-.ZXFXGXGXFXLXFX_ GXGXLXFXLXHXHXDXZX;.%.&.FX-.GXGXHXHXZX~ HX-.| HXBX&.%.BXFXBX=.-.[ ..tX] $ o   o @ @ @ & # @ @ u b h h >.,.7.7.<.<.<.v.n.v.n.n.b.n.b.b.<.T.F.d.w.h A.H.H.G.C.C.G.G.G.U.V.C.Q.!.}.oXoX).).oXoXoXoXoX~.).).).%X%X+X)./.,X1.0 s.F.Q.!.+X#X+X#X#XoX~.$X$X$X%X%X%X#X%X$X$X%X~.&X!.`.[.R.<.,.,.A.L.5.m.T.G.F.M.n.V.G.Q.^./. X}.~.|..XQ.^.^.]._.C.`.`.2XG.T.:Xk.9 a g.P.A.S.F.T.G.G.b.i.t.G K M 1 1 , , > ^ O.' ^ , ; < * e S r.D.R.G.N.B.V.d.c.h.j.a.d.;Xy.y.l.g.l.G G G K F S G e.z.x.l.t E 0XA S 0 b F c.x.G F G G F g.l.z.j.A.S.S.S.j.h.F d S l.x.x.s.h.j.A.Y.L.A.J.j.d.d.d.f.d.d.d.d.s.p.p.p.t.t.t.s.r.w.",
"p a S F b c Z A G G F e.r.r.q.r.u.a.a.i.b.n.n.M.M.S.m.i.a.u.u.p.d.a.5.a.A.D.S.K.L.L.m.D.k.l.K V V & x e t F r.p.S.S.F.G.U._.'.[.'.G.'.5X<X'.F.T.S.m.v.M.V.F.C.G.'.1XI.S.K.F.2X].4X4X|.].].]..X.XXXXX4X4X4X2X|.|.`.[.[.<X<XpX;Xb 9 F j.G.|.|.].'.'.2X|.|..X2X5X].`.XXvXjXaXaX3X3X.X2X.X2X3XhX6XjX'.Z.<XQ.aX`.Q.`.].^.|.|.3XhX7X@X2X[.|.6X7X8XXX.XjXsX].'.pX{.4X|.G.L.g.9 0 D d.R.:X:X<X].|.2X,XwXeXP.n.C.3XlXhXlXkX3X2XpXpXY.'.dX5X,XK.Y.:X1X2X<Xb.u.wXI.,X1XwX1.u.,.a.R.u.J.A.m.m.,.i.a.A.m.7.A.a.y.J # @ V M N r 9 # & & & C rXo. .rXyXo.yXrXC X.X.X.| =.*.| ../ ( | / P ^ X.| | | X.*.=.X.B / } | =./ P =.| 1 V M C N C o.rX} U V I M C V V V % C M @ K x.L.:X:Xx.F J 0XU H U K K H I U  .} U / / | *.| ..FXGXGXKXGXHXLXHX%.DXDX-.-.ZX-.FXDXZXZX$.DX%.-.FXHXHX-.-.-.FX&.-.%.-.tXBX=.&.=.=.| ! =.-.B + X X @ & @ # # e # @ # y n 1.1.,.<.i.i.<.<.N.n.n.n.n.n.n.F.n.n.9.'.I.d.w.h J.U.(.G.G.Q.^.G.G._.Z.Q.`.OXoXoX).oX+X+XoXoX}.).~.}./.).).~.oX~./.:X1.0 s.F./.oX+X%X#X#X#X%X%X$X$X$X%X$X$X$X$X$X$X#X%X~.!.^.{.K.i.,.>.k.P.a.Y.H.B.F.C.V.U._.Q./.|.XX).!.|.|.Q.^.Q..X_._.[./..X'.T.:Xp.9 v F r.A.K.F.'.U.'.M.a.r.G A M % < , > 6 ] O.^ 3 ; < 4 * e c 6.b.T.G.N.Z.V.m.d.j.j.b.A.P.q.y.l.x.l.l.G A Z A Z G e.s.s.x.t  . .A a q v y.x.0Xl.F G G S l.x.x.z.J.A.A.A.;Xh.F p F l.x.x.t.h.j.A.S.S.d.j.d.a.a.a.d.d.d.p.p.u.w.w.w.w.w.r.p.r.r.",
"p p b F b c Z Z A G F e.r.6.q.r.p.a.a.i.b.n.n.n.n.S.b.8.a.u.5.u.A.j.u.p.a.b.A.m.A.p.8.8.6.l.A C V & x r w b t.p.K.S.F.G._._.'.'.[.^.].^.G._.T.T.I.S.m.i.n.V.T.,X'.,XS.b.K.I.<X].4X4X4X].[.[.[.|.|.|.|.2X2XsXsXsX.XdXdXdXpXpXqXF 9 F d.C.|.}.|.<X2X4X4XXXaXaX2X2X/..XhXhXhX6X3X3X|.2XaX2XhXXX3XhX(.B.'._.aX`.Q.].].C.].].6XhX7XXX2X[.|.6X9X@XXX3XjXjX].[.pX{.|.|.'.:Xg.# w y.d.K.:X:X<X].}.[.:X;XwXz.F.C.3XjXkXkXkX|.4X1XpX,X_.2X].'.Y.Y.T._.2XpXm.u.L.b.'.,XwX,.u.a.i.L.<.A.P.m.m.,.i.J.K.S.8.S.m.6.J # @ V N A r N N & @ @ % e 0XyX .rXyXI rXrX/ / tX*.( *.*.tX=.| ] / ] / 6 ( *.| / | X.tXX./ / ( ] ../ / *.| * V C U V I VX .U C U I I U { { C B 1 @ K qXwX:X:XqXF A H U 0XU K U rXo.} } } } { tXtX*.BXGXGXFXFXGXGXLXGX;.ZXLXFXZX-.&.HXZX;.ZXFXZX&.ZXLXHXZXFXFX&.-.' =.HX' -.BXHX$.' =.=.-.tX` * + X X @ # # # q q u q # # a q.,.,.<.8.i.v.9.9.N.B.B.B.B.n.n.G.H.n.N.U.F.p.w.h L.H.(.G.^.!./.^.G.G.C.`.}./.oXoX).oX+X+XoX).).XX}.2X|. X+X~.+X).^.:Xh 0 s.F.|.+X%X$X$X$X$X$X$X$X$X$X$X$X$X$X$X+X#X#X#X%X).^.U.<.u.q.g n 6.k.>XB.C.G.G.G._.].^./. X XoX~.}.}.!.C._.[.`._._.Q.^._.F.Y.w.9 Z F q.a.I.I.'.G.'.F.m.z.l.K e % 1 4 2 2 ! R 7 2 < ; 7 $ q b u.n.G.G.Z.C.C.M.A.J.A.b.D.j.q.y.l.x.-Xl.F N y y y G F s.w.l.t 0X{ y y r Z F g.l.G G J G F l.l.c.h.j.d.d.d.x.x.F t Z l.g.t.y.t.s.j.S.D.d.s.a.d.j.d.d.j.j.a.d.u.w.r.w.w.r.r.r.r.r.",
"y t c S c c A Z A G G F e.e.e.p.a.b.b.b.n.n.n.n.n.F.b.i.a.p.w.r.p.k.p.s.j.A.L.A.A.,.7.5.6.-XK C C % x q 9 d h.p.L.F.F.G.G.G.U._.[.].`.Z.0.G.G.F.b.m.b.<.S.I.T.T.,X,XS.m.Y.n.1X4X4X4X4X2X|.[.^.C././.(.'.[.<X2XaXdXdX{.T.M.L.P.F 9 F j.G.}.}.].2X].2X|.|.2X2X<X5X.X.X3XaX3X6X6X3X.X3XjX3XlXXX6XhX].'..X.XjX/.Q..X].C.].].aXhXhXXX].]..X6X7X@XXX6X6X6X|.4XdXdX X/.G.:Xl.9 0 e.J.R.H.U.1X].].2X,X:XwXA.,X_.jXkXbXkXbX X4X1XdXdX_.1X2X'.S.Y.<X1X<X,XL.u.R.L.gX:X;X>.u.L.i.K.<.b.R.m.a.7.b.K.M.Y.8.L.m.r.l.# @ R N A v r # e k % # # % U yXrX .yXo.yXX.} B BXBX( | ..-.=.( | ( ( / P ( X.| | } *.yX*./ / | | | | | *.| 1 M C U  .U yXyXU V M V } } / M C % # y x.J.Y.L.z.S l.rX .U K H rXyXrX| X.X.} ..*.=.GXHX;.-.-.FXZXKXGXFXZXZXFXFX;.-.-.-.DXFXHX&.FXGX;.HXZX-.-.FXNX-.=.=.-.HX-.-.-.%.$.&.tX-.B $ X   X & # q 9 q q u y q # # c w.<.<.9.v.v.n.n.N.B.V.C.B.B.n.9.B.F.n.N.V.I.f.f.h A.F.U.G.^.Q./.].G.C.Q.}.OX!.~.+XoX).oXoX}.}.XX}.`.2X].|.oX~.oXXX'.:Xh 0 h.G. X%X%X$X$X%X%X%X%X$X$X$X$X$X$X$X$X#X#X%X%X%X+X}._.b.j.e.D D 6.k.S.G.^.'.G.C.^.`././.oX X X).}.}./.Q.].Q.Q.Z.Z._.^.B.n.:Xr.9 v F p.u.L.T.T.F.T.F.A.s.l.K M * , 2 < < 7 , < = + + , $ e S k.n.G.C.Z.Z.B.M.m.K.b.i.a.p.g e.F F l.G a y y N y A S g.x.g.t rXH e y y A g.y.F G J J G A F G g.g.g.t.s.t.m F Z 9 0 S F y.y.t.s.j.K.J.j.j.d.A.K.J.A.A.A.A.A.d.a.s.p.u.w.w.s.r.r.",
"y u A A v v v A A K K A S D e.r.7.b.b.b.n.B.B.F.n.F.b.b.J.p.4.r.r.h.t.g q.s.J.A.D.D.b.6.e.J H C C % x e 9 b n j.A.M.I.F.G.U.V.G._.].].`.^.^.'.F.A.u.u.p.A.S.,XG.G.T.T.Y.F.n.<X<X].`.3X3X4X2X(.(.G.G.B._._.^.[.<XpXpXpXS.p.z.-XF 9 S h.T.G.`.].`.]..X].Q.G._.1XdX_..XaXaX3X3X6XXXXX6XkX6X6XhX6X3X].4X2X|.3X/.XX].].B.[.].[.=XhXhXaX[.jX3X6X6X6X6XkX6X X6XlX3X X/.G.R.g.# i G d.C.G.^.1X1X1XdX2X,X:XY.U.].lXkXlXvXvXvXaX3XsXdX{.{.[.{.{.1X<X1X,XL.h.c.x.qXeXeXeXD g z.d.Y.i.S.K.m.K.A.i.S.F.Y.A.A.j.t.J e @ C K F t v u u i y i # # & V  .rXo.{ o.} X.} I ( yXBX| | BX=.=...( | } I | | | | / | yX*.| I I } *.] | *.{ 1 M C I U C  .yXo.I { I / yX{ / % @ J g.d.R.Y.P.l 0XrXyX} o.uXyXo.o.X.=.( ..BX=.GX-.&.HXFXFX-.-.ZXFXGX&.;.-.-.FX' FX;.;.FXFX-.KX-.-.FXFX-.-.FX&.-.&.FX&.-.BX' ..*.=.&.( 7 + X X @ & & 9 q w w w p a q @ 9 n u.<.<.8.N.C.B.Z.0.'.B.G.U.F.b.S.S.S.9.n.M.N.m.d.,.m.m.T.U.N.Q.Q.C._._.OX~.oXoX).).).)./.}.`..X[.[.'.^.^.].|.oX)./.G.j.d 0 s.].+X+X#X$X$X$X$X$X$X$X$X$X$X$X$X$X$X$X%X%X%X#X%X)./.N.a.s.q.d e.P.A.U.^.^.C.C.`./.}.~.oX X@X/.|.}.`.].[.].`.`.Q.Q.'.U.T.I.p.0 l t.k.a.J.K.v.i.K.J.a.h.g.K % < < < , + + O + . . O < 1 e G h.b.B._.N.n.n.S.m.A.A.p.p.h q.F G a G J u u N N H y v l.t.g.t uXH % e 9 G l.t.g.F G l.G K G Z J l.G g.g.c y q # # 9 i s F g w.d.f.J.m.J.d.i.m.K.m.K.m.i.a.a.a.d.a.a.j.d.7.r.r.6.",
"e e y Z v v A K A K K J G g.y.w.7.b.n.n.B.B.Z.B.B.F.b.b.A.u.4.e.r.g.e.g q.w.p.d.S.D.D.7.g.J K N { x x e q b n d.Y.I.T._.'.[.'.[.^.'.].|.].].G.v.A.w.h.r.A.F.G.G.G.T.T.R.b.b.,X1X5X|.3X X|.4X5X2X1X'.U.'.'._.`.[.[.{.pXA.s.x.-XF r Z j.I.U.[.[.[.Q.|..X].[.{.'._.[.2XaX3XXXXX3XXXXX6XkXkX6XjXjXaX.XaXaX3XlX X3X|.<XG.<XU._..XXXOXC.Q.aXaXlX6X X}.6X@X X8XkX6XXX|.^.R.g.# i g.A.U.^.`.2X'.H.2X4X^.I.I._.`.lXbXcXjXjXjXsX3XsXaX{.[.[.[.2X2X1XU.L.j.x.c.x.qXeXeXeXb D z.a.:XS.S.Y.A.a.A.A.L.D.b.a.J.j.t.G # o M J G S Z p p t c a u & @ & % I o.} { o.yXX.} } X.} *.X./ HXX.| *./ | X.| | / | tX| { X.X.X.} / } | | *.tX{ 1 M C N C M I rX} C I I C / / M @ J l.P.wXR.d.S 0XU o.rXVXyXyXo.X./ / ..BX..=.BX-.LXKXHXFX;.-.HXLXFX%.LX&.;.;.GX-.-.FXFX-.KX-.HXAX%.HXtXFX-.FX%.HXtX&.GX*.%.&...] / 1 o X @ @ # % q i w j w d h b i @ 9 e.i.8.2.2.N.N.B.N.B.'.F.9.b.7.i.a.i.L.b.<.v.I.Y.<.<.m.i.K.F.N./.`._.C.!./.oXoXoXoXoX)././._.^.U.U.G.G.G.G.C.!.!.!.!.D.h.d 0 d.].oX#X$X$X$X$X$X$X%X$X$X$X$X$X$X$X$X$X$X%X#X#XoX~./.0.8.p.t.g e.z.A.F.C.^.Z.C.`.`.~.).oXoX X/.|.`.^.^./.].[.}.`._.'.'.'.:Xs.0 f r.d.d.m.A.m.m.J.J.j.s.g.K % < < , , $ + . . . + ; , 1 % S r.8.B._.C.n.b.n.b.S.A.u.p.w.g.F G Z J K u z y N K N A g.g.g.a uXU e % q F y.w.t.D F l.G A A A J J v c S v z x % # y K F F c.s.u.,.d.d.d.7.<.i.b.b.b.v.i.a.a.a.A.f.7.u.p.w.4.m g ",
"u r a c c c b F A A K F F g.r.p.7.b.b.v.n.n.n.N.N.M.b.i.a.5.h n r.t.q.g q.w.f.b.S.S.L.a.g.l.A e { x x r w f g a.I.V.G.C.^.`./.`.'.[.]._.`.[.T.m.z.g g h d.Y.N.n.'.T.R.R.a.A.:X'.^.`.3X X|.2X].2X4X4X].2X.X`..X].[.[.pXI.A.x.x.S A Z x.F.G._._._.`..X.X].<X<X].].2XaXaXXXXX6X6X6XXX6XkXkXkXkXjXhX`.2XaX3XhXXX4X].[.G.{.G._..XXXOXQ.Q.aXaXlX6X3X X6X6XXX6XkX6XXX X`.:Xg.# 9 g.L.[././.2X1X^.sXsX_.U.T.].`.kXbXkXaXhXjXjXhXjX3X[.dXpX<X2X2X1XY.A.p.q.t.;XqXqXqX0XS D z.i.:XF.n.K.A.m.A.S.:XD.A.a.P.a.r.l.# @ C G F S S s s s S a t i q # @ % I  .rX} I JXBX{ tXX./ =.JX( X.X.} ..*.| tX*.| / } tXX.X.X.tXX.} / / tX*.*.yX{ % % k k M V V { | I M * % M M @ K y.A.L.wXz.S H U } X.rXrXo.} | | tXGX*.FXHXFXLXHXLXGX&.-.&.HXKXHXKXHX#.ZXFX;.-.GX-.%.KXHXFX-.;.%.%.FX-.-.FX-.-.tX&.` ( &.&.&.P o   o o @ # % q i r d d d h g D r # w r.<.2.9.9.0.B.Z.Z.G.F.I.i.i.,.,.A.A.A.<.<.m.M.v.<.i.m.i.m.V.Z.`.`..X`.!.}. XoX).oX~./.^.C.V.V.n.n.2.9.n.B.G.^.). X`.T.x.d 0 f.|.%X#X#X#X%X$X%X%X%X$X$X$X$X$X$X$X$X$X$X$X#X%X~.~./._.M.j.h.q.>.u.v.G.C.^.Z.Q.`.`./.oXoX).oX~. X}.!.^./.`.`.}.OXC.C.G.T.:Xs.0 S s.j.J.J.K.L.L.P.J.J.a.g.J % 1 , 7 7 , O + + O > , , 1 e F p.n.G.`.C.C.n.N.v.S.K.a.p.s.x.D s p Z A r z e K H N y Z D l.a uX{ k % e Z r.5.r.r.g.l.F F Z Z F F c Z F c A K e # A l.G e.c.r.,.,.u.p.p.5.7.8.i.b.m.i.u.d.u.p.s.p.4.5.w.q.F S c ",
"u t a c c c b b Z Z Z S F y.r.p.u.a.i.<.9.N.n.n.N.b.v.i.a.5.h h q.r.q.g >.f.m.M.n.F.Y.A.h.l.Z e H % x u t d g d.Y.V.C.Z.^.`./.].[.[.].^._.{.I.K.z.q.g h j.:XV.C.1XG.Y.L.d.L.:XG.^./.XXXX.X2X].[.4X4X].4XaX.XaX2X4X4XdX:XP.x.x.Z J a z.S.G.Q.Q._.`..X|.`.[.2X4X2X3X3X3X3XhXkXkX6X6XkXzXkXkXkX6X6X}..X3XaX3X.X2X'.G.n.F.U.{.`..X.X2X[.jXaXhX6X6X6X6X6X6XkXkX6X6X|.].R.g.# 9 g.Y.<X}.!.4X2X5X4X3X].,X{.|. XbXbXkX6XlXlXkXkXkXhXaXdXsX[.1X<X,X:XJ.s.s.s.P.;XqXqX0XS D P.a.:XF.9.S.A.d.m.b.L.D.j.p.P.j.h.-X9 % N g.g.n g f g D n s t a y r # @ @ M { BXyX} X.yXX.X.yXyXtX*.B | *.tX=.tX| *.tX*.] | tXX./ yXBX*.I { X.BXyXX.I C M & % k & V { } | / V $ 1 1 # A y.P.Y.m.P.l.K U | X.X.rXX.I *.LXLXFX-.-.HXFXGXKX;.%.FX&.FXGXGXKXFX;.ZXZX&.FXHXFX-.LX-.FX-.AX-.-.-.FX-.-.-.` %.GXP *.BX..| 7 X X @ @ @ # 9 q i w p h h h g ,.r.t # j p.9.0.N.0.0.C.^.C.G.I.P.r.q.w.>.s.7.A.i.<.v.K.a.1.d.d.i.m.V.C.].`.].`././.oX@XoX!./.`._._.I.I.K.E.V.B.B.F.G./.}./.].T.x.j 0 a.|.+X%X%X%X%X$X%X%X%X%X$X$X$X$X$X$X$X$X$X$X#X%XoX}.}.G.M.j.h.4.,.a.S._.C.^.Z.Q.`.}./.oXoXoXoX). X|.Q.].].`.`./.!.Q._.G.T.:Xs.0 S s.j.L.K.K.Y.Y.P.K.J.j.g.J e 7 , 4 4 , , 4 4 2 2 2 7 M e F k.F.^.^.Z.C.n.N.n.I.Y.a.f.j.x.b d t a Z y z e U H N y S F l.t uXU M % e a r.5.w.t.g.g.F S Z v Z A Z Z F Z N N q # z J J l.y.e.r.>.6.4.e.6.5.u.a.j.k.5.4.r.g.r.g.g.g.g.g.S Z A z ",
"r r y A c S F c v A Z F G g.e.6.w.p.u.,.u.a.b.m.i.b.b.d.d.r.4.4.>.u.5.h ,.m.K.M.n.V.G.b.p.t.b z H * M e y w f s.P.M.V.V.G.].`.]./.]..X`.]._.n.A.d.s.>.,.a.V.G.].|.G.K.L.x.J.Y.B.|.oXXX X|.2X].].2X2X[.2XdX2XaX3X3XsXdX:X;Xx.l.A J a z.I._.`.`..X/.}.|.|.2X2X|.|.XX3X6XhXkXkXlX3X6XkXzXzXkX7X8X6X XXXlXvX3XaXdX<XV.b.S.F._.C.}.|.3X.XjXaXhX6X6XXX X@X@XkXkX6X6XXX].R.l.9 9 g.:X<X|./.4X4X2X2X X`.dX<X2X6XbXxXkXkXcXlXkXcXkXjXaXaXfX[.1X,X:XwXP.z.h.j.P.;XqXqX0XS D qXK.R.F.n.Y.L.a.A.A.L.A.j.s.P.;Xh.-X9 % N g.;Xh.w.4.>.q.q.D b s s t u q @ @ & I X.JXX.} yXVXyXyXyX} | *.X.} JXFX..&.=.*.&.$.&.tXtX} X.BXX.X.X.U rXyXU C M % x & % $ I } } } B B C % # A l.;XwXJ.x.S K yXX.X.tX} } *.tXFX-.;.FXHXNXHXKX-.FXLXFXHXDXLXKX&.&.FXFX-.FXFXFX-.GXFX-.-.-.FXFX-.-.$.FXFX&.-.-.[ -.=.*.( $   X o & % # q i w p d d h ,.,.,.5.h.p # j p.n.Z.Z.0.0.Q.Q.Z.G.Y.t.f w l.q.5.>.p.7.,.b.K.a.i.m.a.a.S.F.G.]./.C.Q.Q.!.). X X~./.Q._.U.I.I.E.E.n.n.n.V.G.`.|.|.Z.F.x.d 0 m.|.%X#X#X#X$X$X$X%X%X%X$X$X$X$X$X$X$X$X$X$X#XoXoX}.`.C.I.A.w.>.,.b.G.].^.`.Z.Q.`.}./.}.oX@X XoX|.|./.|.`.Q.Q.}./.`.[.'.1X:Xh.0 s r.d.J.L.K.K.Y.Y.K.A.d.g.J e 1 , 4 7 2 2 4 4 , 2 5 B C e S p.F.G.Q.Z.B.N.N.b.K.K.a.p.s.g.m d p a A A e % k % e y F g.G w uXH x % q v y.5.6.t.y.S Z v Z A K K A v A A N x x q e A J G G G g.b b d c s b 6.g.l.g.b s S G S A K A A A z N N N ",
"e e N A A A A v z N N A A F F b m e.q.w.p.d.a.a.i.a.d.j.h.t.e.e.5.p.w.h w.j.K.M.F.F.F.b.7.r.S A { M e e y a f t.J.m.M.n.G._.^.'.(.(.]._.'.T.S.wXP.x.4.5.7.n.G.].`._.L.qXqXx.:XG./.).3X|.|..X`.^.<X2X[.[.<X[.2X.X4X4X4XR.P.g.G A J Z z.Y.'.`.`.=X`. X|.|.2X2X|.|.XX6X6XhXkXlXhX X6X6XkXzXzX7X7X8X3X XhXvX3XsX2X{.n.K.I.F.G.^..X|.aX.XjX3XaX6X6X6X8X8X@XzXkXkX8XXX/.Y.g.9 9 y.Y.]. XXX3X|.|.8X6XXXsX1X|.6XbXxXzXlXbXlXkXbXzXkXjX3XsX<XdXT.K.P.h.x.r.j.;X;X;Xl.-XZ D qX:XY.T.F.R.R.J.J.A.L.P.P.x.x.z.x.-X9 & N g.;Xa.p.u.5.u.w.q.g g m d p A u % @ @ % rXyXrXX.rXVXX.| tXtX| | HX=...-.=.=.' ] =.` | tXtXX.JXJXo. . .M C { U C x % x % @ $ } X.V { V C % & K l.J.A.J.qXK N rX=.*./ X.*.HXtX-.FXFXFXGXGXGX-.GXKXKXHXHXHXGX&.ZXFXZXFXFXFXHXFXLX-.;.;.-.GX-.FXFX%.-.FX` LX' ^ LX=...B o o X o & # # q w w d d h h ,.<.<.7.<.k.d 9 h a.B.Z.Z.0.0.Z.!.Z.T.d.j w 9 G e.z.p.5.5.u.J.i.<.R.d.u.A.L.F.G./.Q.C.Z.!.`.|.).~.).!.Q.C.C.V.V.M.n.I.U.U.F.B.Z.!./.Q.H.x.d 0 m. X%X#X#X$X$X$X$X%X%X#X$X$X$X$X$X$X$X$X$X$X%X~.~.~.Q.G.R.J.,.1.<.B.G.].^.`.Z.Q./.}./.~.).@X X X). X/.`.`.Q.!.}.OXOX`.]._.Y.h.0 s r.j.J.Y.I.S.I.R.Y.S.D.h.J % 1 < 4 4 4 3 2 2 2 6 6 7 M e S h.I.G.C.B.m.i.b.a.m.d.r.s.t.y.F s v u z u # @ # @ e A F S F y uXV % & e K G e.D G F Z A z N N N N N N N x M x x % & N H e N z z u z z z z z A G G K z z N z N N N x x x x % % % ",
"M M M M x M M x M M M e x N N A c F D n r.g.r.p.r.w.r.g.e.g.e.F g.g.e.n e.s.j.z.L.D.D.j.h.e.c A C M e e y Z S r.x.A.Y.F.U.'.'.'.:XY.:XY.:X:XP.eXeXx.y.t.s.:X:X,X5X1XP.eXuXx.wXU.&X~.3X|.].'.^.^.].1X'.'.{.'.[.].4X4X4XT.L.g.l.J K G j.:X'.^.Q.|.XX6X3X|. X3X3X8X6X8X8X8XkXkXhXXX3X6XkXzXzX9X9X7XXX}.XXjX.XsX{.I.S.Y.Y.I.'.(.3X3XjX2XjX.XXX3XhXhXzXzX7XzXzX8X7XXX`.U.g.9 9 e.I.`.|.XX3X].4XjX@XhXdX1X|.XXbX9XzXkXbXkXbXbXkXkXlXaXjX2XdXY.j.P.h.h.;XJ.L.:XqX-X-Xt D P.:XI.T.Y.S.Y.a.m.a.A.J.;Xx.x.r.x.-X9 # A g.L.8.i.m.u.a.u.r.g 4.r.f d a y e # # & X { BX} X.X.X.X.| X./ | BXGX=.] tXHXBX%.[ ..=.( =.X.I X.rX . .yX .N C V M M & % % $ $ I yX{ B B * % J -Xj.a.L.t.K  .X.I ..=.*.=...&.GX-.&.HXKXHXFXGXNXDX-.&.;.GX&.;.ZXFXFXFXHXGXZX-.-.ZXFX-.FX;.-.%.%.FXGX&.FX) ' GX| | 7 o X X & & # q r 9 w d h g h ,.<.8.8.8.<.A.d 9 g a.B.0.0.0.0.0.&XQ.T.w.0 i 9 Z y.x.r.j.j.,.f.m.u.J.d.u.A.L.n.F.^.^.'.U.G.].|./.~./.}.`.^.^._._._.G.N.n.V.F.C.C.`.|.].:Xx.j 0 b. X%X#X#X#X$X$X%X%X%X#X#X#X%X#X$X$X$X$X$X#XoXoX).OXQ.C.Y.m.<.8.F.'.|./.Q.|.Z.`.`.}./.~.).8X+X+XoXXX}.|.}.OXOX}.~.!.`./.G.S.s.0 b g.P.L.R.I.F.I.T.T.S.L.k.l.e 7 , 6 4 6 3 6 6 4 6 6 7 1 e Z g.P.S.N.b.f.p.s.r.w.q.m g.l.G G A N e N % & & & @ H K K A A K rXM & @ % N A A z A K N N M M M % % M M % % & $ $ $ $ M C % % % e % M M M M x M M M M M 1 M 1 1 1 1 1 1 1 1 1 1 1 ",
"1 1 1 1 1 1 1 1 1 M M M M C C N N K A A A G G G G G G G K K K K J G A A G G G x.x.g.-X-X-XG z e & x x z z K F g.h.k.J.D.L.:XL.;XwX;XwXwXwXqXl.eXiXl.l.g.e.qX;X:X1X>Xx.0XJX0XeXS.H.(.1XU.F.Y.T.1XU.'.T.R.R.T.1X1X5X2X1XT.;Xh.-X0XA G j.:X'.Q.Q.|.|.6X6XXX3X6X6X8X7X7X7X8XkXkXkX6X6X6XkXzXzX9X9X9X6X/.XXlXaXnX{.M.R.Y.S.R.<X^.3XjXaX.XaX.XXX|. X X7X7X+X8X8X8XzX6X XT.x.9 w y.Y.]. X X|.|.3X3X~.hXdX2X4X6XbXzXzXkXcXlXbXmXkXkXlXjXvX2XpXF.j.;Xx.t.P.L.:X:X;Xl.J r e.z.:XI.,XT.N.K.i.P.L.L.P.qXqXeXg.qX0X# @ K h.;Xb.b.S.8.b.f.j.r.g 4.h f S s a r e & & o M BXX.*.yX*.yXtXtXyX| *.HX-.*.BXBX*.&.&.$.../ tXX.V U U V 0XrXrXV % M C C % % $ $ 1 C C B B % @ K x.P.A.J.c.J H I ( BX-.BX*.tXHX-.&.HXGXFXGXFX;.;.%.-.-.GX-.%.GXZXHXLXHXGXFXHX-.;.LXNX-.&.-.HX%.FXFXFXGX:.;.FX[ ^ $ X o @ @ # # 9 i w p d h >.>.,.<.<.9.n.9.<.A.d 9 >.8.Z.Z.N.0.0.2.0.Q.n.s.w 9 9 Z g.4.6.r.p.p.J.a.,.J.j.u.J.L.b.B.^.G.U.U.G.C.^.|.).!.}.!.Q.Q./././.Q.C.V.V.C.G.^.!.!.^.Y.x.d 0 m. X%X%X%X%X$X$X%X%X#X%X#X+X%X%X%X%X$X$X$X#XoXoXoX}.`.{.T.K.i.M.T.].|.!.Q..XZ.].`..X}.}.).6X@X@X X@X).XX.X`.OXoX}.`.`.2X^.F.j.j S h.;XR.I.I.F.I.U.F.n.D.h.J % 7 , 6 6 3 6 5 6 2 4 5 6 1 % v F h.r.w.s.y.y.y.F l p a G J N N x e % M & o $ $ @ V N A K N H { % $ o % % e M e M M M B B 1 7 7 1 7 1 1 1 7 7 , < 1 7 1 1 1 1 7 1 1 1 1 < 1 1 - $ - < > > < > > > > > > O > $ $ ",
"< > > > > > > > > < < < < 1 1 1 1 1 1 1 1 1 1 1 1 M M M M M M M C C C V V V H E E E E  .{ E V V 1 1 M M V H A A J G g.g.g.l.-X-Xx.h.g.l.-X-Xl.G A K E G 0 F x.wXwXqXG  .uXE -X;X>X>X;XL.;X;X;XwX,XY.Y.D.A.Y.,X>X1X1X1XH.D.x.l.l.J S P.R.1XQ.Q.`.|.).6X X6X X6X+X+X7XzXzXkXbXkX6XhXhXkXzXxXxX9X7X8X6XXXhX3XvXdXT.R.:X<.R.<X^.|.jXhX.XhX}.}. X6X6X8X6X@X@X9X#XxX8X).'.x.0 9 y.I..XXXoX|.|.3X}.6XhX[.B.|.XXzXxX6XhXcXlXbXbXbXlXXXaXjX4X<XY.P.x.x.x.z.:XY.m.6.g.v u D z.L.K.pX,XI.Y.S.L.m.:XwXgX-XuXx.qXl.# @ u h.L.D.8.M.K.m.P.f.j g w.q.g D D d p i y e # @ % | yXyXBXyX| HXJXtX..( HXHX=.tX*.tX-.&.-.&.I tXyXU N K K U  . .{ { x x M M M M C C M 1 1 $ @ A g.;XA.P.c.J k I ..=.-.-.LXLXHXFXFXGXZXDXFX;.;.%.GXFXZX-.DXGXZXGXFXHXHXFXHXHX-.FX;.FXDXDX&.&.;.FX-.-.:.FX;.[ 1 o X o & # # 9 q i 0 w j h >.,.,.<.<.2.0.9.9.9.S.j 0 >.b.B.V.2.2.2.0./.Q.F.J.l.9 i c x.;Xn q.>.j.u.d.,.p.p.j.j.S.S.n.G.C.N.V.C.^.!.&X).oXoX X}./././.~./.C.Z.G.G._.].!.!.^.S.x.j 0 m.6X%X#X#X%X%X$X$X#X%XoXoXoX~.%X#X%X$X$X%X#X~.OXXX!._.B.I.m.m.n.1X|./.|.!..X0.|.|.OX X).). X@X+XoXoX X|.`.Q.OXoXoXXXQ./.^.:Xj.0 S t.J.I.U.U.G.U.U.F.9.L.;Xl.M 7 6 6 6 6 6 4 6 4 4 4 6 M & z Z G g.l.J A K A u y r e N % e e & @ @ @ +   + - 1 M M M N x M 1 $ $ $ 1 1 1 1 1 7 7 7 7 7 < , < < < < < , , 2 , 2 < < < , < , , < > ; ; > > > ; ; ; ; ; ; ; ; ; ; ; ; ; ; ; ; ; ",
"> > ; ; ; ; > > > > > > < < < < ; ; ; ; ; > < < < < < < < < 2 2 < < < , , 1 1 1 1 M M M 7 B R 6 R B B 7 M V V E H H E E E E E E E E J J E  . .E V V E E z K G -X-X-XN C { M K -X-X-Xe.F G G F g.-Xx.h.h.x.-Xx.;X;X:X:X;X;X-X-X0XJ G ;XT.[.^.Q.Q. X X6X X4X X6X8X+X8X7X7X7XkXkX6X8XkXzXzX9X9X9X9XzXkX3XhXaXvX[.F.v.R.A.:X1X]. XjXhX.XaX|.|. XXXXXkX8X7X7XxX7XxX8XXX,Xx.9 9 t.Y..XXXoX|.].|.}.@XhX[.B.2X6XbXbXkXlXmXcXcXcXbXkX.X.XvX2XdXI.;Xs.c.x.P.:X:XD.k.l.A u y.x.wXR.,XT.T.Y.L.L.b.L.wXeXx.qXx.qXJ # @ u h.L.A.8.m.K.b.i.,.j q.t.w.q.q.6.h j b t i e & X $ B | yXyX*.X...tXLXHX/ *.tX} *.HX=.AX;.-.*.}  .yXH K K V V U rXyXyX .I M 1 B I / I ( / * @ A l.;XR.wXqXK rXJX-.-.BXKXGXHXGXFXHXZXZXO.$.%.;.LX&.;.FX-.HXHXLXZXZXHXZXHXHXFXHX-.-.HXDX-.FX-.BX-.-.] =.$.P O X o @ # # % 9 i w w j h h ,.<.<.<.<.<.2.0.B.B.9.S.j 0 4.a.B.Z.2.2.2.0.^.G.F.J.-XZ G G k.6.r.t.g 5.J.d.,.u.d.j.a.A.n.V.G.G.Z.^./.|. XoXoXoX X@X X XXX X)././.C._._.]..X/.}._.S.g.w 0 J.3X#X#X$X#X%X$X$X#X%XoX}.~./.+X$X%X$X$X%X+X~.OX|.!.^.C.n.i.m.F.^./.6XXX}.3XZ..X|.OX!.}.).oX@X+X+X+XoX|.`.Z.!.}.oXXX}.}.].,XA.0 D h.L.T.{.'._.U.T.F.n.D.x.J M 7 4 6 6 3 4 4 4 4 4 4 7 1 @ M N N N N N k e k M M x M V C B B 7 7 4 4 , B B R R R R V C C B B 7 , < , , < < , , , , > = > > > < < < < < < < 2 < ; ; ; ; > < 2 2 < ; ; ; ; ; ; ; ; ; ; ; ; ; ; ; ; ; ; ; = = = ",
"; ; ; ; ; ; ; ; ; ; ; ; > > < < : : : : : ; ; < < < < < < < < < 2 2 2 2 2 2 , 2 4 2 2 6 3 2 2 3 3 3 T 2 2 7 2 4 7 7 7 7 7 7 B B R R B B R / / [ ) ) ] @.( } V { E  .{ / ] / }  .0X0X . . . .E  .K G G J 0XE J J l.l.l.l.-X0Xl.J F F P.T.].`././.|.XXXXXX|.3X8X8X+X8X7X8X7XzXkX8X8XzXzXzX7X7X9X9X6XXX}.3XhXvX[.I.v.Y.Y.,X<X3X3XkXhX.XaXaXhX6XhXhX6X8XzXzXxX9XxX8X6X<Xx.9 9 c.R.[..XXX].`.]./.XXXX[.C.|.3XbXbXkXcXmXcXcXlXcXlX.XaXjX<XdX:X:Xt.t.x.P.;X:XD.x.l.v u G t.P.L.:X,XpXI.wXL.m.K.;XeXx.l.x.qXJ # o k x.L.L.b.K.L.m.<.1.>.y.y.w.w.5.w.5.g d p t y e @ @ @ 1 I X.tXtXJX} } JXKXtX*.tXtXX.&.-.-.$.tXyX{ rX .K H U C C U V H rXX.I M B 1 C | / / * @ A l.J.:X:Xc.J  .JXKXKXFXHXLXLXFX#._ DXZX;.O.O.HX' FXLX;.ZXHXGX-.ZXFX-.GXHX-.HX%.HXFXFX;.-.-.-.=.=.&.-.^ < + X X @ & q 9 i i 0 w d h >.,.,.<.<.<.9.9.0.Z.0.G.B.S.j 0 s.L.B.C.N.N.Z.C./.^.n.J.x.d b y.k.p.h.g 4.w.R.i.u.7.J.J.a.S.n.T.G.^./. X).).+X+X%X+X@X@X X XXXXX X X}.Q./.`.[..X}.}.].S.e.w 0 J.4X#X#X#X#X%X$X$X#X+X X!.Q.!.+X#X%X$X#X+XoX~.}.}.C._.B.N.m.M.T.C.!.).|. XXX!..X`.`.!. XoX X+X+X+X#X}.|.`.Q.OXoXoXXX}. X|.1XL.0 D h.L.F.G.G.C.B.M.n.b.A.x.G e 7 7 4 4 6 6 6 4 4 6 6 7 1 $ V V C N C V / B V / / | } ^ R R R R ! ! Y Y ^ Y 6 6 6 6 7 1 7 4 7 < > > < < < < > ; > < < > = > > > > < < < > , 2 2 < ; ; ; = < 2 2 < ; ; ; ; ; = = ; ; ; ; ; = = = = = = = ; ; ; ",
"= = = = ; ; ; ; = ; ; ; ; ; : : : : : : : : : : < < < < < < < : 2 2 3 3 3 2 2 3 3 2 2 3 2 : : 2 3 3 T 3 3 3 2 2 3 3 3 3 3 3 6 6 6 6 6 6 5 5 Y Y T T T Y R ! > 7 B R R ^ ) O.` ( | X.| | | | | | X. . . .{  . .{ { { E E 0X0XJ F a e.K.T.].].`.`./.XX X3X|.hX6X8X8X7X7X7X7XzXzX7X7XzXzXzX7X7X9XzX6XXX/.3XaXaXG.B.T.Y.T.'.2XjXXXkX.X`.3XaXjXXX@X6X@X7XzX9XxX9XxX#X8X1Xx.9 0 l.R.'..X.X`.].].`.XX.X<XG.].XXkXbXcXcXvXjXvXlXcXlX3XaXdX2XpXpXP.h.y.x.;XP.;Xj.x.F v y Z f 5.7.F.T.R.M.pXY.K.A.P.wX;Xx.x.-Xl.# o k l.L.A.A.P.L.K.u.,.s.t.e.w.w.5.u.p.5.h F Z u e % & @ & 1 C rXX.X.| } { *.JXrX/ tX*./ $.&.HXtX*.rX{ { rXV k H { H N H V { yXX.C B / B B B * @ J qXj.wXwXx.l.rXKXKXFX-.HXGX-.&.&.DX;.FX#.%.$.O.;.LXZXDXGXHX&.ZX-.GXFX-.FXFXFX-.HXGXDXFX-.-.;.| $.=.B $   X @ & % % q r w w j d h 1.,.<.<.<.<.8.9.0.0.!.0.G.B.S.j 0 t.Y.V.C.Z.Z.C.Q./.^.<.i.z.f D e.s.p.4.t.w.w.pXi.,.J.J.A.a.L.S.,XG.^. X8X).~.#X#X#X#X@X@XoX}. XXX X6X X}./.}..X.X}.}.].S.D t 0 J.|.+X%X#X#X$X$X$X#X+XXXQ.Q./.XX+X%X#X#X@X}.!..X.X!.`.G.T.R.K.T.C./.~.oX@XXX`.|.Q.`.!. X X+X8X@X@X@X X|.[._.[.XXoXoX}. X4X<XL.0 D d.Y._.].].]._.T.Y.I.D.x.G M 7 7 4 4 6 5 6 6 6 5 6 , , + M C M M B B B 7 6 B 6 < > < , < > , 2 2 < < 2 2 2 < < - 1 7 7 2 < > < 2 2 2 Y 6 2 : ; ; > > = = ; ; : : < < < < 2 2 < ; ; ; = = > ; = = ; ; = ; = = = = = = = = = = = = = = = = = ",
"= = ; = = = = = = = = = = = ; : ; ; ; ; ; : : : : : : : : : : : < < 2 2 2 : : 2 < 2 2 = 2 Y Q T T T T 3 3 3 T T 3 3 3 3 2 2 3 3 3 3 3 3 3 3 3 3 T T T 3 Y ! < 7 R 5 6 Q Q _ ^ ) [ ` R 2 6 Y R R 7 R B 4 5 ! 5 1 7 B V C N A v Z p t.L._.]./.Q.^.}.3X|.|./.3XXX@X8X7XzXkXxXzXzX7XzXzXzXzX9XzXzXzX6X3X/.XXaX3XQ.C.<XT.T.G.2XlX@X@X}.Q.3XhXhXXX@XhX@XhXxX7XxX9XxX#X6X1Xz.9 0 g.K.C.`..X^._.'.2XXX`.pXT.|.3XbXbXcXjXjXjXcXlXlXlX3XaX2X2XpXpXA.h.r.x.;Xz.;Xj.x.S z A l.x.z.A.pXpX,XR.R.Y.Y.S.A.;XqXx.x.x.l.9 X k g.j.p.d.J.J.K.a.,.s.s.w.r.r.5.w.p.5.4.n s a u e # e @ @ M M I yXrXX.rXM { KXtX| yXJX$.&.' =.FXtXrXU V rXH k U { U  . .C { X.} ( } I 1 B % @ K x.j.pXwXh.v yXPXHXFXHX-.FX-.DX-.;.UXZX%.ZX' HXKX-.LXLXHX-.%.GXHXDXFXHXFXFX-.GXFX' NX%.&.-.| $./ < o   o @ @ # 9 q w w p d h h 1.,.<.<.<.9.9.2.0.0.0.!.!.!.0.Y.j 0 >.A.Z.Q.Z.Z.C.Q.^.G.F.i.d.w.x.h.p.6.r.w.p.J.L.i.<.K.J.j.A.L.H.,XC.!.).kX+X+X9X#X#X#X@X+XoXoX@X@X+X8X@X+XoX XXXoXoX}.].S.D t 9 z.].oX%X#X$X$X$X$X#XXX.XC.G.]..XXX%X#X@X X/.Q..X].Q.].<XpXwXM.I.G.|.6X6XhXXXXX`.Z.OX!. X@X8X7X@X#X7X@X.XpX'.[.3XoX).~. X|.<XS.0 q.j.T.C.^.`.`.U.I.K.K.P.-XK M 6 , 6 4 6 6 6 4 6 6 4 < 6 + * 1 1 1 , < , %.;.5 ; , , > , < > 2 2 < < 2 > < 2 , < > < 2 2 2 : ; 2 2 3 3 3 3 2 < ; = ; > = = = ; = = : > > > > ; ; ; ; ; = = = = = = ; ; = = = = = = = = = = = = = = = = = = = ",
"= = = ; = O O O = = = = = = = ; ; ; ; ; = ; ; ; ; ; : : : : : : 2 2 2 2 2 : < 2 2 2 < 3 ^ _ ) T 3 T T 3 2 2 3 3 3 3 T 3 3 3 3 3 3 3 3 3 3 3 3 T T T T 3 Y T = < 6 3 T ) Y Y 3 Y ^ W 2 ; 2 T T T Y #._ 3 ) ) 6 6 3 6 B M N K F g.d x.L.'.]./.^.`.|.3X|./.Q.|.|.XX8X8XzXzXzXxX9X9X9XzX9X9XzXzXzXkX6XaX`.XXhXjX].[.'.'.pXG.|.lXzX@X}.`.jXhXjXXXhXlX@XzXzX7XxX9XxX7X6X<Xx.9 9 y.m.B.^.].G.G.(.2X2X`.<X'.2X6XbXbXlXXX3XjXcXkXlXkXaXvXdX<XdX,XL.p.t.x.x.z.;Xz.l.S y A J x.P.J.pXI.F.{.R.R.:XY.D.P.;Xx.;Xx.-X9 X k g.j.u.j.J.d.A.j.5.p.r.w.p.p.w.w.r.w.e.b c a A r q N e # @ x C C o.yXyXyX} 1 | JX*.| FX-.' ' tXBXrX{ U V U  .C e C k rXyX{ 1 / yXX./ 7 B $ @ K l.a.:XL.s.l.yXJXBX-.' &.FX-.DXFXLXGXZX-.O.ZXLX%.HXLXDXO.FXKX;.ZXHXHXGXFX-.FX%.DXFXHXGX&.` &.6 + X o X @ @ # % q w t d d h h ,.,.<.<.<.8.9.0.0.Z.Z.&X~.!.!.0.T.j 0 >.S.C.!.!.!.!.Q.^.C.G.Y.Y.,.d.P.x.5.w.h.,.i.Y.m.<.wXK.d.L.L.T.,XG.^./.8X+X+X#X#X$X#X+X+XoX+X@X+X+X#X#X#XoX@X@X}.oX}._.S.g.w 9 h.'.).%X#X$X$X$X#XoX}.`.Z.V._.`.}.oX+X X|.Q.Q.].`.^.].'.T.K.S.I.G.].6X6X@X XXX`.Z././. X6XzX7X#X#X$X+X2XpXU.'.3XoX}. X).|.<XI.j w.J.,X^./.|..X{.R.Y.P.P.x.A M B , 6 6 6 3 6 6 6 4 , , ^ $ 1 1 7 7 < ; Y ^ Y 5 Y 2 O < ; = ; > > = = < ; > < < < > ; ; : ; ; ; 2 2 > = O O = ; > ; ; > = = = ; = = = ; > = = ; ; ; ; = = = = = = = = = O = = = = = = ; = O = O = O = = = = ; ",
"= = = = O O O O = = = = = = ; ; = O = ; = = ; ; ; ; ; ; : : : : < < < < : ; : < 2 ; : Y ^ Y < = : 3 T Y T 3 T 3 3 3 T T 3 3 3 3 T 3 3 3 3 3 3 T T T Y T T 2 O < 2 6 Y ) Y 2 < T Y T 2 2 T Y Y Y ZXZX+.< : 3 T Y 6 6 7 M K -Xh.h.d x.S.1X|.|.`..X4XXX|.`.`.`.XXXX6X6X8XzXzXxX9X9X9XxXxXzXzXzXkXkXvXvX}.|.hXjX`.].'.'.<X^.|.hXxX@X}.`.hXXXXXXX@X6X@XzXzXxXxX9XxX#X6X<X;X9 9 y.K.C.^..XG.G.G.2X3X`.<X_.|.6XbXbXkX.XaXjXvXjXkXlXjXnXsXdXdX,XL.A.h.g.h.h.z.x.l.G z A J l.x.L.pXF.I.R.,XpX:XY.S.L.;Xx.P.x.l.9 X N g.A.a.j.J.A.A.A.p.h.s.s.w.r.h.h.r.e.y.g.F s Z a i y e e k e % M M U } yXBXyX} } BXHX$.;.;.&.( *.PXX.U U N C  .U N N C rXJXtXI B / X./ / % @ J x.J.:X:Xx.J U tXBX&.ZXFXFXFXHXLXFXHXFX&.GXGXFXGXKXDX-.GXHXZXGXZX-.FX-.;.GX-.FXHXNX-.~ $.%.7 O   o X @ @ # q i u w p s j h >.,.<.<.<.9.2.2.0.0.C.!.!.).!.^.0.T.h 0 w.Y.^.~.!.!.!.Q.^.C.2.T.pX<.a.P.P.4.r.w.u.J.K.M.S.wXL.m.:XL.,X{.^./.`.3X X X+X+X@X#X+X%X~.+X#X#X%X#X#X%X%X@X@X~.~.}.^.S.l.w 9 g.[.oX%X#X$X$X$X#XoX}.].B.V.U.Q.}.oXoX|./.Q.^.`._.`.'.B.F.S.S.S.U.^.}.@XoXoX|./.Q.|.}. X6X7X8X#X$X$XoX[.,XV._.aX X XXX).|.2XY.j r.K.{./.}.|..X{.I.K.J.P.x.N M B , 6 4 6 3 6 5 6 4 7 4 6 + - 1 1 , ; ; W 3 > 6 ) ! < = > > > > = > > < > ; > > < > ; ; : ; ; < 2 < = + + . + O ; ; O + O O ; ; ; ; ; ; ; ; ; ; ; ; ; ; ; ; = = > ; = O O O = = = O = 8 O O O O O 8 O O O O O ",
"O = O O O O O O = = = = = = = ; ; ; ; ; ; ; ; ; ; ; ; ; ; ; ; ; ; ; < : : ; : 2 : : : 2 2 ; = = + : 3 Y T 2 T T T T T T T T T T T T 3 3 3 T 3 3 Y 3 Y Y T < = 6 3 Y 4 T 3 = : 3 T T 3 3 T 3 Y +.ZX+.) 2 . < ) 6 6 4 1 % N l.h.h.d x.S.1X]./._..X2X|.3X4XaX.XhXhXhX7XzXzXxX9X9X9X9XxXxXzX7XzXkXkXhXaXQ./.6XcX2X.X2X^.G.C..XXXkX@X@XXXlX6XhXhXhX6X+X7XxXxXxX9XxX#X@X<X;X9 9 g.R.[.`.aX_.T.G.dXsX.X<X'.|.6XbXbXmXkXlXcXcX6XjXlXhXvXsXfX1XpXS.:Xh.h.q.t.h.P.x.l.v A l.F z.:XwXF.I.F.pXpXT.Y.D.;X;X;XP.h.l.9 o N l.-Xh.h.P.J.j.j.s.x.P.J.w.w.h.h.r.t.D D D s S Z w v u K A K u N k C C { | *.BX..| | tX| =.*.=.} } o.{ N H V N U U V k C } VXJX*.I B | } $ @ K l.L.:X:XqXJ  .HXHXLXHXGXFXGXFXZXGXFX-.LXDX-.LXLXZX-.GXFXHXHXZXFXFX-.;.HX%.FXBX-.%.&.%.] $ X X @ o @ & % # 9 i w p d f j h ,.<.<.<.9.0.2.0.0.0.!.!.!.~.!.).!.T.h 0 p.Y.^./.!.!.Z.Z.C.Z.B.F.R.8.A.P.x.t.w.d.J.Y.Y.n.n.wXI.b.wXS.,X'.^.`.Q..XXX@X@X+X+X~.+XoXoX+X$X$X$X$X%X#X%X8X@X~.oX}.^.S.x.w 9 t.<XoX#X$X$X%X$X#X+XoX.XQ.^._.OXoX+XoX.X/.Q.`.`._.]._.B.,XI.m.b.{.].}. XoX}.}.Q.`.}.!.XX@X7X#X#X9X@X}.'.:XV._.hX@XoX X X|.2XY.j w.m.G.|.|.|.[.'.I.A.d.x.l.N M 6 , 6 7 3 3 4 5 6 7 , 6 6 + 1 M B 7 < ; > > 3 Y 6 2 < = = = = O = - > > ; > < > = = ; ; ; ; ; ; 2 < O . . . . + ; ; ; O O O ; ; ; ; ; ; ; ; ; ; ; ; ; ; ; ; = = = = = O = = ; = = O O O O O O O O O O O O O O ",
"O O O = = = = = = = = = = = = = = ; ; ; ; ; ; ; ; ; ; ; > : > ; > > < < : : : 2 : : : = O . . . . : 3 3 3 3 2 3 3 3 3 T T T T 3 3 3 3 3 3 3 3 3 T T T T T = > T 6 W Y 5 < = 2 3 6 3 3 3 2 7 Y _ ] ^ < + . = 4 5 , , 7 1 e A g.g.d x.m.F.2X`.C.[.sX2XsXsX2XaX6X@XxX@XxXxXxXxXxX9X9XxXxXxXzXzXbXzXkXkX|..XjXjXaX|.!.|.dX'.aXaXhXbXkXkXkXXXkX6XkXkX7XxX9X9XxXxX9X+X8X[.;X9 0 t.K.[.|.|.[.C._.].aX3X2X]./.6XzXzXxXbXbXbXkXjXlXjX|.nXsX<X<X<XT.Y.u.P.z.j.j.;Xz.l.F S D t.J.Y.wXS.F.F.pXY.R.b.Y.P.L.D.D.j.0Xi X M E 0Xg.g.r.p.k.k.s.z.L.A.f.u.d.s.z.x.q.t.y.f s p p A K K K Z l.G u y H U / | *.*.*.=.*.} X.*.tXBX| I I U H  .H k V U U H C M I yXtXX.1 B @ @ K l.wXpX:XP.S rXUXKXKXGXKXLXHX-.FXFXZXLXDXDXFXHX-.FXLX-.ZXFXFXDX-.;.AX;.=.-.-.%.&.=.&.P + o @ @ % % @ % e # u i d d h h h ,.<.<.9.9.0.Z.0.0.&X&X!.!.~.~.!.)./.G.j 0 7.F.C.Q.Q.Q.C.Z.G.B.B.U.R.Y.7.J.t.s.r.d.J.I.,XN.W.{.I.N.I.U.pX`.Q.}.Z.[.oX+X7X7X@X}.!.0.~.+X9X$X$X$X%X%X#X+X+X~.+X).!.V.;X0 9 c.[.@X$X$X$X$X%X#X#X+XoXoXoX+X#X#X%XoX^.^././.`.`.`._.N.,XR.J.i.I.]. XXX}.`.Q.`.`.}.).+X#X$X$X9X7X@X.XpXpXpX2XXX@X+XoX).|.1XR.j >.H.^././.].'.T.Y.K.j.qX0XN 1 6 2 3 6 3 3 3 6 6 7 , , 7 $ 1 M 1 7 6 O 2 W Q 6 2 = O ; = = ; ; > > > = ; ; ; ; ; ; ; ; ; ; ; ; 2 < = . . . . = ; = O ; ; ; ; ; ; ; ; ; ; = = = ; ; ; ; ; = = = = = = = = = = = = = = = O O = O O O = = = = = ",
"O O = = = = = = = = = = = = = ; = = ; ; ; ; ; ; ; ; ; ; ; ; ; ; ; ; < 2 < : : 2 : 2 2 ; O . . . . ; 2 2 3 3 3 T 3 T T T T T 3 3 T T 3 3 3 3 3 3 T T T 3 4 = < Y ^ ) W 6 2 2 3 3 W 5 5 6 7 4 2 5 4 < O . . O < 1 1 1 1 $ M K G F w x.L.G.].Q.G.dX^.C.|.3X.XaX6X@X7X@X7XxXxXxXxX9X9XxXzXzX7XzXzXzXkXkX`..XjXjXsX.X6X6XsX[.aX|.}.XXzXzXzX@XkX6XkXkX7X9XxX9X9XxX9X#X@X<X;X9 0 c.I..X|..X2XQ._..XjXvX.X}.|.8XzXxXbXbXbXmXkXkXjXjX|.cXjX2X[.dX{.K.u.P.P.A.a.D.P.;XF p x.z.L.:XwXm.I.T.pXR.wXK.wXP.L.D.L.k.-Xr @ M H E G F e.r.h.h.p.j.L.K.d.u.d.s.s.s.z.w.g e.S d F l.U K S l.l.S J l.N H { } | tXBXX.BX*.| *.*.yXHXrX{ C  .U U C N V H H { U M % V yXJX| o & H g.qX:XwXz.F rXPXKXLXLXGXZXGXLXGX-.KXFXDXGXLXFXHXLX-.AXHXFXGXZX-.%.-.AXHX-.$...&.| 7 o $ @ @ % % e N # # N i t d f h 4.h ,.<.8.9.0.B.Z.0.0.&X&X!.!.~.~.!././.F.j j d.Y.C.^.Q.C.C.Z.G.G.B.G.Y.Y.7.z.s.h.s.d.K.T.pXZ.Z.[._.B.U.U.dX]./..XC.}.}.oX+X@X6X.X.XQ.}.+X$X$X$X$X$X%X+X+X@XoX+X~.OXG.;X0 0 c.{.+X$X$X$X$X#X%XoXoXoXoX+X#X#X#XoX).].U./.`.`._._._.C.V.a.u.z.K.`.|.}./.`.C._.^.}.~.%X$X$X$X7X@XXX2XpXpXpXaX6X@X#X+X}..X,XR.j >.>X5X|.|.[.'.R.R.L.z.-XJ M 1 6 3 3 3 3 3 3 6 6 7 , , 7 $ * * % 1 1 O = 3 6 2 O + + ; = = ; ; ; ; = = = ; = ; ; ; ; ; ; > > ; > 2 ; O + + + = ; = O ; ; ; ; = = = = ; = = = = = = = = = = = = = = = = = = = = = = = = O O = O O O O O O O = ",
"O O O O = = = = = = = = = = = = = = = = = = = = ; ; ; ; = ; > > > ; ; < < : : : : : < : O . . . + : 2 < 3 3 3 T 3 3 3 3 3 3 3 3 3 3 2 2 2 2 2 2 2 2 2 2 < O < 5 4 2 2 6 2 = 2 Y 5 4 6 2 1 7 1 1 - $ .   o $ 1 * 1 1 * & M H F F w x.Y.G.^.C.^.2XZ.Z.|.4X3XhX6X@X@X7X@X@X9XxX9XxX9XxXxX7X8X8XzXzXkX6XQ._.aX3X|./. X|.[._.aX3XXXkX7X7XzX@XkX6X7XzX7X9XxXxX9X9X9X#X@X2X;X0 0 g.I..XXX X.XQ.`.}.jX3X.X}. X6XzXzXxXbXxXbXkXjXlXjX|.cXjX|.].sXpXm.3.P.P.P.L.L.J.;Xg.S x.z.J.L.R.i.F.T.wXK.:XS.L.A.A.A.A.h.-Xu @ M H E J G e.r.s.p.u.a.L.Y.A.5.z.s.r.w.c.e.D s y.0XJ l.F *XJ l.*X0X0X0X0Xk k { { V I *.| } P ( X.X.X.X.X.{ C { H H N k k C V V I V C M B | 1 @ A g.;XpXwXz.G 0XJXFXHXHXHXLXLXGXZXGXZXGXLXLX;.-.HX;.;.GXZXGXDX' ;.HXZXHX%.=.*...^ 1 + $ $ $ M % x C k C N # u y p b g h >.,.7.8.9.0.0.Z.Z.!.&X&X!.!.~.).!.|.].F.j j A.Y.C./.Q.Q.Z.B.G.G.B.F.Y.L.7.x.h.h.d.a.F.U.[.C.C.`._.B.G._.2X`./.|.Q..XoXoX+X+X@X.X.XQ.XX+X#X#X$X$X$X%X+X X@XoX+XoX/.G.;X0 0 c.'.+X%X%X#X#X+XoX~.~. X X X+X@X@X+X}.C.V._..X`.C.V.V.{.S.a.w.P.K.].4X/./.`.C._.^.}.).%X$X$X$X#X@XXXdXpXpXpX2XXX+X#X+X|.[.{.R.j >.:X5X`.].U.F.R.L.j.h.g.Z % 1 4 2 4 3 3 3 4 6 6 , , , 6 O * * * 1 1 $ O = < O . . O < ; ; ; ; ; > > < = ; ; ; ; ; ; ; ; > > > > < < > > = = = ; = O = O O O O = = = = = = O O = = O O = = O O = = O O O O O O O O O O O O O O O O O O O O O ",
"O O O O O O O O O O O = = = = = = = = = = = = = = = ; ; ; > < < 2 < ; ; : : : : : 2 3 2 < = O O ; 2 2 2 3 3 2 3 3 3 3 3 3 3 3 3 3 3 2 2 2 2 2 2 2 2 6 2 < O < 5 4 2 6 W 5 ; > 5 6 5 R 7 - - - 1 * $ + o $ 1 M M M M M % e H l.g.d x.S.B.^./.'.[.^.].3XjX6XhX8X@X@XxX@X@XxXxX7X9X9X9XxX7X8X7XzXkXkXjX`.'.sX3X].]./.|.[.C..X6X6XkX8X7XzX@XzX@X@X@X7X9XxXxX9XxX9X#X@X4X;X0 0 t.T..X3X|.`.C.`.}.3X|.aX.X|.6XkXzXzXzXzXbXhXlXhX3X|.cXjX|.].sXpXm.,.P.P.J.L.:Xj.p.g.g.t.s.L.:X:Xa.F.T.wXJ.K.a.k.p.j.;Xx.-X0Xq @ V { H G G y.y.t.r.u.d.L.wXJ.,.z.s.t.c.D y.s l.iX0Xl.J l.*Xl.0X0X0XiXiXK J e q H U M C } yX=.B C } X.tXrXU C N H N U N C C M M C C V X./ 1 X & J g.;XpX:XP.l. .tX=.-.-.FXGXFXHXHXDXFXGX-.HXGXFXAX-.=.-.FX&.;.&.-.;.FXHX$.%.] B $ o o $ % 1 M M x C H C V H # y t S f g >.w.7.8.9.0.0.0.!.!.!.!.!.!.~.)./.|.].I.j j j.Y.C./.^.C.B.B.G.G.F.F.S.S.p.x.h.h.j.b.F._..XQ.Q.`._.N.G.'..X`./.}.C.}.oX+X8X@XXX}.`.!.oX+X$X$X$X$X$X%X+X X+XoX@XoX!.F.;X0 0 x.].oX%X%XoXoX}.OXQ.Q.`.`.`.}. XoX}.`.N.N.U.<X{.C.B.n.F.S.d.>.w.u.G.`.Q.Q._.C.C.Q.}.oX%X$X$X$X#X+XXXdXpXpXpX2XXX@X#X+X|.`.'.:Xj >.Y.G.(.'.V.n.Y.L.s.h.F t % 1 7 4 4 3 3 3 4 4 4 , , , , + $ * * % 1 - + + + +   + O O O = ; ; = O = > = ; ; ; ; ; ; ; = > < < > < > > > > > O O = ; = O O O O = = O O = O = O = O O O O O O O O O O O O O O O O O O O O O O O O O O O O O O ",
"O O O O O O O O O O O O = = = = = = = = = = = = = = > > > > < < 2 : ; ; : : : : < < 2 2 2 2 , < : < < 2 2 3 2 3 3 3 3 3 2 2 2 2 2 < < < < < 2 2 < 2 4 > O + > 2 < 2 3 3 6 Y 4 < 5 5 5 , > 1 1 1 * % $ $ % * x e M e M & & H 0Xl.s x.D.B.`.].].].2X3XvX6X6X6X@X7X@XxX7X@XxXxX7X9X7XxXxX7XzXkXkXkX6X3X'.'.sXdX].4X}.4XaXC.|.3X6X8X8X7XxX8XkX@X@X@X7X9X9X9XxX9X9X#X@XaXP.0 0 r.U.XXXX X|.`..X|.6X3XjXXX|.XXkXxXzXxXzXbXkXlX3X.X|.cXlX3X].sXpXI.u.j.qXJ.A.L.A.j.x.e.s.s.L.wXR.i.S.F.wXL.L.a.p.s.x.qXqXqX-Xq @ {  .A A F G y.t.r.s.J.S.wXL.5.s.q.q.y.F s 0XeX0X0XU -X0X0X0X0X0XVXVX0Xl.l.0XJ N 0XyX .C C X.BXyX} V } rX .H H N U k N M M % % C C C V V { & o J x.J.pX:XP.0X .rX&.-.-.FXFXFX-.;.GXLX;.FXGXHX-.-.GXGX;.;.DX%.-.DXDX-.&.=.| 1 o + $ % C % V I C C C V I { U rXe u Z s F g w.7.i.v.9.0.0.!.Z.!.!.!.!.!.)././.^.T.j 0 s.S.G.].^.^.C.B.G.F.F.S.D.A.p.z.s.h.A.b.F.'.2X`.`.`.`.Z.'.[..X/.`.}.Z.`.}.+X8X+XXX`..X/.@X+X9X$X$X$X$X$X@X+X+XoX@XoX/.G.;X0 0 x.[.oX%XoXoX}.`._.C.C._._._.]..X.X}._.M.m.E.T.U.V.E.I.m.K.s.q.h ,.9.'.C.Q.C.V.N.Z.!.).+X#X$X#X@X+X.XdX:XpXdXdX6X@X#X+X|._.G.R.h q.L.B.T.T.M.b.R.P.d.x.F t e 1 7 6 7 2 3 2 7 7 4 7 2 , , + $ % * % 1 < * O $ $ O $ $ O O O ; ; = O > > O O = 8 ; ; ; ; ; > < < > > > $ $ $ $ $ O > > O O O O O O O = = O O O O O O O O O O O O O O O O O O O O O O O O O O + + O O O O O + + ",
"O O O O O O O O O O O O = O = = = = = = = = = = = = > = = ; > > ; ; ; < < : : < < : ; < 2 2 , < 2 < 2 2 2 2 2 2 2 2 2 2 2 < < < < > ; ; < < < < > ; < + + + > , = ; < < 3 Y 6 4 2 < > $ $ 1 1 1 M M M % % e e e % @ & @ # H 0XJ s x.S.B.^.^.`.`.2X6XkX3XXX6X+X7X@XxX7X@X9XxXxX9X7XxXxXzXzXkXkXkXXX.X'.U.dX[.C.2X|.3XaX_..XhXkXzX7XxXzX7XzX7X7X7X9X9X9X9X9X9X9X#X@XaXP.0 0 w.U.XXXX6XjXXXXX}.6XkXaX[.`. XkXxXxXzXzXbXkXvX3X.X3XvXjXaX|.sXdXR.f.p.R.L.:XS.A.P.P.h r.p.L.:XJ.u.I.I.wXwX:XA.j.x.x.qX-X-X0Xx o V E K A F G F y.e.p.L.A.:XL.w.y.g l F S iX0XJ 0XU U 0X0XiXrXrXVXVXrXVXuXuXiX0XU K H yXrXX.I I o.rXrX . .rXiX .U k k N H k % C V x M { C M & # K l.L.:X:Xp.l.0XX.| =.FXFX-.;.DXFXFXO.GXGX;.;.AXGXLX-.FXHX;.;.FXHX&.HX' ( 1 @ @ % M C  . .C o.o.C U U I V I  . .N y A s f 4.5.7.b.n.0.Z.Z.Z.Z.Q.!.!.!./.!.Q.^.R.j 0 s.D.G.^.C.C.V.n.F.M.F.b.A.A.p.h.s.s.A.M.G.^.2X`./.`.].Z.].[.[./.`.`.Z.`.}.oX@X X X}..X/.+X+X$X$X$X$X$X$X@X+X+X%X#X%X|.(.;X0 0 x._.}.+XoXoX}._.C.V.V.V.G.'.[..X.X`._.N.b.E.I.E.E.I.K.A.j.q.e.g 5.8.'.C.U.C.V.N.Z.Q.).#X#X%X#X@XXX}.[.R.wXdXsXhX@X#X+X.X^.G.R.j g L.H.G.F.b.a.J.z.p.s.g.v e 1 7 6 , 2 2 2 7 7 4 4 , , < + & & & @ & $ $ $ $ & $ @ $ $ $ O O O O O O O O O O O O O O O > > O O $ $ $ $ $ $ $ $ $ $ $ O O O O O O O O O O O O O O O O O O O O O O O O O O + + + O + O O + + + + + + + + O O O ",
"O O O O O O O O O O O O O O O O = = = = = = = = = = = ; ; ; ; ; ; ; ; < < > > < 2 < < 2 2 2 < < 2 ; > < > > > < ; ; ; ; > > < < < > > > < < > > > O 8 O + O , , 7 , 4 4 1 1 1 B 1 $ $ @ & % & & & # # # # # 9 9 q 9 9 % e H J J Z g.a.B.C.C._._.|.3X6X X X6X@X7X@X7XxX7X7XxXxX8XzXzXzX7X7X7XzXkXkXaX{.T.dX<XC.4X3X3XdX'.aX6X@X7X7X9XzX8XzX6X7X8X8X9X9X9X9X9X7X#X#XaXP.0 0 w._.XX6X@XhXXXoX!. X6X`._.Q.|.hXbXxXkXkXkX6XlX3X.XaXvXaX3X/.aX<XK.f.p.z.J.:Xb.i.A.P.j s.j.:X:Xj.u.:X:XwXwX:XJ.x.-Xx.-XJ 0XrXC X C E H K G G F e.e.p.J.L.L.P.w.y.l G l.iXU 0X0XH U 0XrXrXrXVXVXrXVXPXIXPXPXuXiXiX0XK y rXyX .U  . .rXrX .rXA U rX0XK k k M x & % M M % M V & @ K g.A.gXR.u.G  .{ ] &.-.;.) FXKXFX;.KX;.;.FX-.HXGX;.FXFX;.GXFXNX-.%.*.| 1 @ @ x C C N N rXrXU o.yXX.X.} I / { { rXK y Z s b 4.5.i.v.9.N.Z.Z.Z.Q.Q.!.!./.Q.Q._.R.0 0 h.D.F.F.N.b.n.m.S.b.K.b.A.A.a.s.s.d.b.F.G.G.3X`./.|.].0.G._.`.Q.`.`.Q.`./. X@X X|.`./.!. X%X$X$X$X$X$X$X@X+X@X%X$X%X X(.:X0 0 t.U.}.+XoX}.}._.C.B.M.N.N.C._._._.Q.C.N.N.E.I.E.I.S.b.a.p.D D D 4.7.S.G.U.V.F.N.C.Q.}.@X#X#X#X@XoX}.[.R.pXdXaXXX+X+X).}.G.G.R.j h D.U.F.n.v.b.m.d.p.r.g.Z N * 7 6 < 4 2 , , , 7 , < 8 O X @ @ # @ @ @ o o o @ @ X X X o X X . . o . . + + + + + + O O O + O + + + + $ $ O O O O O O O O O O O O O O O O O O O O + + + O O O O + + O O O O O + + O O O O O O O O O + + O + O ",
"O O O O O O O O O O O O O O O O = = = = = = O O = O O ; > > > ; < > > > > > > < > < < < < > ; ; ; O O O O + O O O O O O $ $ $ $ $ O O O $ $ O O $ o + + + $ $ @ @ & % @ @ & @ # @ @ # # 9 q q r r u p Z S F F F F G F A J K N J A g.a.n.G.^._._.].4X6X|.3X6X@X8X7X7XxXxX@XzXxX+XzXzXzX7X@X@X8XkXjX2XU.B.<X[.B.2X|./._.Q.aX6X@XzX#X7X7X@XzX@X8X8X8X7XxXxX9X#X7X7X+XaXP.0 0 w._.oX6X XoX}.oX~.@X6X^.C._..XjXbXzXkXbXcX3XjXaX[.2XsXaX3X/.dX[.n.u.f.P.d.L.m.b.S.P.h s.J.wXL.u.,.Y.Y.wXwX:XJ.x.qX-Xl.0XyXyXV o { { N K K F F y.t.s.J.;XP.z.y.F G 0X0XU rX0XU U U 0XrXyXVXrXyXPXPXIXIXIXJXVXuXuXiXJ K k K rXrXU U  .U 0X0XU N U U N H H H U C & & % M 1 C & @ K x.L.,X,XJ.l. .I | $.&.' FXFX%.FXGXFX%.FXFXGXHXFXFX-.DXHXHX-.=.AX*./ $ @ & C U V C H H C yXyXI tXHXX.tXX.tXI { I { 0Xy Z S D q.p.i.9.9.B.Z.Z.C.C.Z.!.!.Q.^.'.Y.0 0 z.j.K.S.i.i.a.m.J.a.K.a.J.A.d.d.s.j.b.I.T.G.sX|.`..X].2.Z.G._._.`.`.Q.[.}. X6X X|.`.Q.!.+X#X$X$X$X$X$X$X@X+X#X%X$X%X X(.:X0 0 t.U.).oXoXoX}.`._.V.V.B.V.C.^.Q.`.`.|.C.V.V.E.M.I.K.m.p.h.l.b F e.j.m.V.C.V.F.N.G.Q.}.@X#X#X#X@XoX}.[.,XpXdXaXXXoXoX~.!.C.G.wXj h A.U.T.F.M.K.K.A.j.s.g.F N % 7 4 < 4 2 , , , , < O + $ @ e e z y u e e e % & e % @ @ @ X X X X o X               . . . . . o . X o o o o + + + + + + O O O O O O O O O $ $ $ O + O O + O O O + + + O O + + + + + O O O O O O O O O O + O O ",
"+ O O O O O O + O O + O O O O O = O O O O O O O O O O O O 8 O O O O O > > - $ - - $ $ $ O O O + . + + + + + + + . . X o o X X o o o X X X o X o o @ @ @ # @ @ # # # 9 q q y z v a c c m D y.g.g.y.q.r.h.j.j.j.d.j.P.h.e.g.-Xl.G t S A.n.B.G._.'.2X.X|.|.XX6X8X7X7X7X7X7XzXzXzXzXzXzX8X@X7X7X8XkXcX2XU.N.T.dXG.<X4X/.[._.3X X7X7X9X#X7XkXkXkX X X).7X9X7X9XxX7X+X@XaX;Xj 0 s.U.|.@X@XXX|.oXXX8X6X_.C._.`.XXkXbXkXhXjXjXsXsXdXdXsXaXaX2X2X'.n.m.f.f.d.b.S.S.L.wXw.u.P.P.L.w.f.K.Y.wXJ.L.;Xx.qXl.iX .HXtXB o |  .H K K F S F t.w.j.x.z.g.s l.iXU H 0XN H U U rXyXyXJXVXKXIXHXLXIXUXJXBXVXPXVX0X0X0Xv r i 0XuXU U U H U 0XU N H  .C H N V  .{ C % % 1 C & @ Z -XA.,X,Xd.l.K } ] ] -.HXHXFXFXGXFXZXHXGXLXGXHXHX%.FXFXFX*.=.tX| M @ @ k e k rXrXH H H H { tXBX/ =.BX*.&...] } X.{ M { J Z c b 4.p.7.<.v.9.N.C.C.Z.!././.^.'.:X0 0 r.j.P.f.,.3.j.J.s.u.J.A.a.A.a.j.d.P.8.T.'.G.fX.X.X[.[.2.Z._.[._.'._.C.[.|.}. X X.XQ./.}.+X#X$X$X$X$X$X$X#X+X#X#X#X%X X].:X0 9 t.<X).%X+X+XXX`.`.[._.`.`.`.}.}.oX}.|.Q.`.C.{.M.M.K.a.x.g.F F f g.j.i.I.{.U.V.F.C.Z.!.+X#X%X%X+X+X|.[.{.,XfX.XXX}.).)./.Z.B.R.d d A.T.G.'.T.I.m.S.A.a.h.F N M 7 , 4 , < , , , , , < - 1 & e A F c Z G A y N N y u y q % & & $ $ $ $ @ @ o X o o X .           X X X X o           X     . . o o o o o + o + O O O O O + + o + + + + $ + O O O O O O O + O O O O O O O $ $ $ ",
"+ O O O O O O O + + + + O O O + + + + O O O O O O $ $ $ $ O O O O $ $ $ $ @ @ @ o o o o o + + . . .     X   X X X X o @ @ & & & & e e e N y e e q e u y N y r A Z c S m m D D e.q.q.r.r.p.d.j.j.d.a.A.L.Y.S.F.S.Y.:XD.a.P.qX-Xl.A S p.b.n.C.V._..X|.|.|.XX6X8X8X@X@X@X@X7XhX8X7X7XzX8X7X7XkX9XkX3X[.{.V.{.,XG.2X4X|.[._.3X X7X7X7X#X7X7X7X6X X X+XzX7X7XzXzX8X7X@X.XP.0 0 s._.XX@X@XXX.XoX@X@X3X[.U._.[.aXkXbXkXlXjXaX2X].'.<XdXdXdX.X2X{.M.m.f.j.J.L.I.:XL.wX>.u.;X:XJ.3.f.Y.R.wXJ.:XwXx.qXl.0XrX=.*.` + R  .N A J J Z F g.t.j.r.e.l.iX0XK U  .H  . .o.rXrXyXJXLXKXUXBXJXUXJXHXLXKXPXPXJXJXuXK J J J i K rXJ K U U A U 0XH U U { H k k U  .V M M 1 X @ K -Xa.,X,XJ.l. .X.*.HXFX-.HXHXFX-.HXFXGXLXHXFX%.DXHXFXHX-.GXBX/ @ # M N N U U U yXJX0XN V { *./ | ! #.-.%.=.....| X.{ V H H A c l.y.h d.i.v.n.F.G.Z.!.!./.^.[.R.0 0 r.k.r.t.y.y.y.w.s.z.a.J.J.L.d.a.a.L.i.R.T.U.nXdX[.`.].W.C.'.[.U.C.N.U.'.`.XXXX/..X.XQ.}.+X$X9X$X$X$X$X$X+X+X@X#X$X%X+X].:X0 9 t.{.).+X%X#X+X}.OXOXOX}.}.oXoXoXoXoXoX X.XC.T.E.K.S.p.r.n S b d h.z.b.U.[.V.V.M.F.Z.Q. X#X%X%X#X+XoX.XT.{.dX.X.X}.oX)./.B.F.:Xh j A.T.(.'.T.F.M.m.i.7.x.l.N % 1 < , < > > > < , > 8 > 1 & z S F n D S Z a Z Z Z Z Z y e % & & % % & @ & @ @ @ + o o X X X X o $ @ & % $ o + + + o $ + o X X X X X X X X X X X X X     X o X X X X X X X X X X . . . . . . + + o o o o + + + ",
"+ + O + O O O + O O O + + + O + + + + O O O + + + + o + o o o o X X X o @ @ @ @ @ @ & & @ @ o .       X o X o @ & & & & % e e e t v c F G F Z F S S F F g.F b g.g.g.x.h.h.h.p.k.a.a.a.b.b.m.M.S.b.m.Y.T.G.F.G.F.T.T.F.D.;X;X-X-XJ Z 6.8.n.C.B.C.[.|.|.|.4X6X6X7X@X@X@X@X6X6X7X7X6X6XkXkX7XzXzXkX3X(.{.F.pX<X'.'.3X|.[._.3X X7X7X7X+X7X8X@X6X X8X8X8X+X+XzX8X X8X@X.Xj.0 0 c.T.|.@X X6X.X|.hXXX3XpXT.U.].3XlXlXXXjXsXsXdX[._.'.<X'.'.[.[.<XM.K.d.j.J.Y.K.:XL.wX>.u.wX:XJ.>.d.Y.Y.:Xd.:X;Xx.-XG J X.| ] | + 1  .N A A S S l.l.D y.f eX0XK U  .U { o.} yXyXyXJXJXBXNXFX-.GXLXtXKXUXUXKXUXPXJXo.rX0X0XJ J J y y J K U U U K K U C k C C V N k C { V V 1 X o A x.a.pX,XJ.qX .X.*...-.KXFX%.-.GXDXGXGXFXNX;.GXKXHXBXBXGXHXM X & e N V  .0XrXuXrXrXrXVX} I / -.;.;.) ^ :.( %.| / =.B } yX .H N v S F q.w.w.i.M.F.B.Q././.].1XY.0 0 e.g.t.q.n n c.c.s.s.u.L.K.K.m.a.p.:X8.Y.R.T.MXdX.X2X_.0.G.'.[._.C.N._._.`..X`.Z.Q.[.!.}.#X$X9X$X$X$X$X#XoX+X#X$X$X%X+X].:X0 0 e.'. X#X%X#X@XoXoX).oXoX+X+X#X#X#X#X+X+X3XC.I.K.J.A.p.4.b S F n z.A.v._.[.B.F.n.T.N.C. X@X%X%X%X+XoX.X{.{.dX[..X}.oXoX].G.U.:Xh j A.T.'.'.'.I.F.M.b.7.x.l.N % 7 < > < , < < < , > < , 1 & z S g.h.p.6.D l D F D S S a y u e e % % % & % & & & & $ + o o X o $ % & % M $ o $ $ @ $ $ $ $ $ $ @ @ @ $ $ $ $ $ $ $ $ @ o $ $ $ & $ @ @ @ @ @ @ @ o o o o o o o o o o o o X X X ",
"$ $ O + + + + + + + + + o o + + o X X X X X X X X X o o @ @ @ @ @ @ # & q q q r e e e e % % % @ X   o @ & & & % % % % e e u z y m n m 6.e.4.n e.e.e.r.h.h.w.>.s.h.s.k.p.k.j.a.A.m.b.b.M.M.F.F.F.m.M.T.'.U.G.U.U.{.'.H.H.:XwX-XJ J Z r.a.F.G.V.U.].|.|.|.3X6X6XzX7X7X6X6X6XkXkXkXkX6XkXkX8X7XzXkX8X].,Xn.,X<X,XG.3X|.]._.3X6X9X7X7X#X7X8X@X@X X6X X8X+X@XkXXX).@X@X.Xh.9 0 c.U.`. X).3X.X|.hXXXsXpXI.V.U.].3X3X|.jXsXsXdXpX{.T.,XF.I.1X'.<Xn.Y.L.d.A.L.a.:XJ.qX,.p.wXL.J.w.j.L.I.wXd.:X;Xx.0Xl.J yXtX*.$.+ 1 X.A A F S S l.l.S g.0XiXJ U rXrXyXX.X.BXX.X.HXBXtXHXHXFXHX-.-.KXKXLXKXKXGXBXyXVXVXrXiX0X0X0X0Xy # A J J U 0XH N U V k N N N V M % M B B @ X y l.j.pXfXu.qX0XyXHXHXKX-.GXKXFXFXKXHX-.FXDXKXLX-.FXHXHXtX1 @ % H K  .U rXVXyXVXPXJXVXX.LXJX=.FX#.^ ;.#.` ] ' %.=.&.B } ( } rXrXH A A G D q.w.f.A.V.G.^.^.].'.L.0 w F y.e.D D n y.y.s.j.d.L.A.b.d.d.p.wX<.I.Y.T.MXdX<XdX].Z.^.G.[.[.{.V._.[.`.^.Q.Q.Q.C.!. X7X#X$X$X$X$X$X#XoX+X@X$X$X%X+X|.:X0 0 q.'. X%X%X%X$X@X%X%X+X#X#X#X#X#X#X#X+X+X6X_.E.m.m.f.h.g.F G y.6.J.m.N._.'.C.M.M.I.N.C.}.+X+X%X%X#X+XXX[.<XsX[..X}.}.}.].G.U.:Xh j d.S.T.G.U.F.I.M.n.a.h.l.N & 7 , > < = < , < < > O + $ # y F k.a.a.w.w.q.e.w.r.e.D S p A N e q q e x e % % & & $ @ @ o o o & % % % % $ @ @ @ @ @ & & % & & & & & & % % % % % % % % % % % % % % % % % % % % % % & $ $ $ $ $ $ $ $ $ $ @ @ @ ",
"+ o o o o o o o X X X X X o o o o o o @ @ @ # & # & & q q e e y y y N A A A Z Z Z Z A N N x e & o X @ & & & # % e e q i u a c b 4.5.5.5.p.w.u.j.5.u.a.j.A.a.7.A.J.A.j.a.A.A.a.S.S.M.S.S.F.F.I.Y.S.S.I.'.U.U.T.T.{.T.H.F.wXeX-Xa N Z h.D.F.G.C.C.`.|.|.|.3X6X8X7X7X7X7X6X8XhXkXkXlX6X6X8X+X8XzX8X3X2XfXF.G.T.<XB.4X|.].`.6X8X9X9X7X@XzX6X@XXXoX@XXX6X6X@X8XXX).XXXX[.h.9 0 c.I.Q./.}..X[..XXX4X3XpXY.M.U.'.2XsXsXvXfXdX<X<X,X,X,XR.R.,X'.pXF.R.P.d.j.;Xa.:XJ.qXw.d.:XJ.J.f.z.K.K.wXA.:X:Xx.0X0XJ rXtX*./ X M  .H J F S F J K G 0X0XH 0X .rXBXX.X.*.| HXJXJXLXHXHX-.-.BXLXHXGXKXKXKXKXGXLXBXyXyXVXJXPXuXU k k k i u i J H N { { U H N N V N M C x % M & X N x.j.:XpXL.D 0XJXFX*.HXHXGXFXKXLXFXFXFXHXHXGXFXHXLXHXHXV & k H H U rXuXrXyXVXJXyXyXHX*.=.LXFX~ ' ! #.GX;.$.[ ` %.` ^ ` / 7 *.HXX.H H A G F F t.j.S.G.Q.(.'.U.L.0 r S F y.D D f y.q.p.d.A.Y.b.i.a.j.s.qX8.I.Y.I.nX{._..X2XQ.^.C.[.[.{.V.{.{.].^._.2X[.C.^.XX7X$X$X$X$X$X$X#XoX@X9X$X$X%X+X].:X0 0 D T. X%X~.%X$X$X#X#X$X%X%X%X%X#X#X#X#X+XXXU.m.d.p.r.g.x.G F n ,.b.n.B.C.C.U.v.F.M.v.B./.oX+X+X#X#X#XXX[.{.dX_.`.OX~./.^.B.H.:Xj d p.b.M.n.M.m.K.m.A.a.r.g.N & 1 , > > , < < < > 8 8 * $ @ y F h.7.u.7.w.w.w.w.p.s.t.t.S S A u i r y x q e e % % % & $ o @ & & % e e % % $ & & & & & % & & & & & % % % % e e % % % % % % % e e % % e e e e e e % % % % % & $ $ $ & & $ $ $ $ ",
"X X X   X X o o o + @ @ @ & & & @ & % e e e e e e u u u y v Z A Z Z Z F F S m m D m S Z v z e # o X & & % % # e e r u u a s b n 4.u.p.a.j.d.d.A.u.a.A.m.S.A.i.S.S.A.A.a.S.K.b.I.I.S.F.I.Y.F.Y.Y.I.S.F.T.T.'.{.{.F.U.'.T.:XqXl.p q v z.D.B.G.C.C.`.|.|. X3X6X7X7X8X6X7X6X6XhXhXkX6X6X@XXX+X7XzX8X3X4XfXT.G.'.<X0.|./._.`. X+X7X9X7X@XzX6X@XXX}.XXXX6X6X XXX X X X}.[.x.# w g.I.Q./.}.].[.`.}.|.2XpXL.F.U._.5X4XsXvXfXdX<X,XpXpX:XwXY.I.G.pXT.:XJ.u.j.L.a.L.P.P.>.z.:XA.z.z.P.K.I.wXA.:XL.x.-XJ K K  .{ V X C  . .G l.g.l K 0X0XU  .uXyXrXVXBX*.*.*.JXFXHXKX-.' ;.HXKXGX-.LXUXKXGX=.FXLXyXJXJXJXrXVXPXU k K H rXrXK y 9 i N N H U U U k & C U V M % 1 o X N l.j.:X,XY.x.0XyXFXFXFXHXKXUXHXFXHXGXFXHXLX-.FXKXKXtXI @ N K  .rXuXo.VXVXJXPXyXX.*.BXJXBXtXFXFX] -.-.' FX&.;.~ ~ ' %.%.O.| ( ( yXyXV N N A Z F h.A.F.C.(.'.H.J.0 i Z F g.y.e.g s.u.d.m.b.Y.S.S.a.d.s.;Xa.K.I.I.fXU._.[.].!.Q.C.[.[._.U.{.U._.^.].[.U.Z.`. X#X#X$X$X$X$X9X#XoX@XxX$X$X%X+X].:X0 0 D T. X~.~.%X#X$X#X$X$X%X%X%X%X$X$X#X+X8X|.I.f.f.s.q.D G F S 4.7.F.N.Z.C.Z.'.9.I.m.v.N._.}.+X+X#X#X#X X`.U.[.Q.`.OX/.|.C.0.B.Y.j d p.b.M.m.K.a.L.m.S.a.h.l.A % 1 , > > < > , 5 6 8 O $ $ @ t F p.7.u.i.u.u.u.u.a.a.u.r.t.F c t t N N u q e x e % & & $ o & % % % M x % M 1 % & & & & % e e e e e e e q e e e e e e e e e e x N e e N e e u u e e % % % % & & & % & & % & $ $ ",
"@ @ @ @ @ $ & $ & % % % % % e e # q e u z y y t t t a a s c c c b b D q.e.q.w.r.r.4.D S Z v u # @ o % % % x q u z y a Z c s m e.5.a.d.f.d.d.d.d.u.m.J.a.m.m.i.b.b.S.S.b.F.F.n.T.T.F.F.T.T.F.U.T.Y.F.G.'._.'.{.{.'.1X2X<X>X;Xx.F 9 a z.D.B.G.C.Q.|. X X X8X8X7X7X@X7XkXkXkXhXkXkX6X6X X X8XzX9X7XkX4XpX,XG.'.pXB.|./.^.`.}.+X#X#X9X@XkX6XXXXX}.XXXX X X X).|.XX X}.{.x.# w g.I._./..X`.[.`.Q.|.].:XP.S.I.T.[.4X4XsXfXdX,X,XpXpX:XwXL.b.F.'.T.:XP.u.j.L.a.J.P.h.h j.wXA.p.c.P.K.I.wXA.pXL.x.l.G J G E  .{ @ V H E 0Xf m 0X0XU H rXVX .rXJXBXX.| FXHXtXHXFX%.%.-.GXGX*.GXKXUXLXFX' tXtXHXJXHXJXBXBXPXrXo.rXrXrXrXrXiX0XJ 9 q H H H K H U C % x V C C M o X N l.j.pXpXi.c.iXJX=.=.KXUXKXFXGXFXFXHXGXHX-.KXUXLX| 1 @ N C A U 0XVXJXJXBXBXJXHXBXBXtX*.-.HX| =.&.| GXtX] ' $.] ~ ^ #._ ) ' ' ^ ( X.{ V V K A S e.j.S.B.B.G.F.P.9 9 a G e.t.x.w.d.5.A.:X9.Y.Y.L.a.d.s.P.A.S.F.V.pX_.[.`.`.Z.!.Q.].'.U.U.{.G.G.G._._.B.N._.}.+X#X$X$X$X$X$X#XoX@XxX#X$X%X@X].:X0 w D T..X).~.+X@X$X#X$X$X$X$X$X$X$X$X#X#X6X^.I.f.c.t.q.f Z Z S r.b.(.Z.!.!.!._.N.I.K.v.n.`.XX+X+X#X#X%X+X`.U.[.Q.`.`.|.4X^.B.U.:Xj d j.K.m.J.L.d.L.d.A.p.r.g.K e 1 1 1 > - B | *.| B > O $ @ y F s.u.a.a.i.b.i.i.m.a.7.u.s.y.S p a A A z r u x e % % & @ o & % % e x e e M x & & % e e e e x y u e u e q q q q e e e e e y e N N u z N z z z N z e e e e e & & & % % % % % & & ",
"% % % & & & & & % % % e e e e e q r y y z v v c p s c b b b m n m m n e.w.w.w.u.s.w.r.e.S c t % @ @ % % e e 9 r r r t Z m f n g.>.f.d.a.d.J.J.J.,.d.J.i.b.A.v.M.n.Y.T.D.F.V.9.T.T.G.H.T.T.T.T.'.T.U._.[.'.'.[.[.dX'.(.,X:XwXx.S 9 a j.S.F.G.C.^. X6X6X8X8X8X8X9X7XkXkXkXkXkXkXkX6XkX@X@XzXbX7X8XkX4XdXpXB.G.dX[.2X|.`..X X+X#X$XxX@XkX@X@XXX XXX6X}. XXX)./.4X.X`.,Xx.# w y.K.U.^.2X^.[.`.Q..X_.Y.d.b.I.T.<XdXsXsXfX,XF.M.:XpX:XwXR.S.F.F.F.Y.L.p.J.;Xa.P.P.h.>.d.wXz.w.w.x.P.L.:XA.:Xd.g.F F -XG A  .{ @ { H J l.g.0X0XJ  .rXyXo.tXyXBXHX=.tXHXGXFX*.%.-.-.;.FXGXKXLXHX-.HXGXGXBXLXKXBXtXLXUXUXyXyXVXyXo.yXPXPXyXH J K q # N H H H H U H M % % 1 C $ X N l.j.pXpXL.t.0XyXHXUXKXHXHXGXHXFXFXFXFXFXKXLX*.} & & x N U 0XrXVXJXPXrXX.=.*.BXLXBX-.$.&.] HXLX-.*.=.-.=.~ ` ^ ) ) < Q #._ ` ~ B B B V } { K A F y.j.S.9.V.D.P.9 # a l.y.q.e.>.P.m.S.n.n.H.F.L.a.j.h.z.J.m.M.M.pX{..XQ.|.Q./.Q._.C.V._.U.G.'.^.^.'.C.C.`.}.%X$X9X$X$X$X#X+X).@X7X#X$X%X@X].:X0 w D I.|. X+X@X9X9X$X$X$X$X$X$X$X$X$X#X+X XQ.R.f.t.y.e.D G F S q.i.(.!.~.}./._.n.I.R.v.B.[.XX+X%X#X#X+X+X].G.`.Q.`.`. X3X`.^.,X:Xj j A.Y.b.b.L.u.z.s.j.4.h S A x 1 < 1 $ < ^ ] ^ 7 , > O % % A F t.p.d.u.i.n.n.M.I.S.a.k.w.t.F s s S F A y N x e e % % @ @ $ % % e e e e M x & & e x e z N A A Z Z Z A u t y y y z z y u z y Z A y v Z v v v Z z u r e e e e % % % % % % % & @ ",
"e % % & & & & & % % % e x e e y u i r y a c S b f f f b b b F s b b q.r.s.p.u.p.d.p.5.r.e.Z u # % @ e e i w u r r u a c b f g w.w.j.J.d.m.J.K.J.a.P.m.m.v.K.n.n.9.b.R.M.F.n.v.F.Y.Y.S.I.T.G.U.T._.'._.G.'.2X<X_.dX'.T.:X;XP.qXs 9 c h.D.B.C.G.Q.|.XX8X8X8X8X@X@X7X7X@X6XkXzXzXzX8XzXzX8XkXbX@X6XhX|.[.[.G.].sX_.[.2X!.}.@X%X9X@X9X@X+X@X@X+X+X+X@X+X@X6X X}.|..X.X{.g.9 w y.K.V.U.^.'.'.[.`.`._.I.m.a.A.Y.T.'.'.dXpXpXS.b.I.T.pXpXT.v.n.F.F.b.:Xa.s.;Xp.j.j.P.5.j.;X5.w.q.;XqXJ.d.L.A.J.x.e.F G A C rXM & { H K l.0X-Xl.0XrXyXyXtXtX=.KXFXFXLX-.;.$.-.-.%.%.HXLXGX=.] ~ &.LXKX-.LXGXHXKXLXFX..=.PXVXrXyXPXIXUXPXyX0XU J K r u N J K U K K { C x M C o X N x.L.,XpXm.*X0XJXUXHX-.HXHXHXFX-.FXHXHXGX*.{ V % e N N U  .rXVXyXJXPXJXBXFXLXJXtXGXGX..tX] FX-.! | ( ] %.-.^ W _ W W 3 4 -.~ P / P * B } *.{  .U N J e.b.9.D.x.9 # p l.g.y.g 4.J.K.F.n.0.'.G.D.A.J.s.z.b.K.M.N.pX[.dXC.^.^.^.0.<X{.C.{.[._.`./.|.^._.C.OX}.#X$X$X$X$X9X@XoX~.oX@X#X9X#X+X.X:X0 9 l I.XXoX+X#X#X$X$X$X$X$X$X$X%X#X#X#X+X XQ.I.f.t.F G Z S Z d q.L.T.(.!.).!.^.G.V.T.V.Z..XoXoX%X#X@X#X X]._.[.`.}.~. X6X/.^.'.:Xj h a.S.b.S.m.d.s.t.y.s s Z H N % 1 1 $ > 7 6 1 O O $ $ * # a g.g >.c.f.i.V.F.I.S.S.S.j.r.t.b d F F c Z r u N u e % @ o @ % % e e N e e M x % % e y y v c D D m f n S l b p v Z i N z y c c S S b b f F b b S c y y y r u e q # % % % % % & @ ",
"e e % % & & & & % % % e N x e u u r u a a c b f f f f n m n F s S S q.p.s.p.a.a.A.a.7.p.y.Z u @ $ & M u t t t i u y c F D n q.w.u.A.J.m.m.m.m.m.b.P.b.b.N.I.F.F.n.I.,Xn.F.F.n.M.Y.Y.S.F.I.n.B.B.G._.'.'.'.<X<X[.'.T.M.A.wXqXqXF 9 s h.S.F.C.G.Q.|. X8X7X8X8X@X7X7XzX7X7XzXzX7XzX7X7XzX8XzXkX3XhXkX3XaXdX^.`.sX]._.[.Q.oX9X#XxX$X9X$X@XkXkX@X@X@X+X+X+X@X X}.]..X.X{.g.9 w F P.E.U.G.'._.].`..X[.:XL.J.J.K.R.,XdXdXdXpXT.Y.pXpXdXpX{.n.F.F.T.L.:Xp.p.z.s.z.z.P.,.p.z.4.w.t.wXwXwXa.P.J.A.k.g.l.J K  .rXC @ V H  .0XJ J 0X .VXVXX.*.tXBXBXFXGX&.%.@.O.O.%.FXFXFXBX[ , ..' %.GXBXFXGXGXGXFX*.BXLXKXyXX.JXUXUXJXUXIXUXPXuXU U J A K i N U H K U H V C M o X N x.K.I.:XY.c.0XyXX.BXFXGXFXHXHXKXHXFXGX=.|  .# N N y U H uXJXyXPXPXJXJXKXtXJXHXHXHXLXFX[ tX=.=.| ] FX=.5 ;.;._ ) _ Q Y W 5 [ P B / B / 6 / *.} X.{ N A k.b.k.h.r 9 d -Xg.y.g w.d.m.I.V.B.{.G.S.S.P.h.z.m.K.M.N.dX2X2XC.`.`./.Z.{.T.G._.[.`.`./.2X^.^.^.`.oX+X$X$X$X$X#X+XoX~. X7X@X7X#X+X|.Y.0 9 l F.|.oXoX+X#X$X$X$X$X$X$X$X$X$X#X#X+XoXQ.V.m.r.F F v Z F S y.P.R.G.&X).~./.^.G.U.C.N.}.oXoX+X#X+X+X|.G.C.'.Q.}.~.oX6X/.^.'.:Xj g A.F.S.S.A.j.q.D l.Z a A K M % * < O > > < * O o + $ * & y g.q.w.s.w.<.M.F.F.S.b.A.p.r.t.D s b S c Z i y N y e e & $ o % & e e z y e M M e % e N A s b q.w.>.>.q.q.D D s S Z u A A v c b F n 4.q.n q.n D e.S v v v u z z u q e % % % % & & ",
"e e e % % % & & % e e e N N e u u r t v s c b f m m n D m D y.s S D r.s.s.a.d.d.A.m.8.p.y.S N @ 1 1 N u y p t t t a c F e.4.4.w.,.d.A.m.b.S.M.S.K.Y.M.b.n.T.F.U.b.S.T.S.T.F.n.S.I.Y.F.I.U.C.G.^.G.G.'.1X[.].[.<X_.<XpX:X;Xh.g.F 9 v h.A.B.G.G.Q. X6X8X7X8X8X7X7XzXxXxX7XxXxXzXzXzX7X6X@XkXlX6XlXkXXXsXdXZ.Q.4X].[.[.}. X7X$X#X@X9X9XxXxXkX@X@X7X+X@X+XXXXX}./.3X.XT.g.# i F J.E.U.G.'.^.|.`.2X2X:XL.J.A.J.I.{.<X<X<XdXY.Y.pX<XdXdX,XT.F.F.pX:XL.p.u.h.h.z.P.J.,.s.z.w.w.s.qXz.J.a.P.P.J.h.g.l.F J e rXH @ k U  .U rXU 0XVXVXtX} =.=.=.FXtX-.] O.@.%.-.HXDX` ' [ [ =.BX-.FXGXFXGXBXFX' ..FXtXtX} BXUXUXJXVXPXUXIXUXPXVXrX0XJ K N K N e k N C N C C 1 X X u l.J.Y.R.wXx.-XuXyXBXGXHXHXHXGX-.FXBXtXyXV % H K J J K 0XrXJXJXPXUXUXIXUXLXUXLXJXHXHXHXFX=.| $.tX=.FXFX%.O.^ ' $.^ ^ ^ ~ ! , [ | 1 7 / &.( / | { rX .K m 6.l.G # # c x.t.t.g q.d.a.K.I.n.T.F.M.A.J.s.z.J.K.m.v.pX[.[.N.'._.`.Z.U.{.G.C.[.`./.Q.2X^.C._.}.}.%X#X$X$X$X%X#XoX). X7X@X9X#X+X|.L.0 9 l S.|. X%X#X$X$X$X$X$X$X$X$X$X$X$X#X+XoXQ.N.K.w.F Z v a S y.w.A.Y.B.0.).!./.G.G.U.V.C.`.oX+X#X#X+XoX}.C.V.U._.`.~.}.XX/./.'.R.j >.m.n.S.S.P.z.f l l.A u A N e M 1 1 , O + O $ + . . O 1 & y G t.r.u.,.<.m.S.K.A.a.d.w.r.y.F b s c S Z i N K z e e & @ @ M % e z N N e e N e 9 e A Z s D r.w.4.>.q.e.q.e.f F S A K G Z c n y.6.q.r.e.e.q.t.g.D s Z Z a v A z e e e e e x % & ",
"e e e % % & & & % x e x K N e y u r t a s f m m n q.q.e.n D y.f b D r.s.d.a.d.d.m.D.8.p.r.G N # M C V u t p t t t p b D 6.5.5.5.<.m.S.b.n.S.F.I.I.Y.M.b.F.T.G.G.n.n.F.T.,XF.n.F.F.T.F.I.'._.'.[.^.^.].2X2X].2X4XsX'.pXwX;XqXqXg.9 s p.D.B.G.^.Q.3X6X8X7X8X8X9X9XzXxXzX7XxXxXzXxXzX7X8X6X6X6X6XkXkX3XvXdXZ.`.sX].<X[..X X#X$X+X#X9X$X9X@X@X+X@X@X+X8X X X6X|./.2X.XT.g.# i G J.I.U.G.'.'..X.X3XdXT.Y.L.L.L.R.{.pXdXdXfXR.I.,X<XdXpX,XpXT.F.pXwXL.p.s.h.j.s.P.z.>.j.P.s.p.z.wXd.R.m.A.L.;Xz.g.g.a K H E N @ rX . .0X0XVXuXyX{ | =.HXBX*.BX;.' O.O.;.FX-.O.] ' &.P ` &.^ ..-.GXUXKX&.&.&.! ] ] *.KXUXJXBXJXKXUXJXJXJXJXPXyXU H U K e C k e k C V V B $   X e l.J.R.gXwXc.d 0XJXJXHXGXGXLXHXFXJXJX/ M % N K J 0XJ H JXJX} yXBXBXJXtXBX( JXUXLXKXKXHXKXHX*.] ( ` =.=.%.-.%.^ -.FX) ~ _ ! W P 6 7 B ^ P ] B V yX} I rXJ G G K # @ p ;Xt.r.>.r.d.f.J.Y.b.T.S.m.m.J.s.z.J.m.m.v.{.].'.0.G.^.`.C.U.{.U.Z.[.`.^.Q.5XC.Z.C.`.}.oX%X$X$X$X%X+X+X).+X7X#X$X#X+X].P.0 9 s S.|.oXoX%X$X9X$X%X%X$X$X$X$X$X$X#X+XXXQ.B.S.w.D Z Z a f t.5.v.F.9.G./.!./.G.U.T.V.C.OXoX+X+X+XoX}.`.I.K.I.U.`.}.}.|./.].'.Y.j >.A.S.D.K.J.t.f l G A r N N x % $ > - O . . + + . . 8 < % y F h.h.u.<.u.m.m.J.A.d.s.w.e.y.g.F s Z F F u A K z x M & @ @ M % e z z N i e N e q r Z S m e.p.u.5.>.w.t.e.t.n y.S F F G F m F g.r.w.s.r.w.q.g.g.D c F F v a Z z u u e e e M % & ",
"e e e % & & & % % e e e N N e y u r t s c b D n 4.q.e.e.n q.y.f f D t.j.j.a.a.d.D.D.9.a.r.F A # 1 M V r w p p a p c m 6.5.5.7.u.i.S.F.n.n.F.H.H.n.M.n.n.G.'._.T.T.F.F.T.,Xn.N.F.I.T.V.F.'.'.].'.].].5X4X4X2X2XsXsX'.dXpXgXeXeXl.9 c p.b.B.G._.^.XX8X7X7X8X7X9XxX9X7X@X@X9XxX7XzXxXzX8X6X6X6XlXkX6XaXvX'.Z.4XsX].'._..XoX#XxX#X$X9X9X#X@X+X+X+X@X+X8X X X6X|./..X.XT.x.# i G J.E.U.G.1X[.3X.X3X2XT.R.R.L.Y.R.{.pXdXdXfXT.U.pX1X1X<X'.dXU.n.pXwXL.5.j.z.z.r.;Xz.>.j.;Xj.s.j.wXa.Y.a.A.J.P.x.l.l.p J A N H 0X . .{ o.yX .X.*.=.FXNX=.-.=.*.%.-.;.FX;.;.' ) %.' [ $...../ *.KXKXGX*.( / / ^ &.tXLXHXJXBXBXBXLX=.( X.JXVXyX .0XU H H N N e k k e C { 1 $   X e J x.:XwXwXx.D r  .VXtXBXFXFXtX*.} M @ e y l.-XG 0X0XrXuXyXJXJXBXHXLXHXLXHXtX=.JXUXUXKXKXtX=.tX*...| tX%.-.HXHXO.` %.~ W _ 4 < , B 5 ` ~ , P / } } { V { 0XJ e @ @ v -Xr.w.>.p.z.f.m.P.m.R.S.m.A.J.p.J.J.b.J.v.'.'._.N.C.^.].^._.pX'.C.[._.^.^.<XG.V.U.`.}.oX%X$X$X$X%X@X+XoX+X@X#X9X#X+X].D.0 9 p b.^./.~.oX#X9X$X$X$X$X$X$X$X$X$X#X+X3XC.C.S.s.m S Z Z D j.b.n.M.<.U.`./.].G.U.V.N.V.Q.OXoX+XoXoX)._.Y.J.E.V._..X}.`.!.(.T.D.j q.A.Y.b.L.s.g S Z Z K u y N C % % 1 * * +       . O < < % u S h.j.a.8.a.J.d.d.j.s.h.r.e.g.l.G Z Z F A u A A y z N % & @ M % u N A A u z z y r a Z F e.w.p.p.5.>.5.q.q.t.n e.S F S G F n e.k.w.u.h.r.w.w.s.g.D b F g.Z c v y u y y e e M % & ",
"e e % % % & % % % e x x N N z y t w p c b m q.q.4.r.r.r.n q.y.f f q.h.j.j.m.m.m.D.S.b.m.k.e.v # & 1 N z p p s c c c n 6.p.p.a.i.b.F.F.D.F.U.U.T.F.F.F.F.,X'.'.T.Y.R.I.F.'.G.G.G.T.T.B.G.[.<X2X2X].].].2X2X.X2X3X2XfXfXpXgXwXx.l.9 c s.n.B.G._.`.XX8X7X7X7X7X9X9X9X9X7X7XxXxXzXzXzXkX@XhX6X6XkXlXXXaXsXC.C.sX2X^.G._..X X7XxX#X$XxXxX@X@X+X+X@X@X@X@X X X6X X`..X=XI.x.# 9 F f.E.F.G.[.].aXXX3X4XT.R.Y.K.K.R.,XpXdXpXdXT.,XfX5X(.<XT.fXF.n.:XL.d.>.s.z.x.s.P.j.>.j.;Xh.p.p.P.p.A.a.L.P.s.y.l.l.p J A 0X0XH rXU o.VXo. .X.tXGXBX:...:.] -.DXZXDX' ^ 5 $.O.! ^ ] ! ! &.KXKXFX-.&./ | B ` | &.=.=.HXtX=.*.=.5 1 BXJXVX} I U  .H N K { U M & & e % @ + . .   e J t.:XR.L.P.c.s u N yXBXtX..X.M & # x J A F K l.J iXuXU VXKXLXKXIXUXLXKXKXUXUXUXBX=.tXJXHXtX..=.GX....HX-.$.-.KX-.4 ' &.3 Y ` < 5 5 ^ $.' B B B X.} M V H rXH o @ K l.r.r.>.r.z.s.d.J.a.Y.m.m.A.J.p.z.K.b.L.b.T.'.{.B.C.`.]./.U.<XG.G.[.C.^.`.2X_.U.U.`.|.+X%X$X$X$X%X#X+XoX+X@X@X9X#XoX].P.0 # t d.^./.~.oX@X$X$X$X$X$X$X$X$X$X$X#X#XXXZ.U.K.z.q.F S D t.L.T.T.n.<.M.].|.`.G.U.V.2.V.Q.OXoXoXoXoX}._.I.J.m.E._..X`.`.0.(.H.a.0 n A.L.m.wXw.j l Z v J y u N N & & % $ * $ $ @ + $ 8 > $ % u S h.d.b.a.d.z.s.s.s.s.h.t.D g.l.F S S Z Z y A A y z N % & & N e N A A A y N N z a Z F y.r.p.a.p.5.5.w.w.q.r.4.e.n D S S F e.r.k.p.p.d.u.r.u.p.r.n m y.g.S S S v t y y u e e % & ",
"e e e % % % % e M e M N N N N u y p s S m D e.r.4.w.w.r.n q.g.h h e.h.j.j.m.m.m.S.S.n.L.J.g.Z 9 & & N A c c b c c b D e.p.a.a.a.i.S.S.D.H.T.T.T.F.T.T.T.,XT.'.T.M.T.I.F.,XG.{.'.U.'.G.^.].2X3X2X].].|.2X2X2X2X3XvXvX(.H.gXwX;Xx.9 c h.D.n.G.'.].XX+X7X7X7X7X9X9X9XxX9X9XxXxXzXzXzXkX6XhXXX6XcXjX6XjXdXC._.sX]..X_.[..X X@X9X@X@X9X9X9X@X@X7X6X8X@X@X@X6X3X|.|..X.XI.x.# 9 F 3.M.U.U.1X].3XXX3X3X{.R.R.L.Y.R.,X[.dXdXdX{.<XnX3X5XdXU.dXF.S.Y.A.p.>.r.x.x.h.x.h.4.h.;Xp.j.j.wX;XL.j.P.z.t.g.G G K -X0XJ  . .V o.yX{ X.=.HXKX%.-.GX$.-.FXGX&.W O.^ 5 ! Y Y ] ~ ~ $.&.LXLXBX&.] ] ` $.FX..$.tXLXKX=.%.;.[ ] ( %.HXJX*.o.o.U k N  .{  .{ { C % & X X   . .   e K y.qXwXK.m.>.g p #  .{ % $ @ @ @ N N A l.l.G J uXrXPXPXyXHXKXLXUXLXIXUXUXUXKXUXJXLXUXUXUXHXBXBX=.*.*.&.&.=.FXZXHXLX_ &.&.^ O.^ 6 ^ , 5 ' ' B / B ( / V e { yXI & N -Xy.t.D e.h.s.z.J.i.K.b.m.A.J.u.J.P.b.R.b.U.'.{.C.C.[.].^.G.'.Z.^.[.Z.Q.].2X_.{.C.[.oX+X%X$X$X$X%X+X#X+X+X7X$X9X@X).].;X9 # y A._.}.oX#X#X$X$X%X%X$X$X$X$X$X$X$X#XoXQ.C.K.d.w.e.D q.J.R.'.'.B.i.N.`.|./.Z.U.F.N.Q.OX).oX%XoXoX}._.K.J.v.M.C.].`.].Z.'.S.u.0 D k.A.A.wXr.j l l Z K A N N N & @ @ X o @ @ @ @ o X X & & t F r.a.b.a.d.z.s.s.h.h.x.t.q.c.g.D G G Z Z A A A y y y % & % M e y v Z a u N A v p S y.r.p.a.j.a.7.5.r.r.q.r.r.w.e.D e.D t.r.u.j.a.a.a.u.p.p.u.w.4.n y.g.S F F c p y y u u % & & ",
"e e e % % % e e M e M N N N A r a p c D D q.r.r.5.w.w.r.4.6.g.h g w.k.A.b.m.m.S.S.D.n.Y.;Xh.S q % & z v c c S s c S F g.h.h.d.f.a.S.F.F.T.T.T.F.F.F.R.I.,XT.T.T.M.I.F.T.<XG._.'.^.[.G.^././.|./.|.4X3X3X3X3X3XjX4XsXsXfXgXL.;Xe.9 v h.b.n.C._.]. X@X7X8X7X7X9X9X9XxX9X9X9X9X7XzXzXkX6XhXXXXXcX3X3X3X[.N._.dX^.2X[.<X|.oX#X9XxXxX#X9X@X@X7XkX7X@X@XXX8X6X X}.|.3X.XF.x.9 w y.f.E.{.'.<X].XX}.6X3X_.U.I.M.E.I.U.C.[.<XdXU.U.dX4X4X2XC.,Xn.F.:XA.j.r.e.g.x.g.t.r.5.h.;Xp.j.j.:X;Xs.p.h.t.x.0XG K  .J A K U V X.| B | HXGXHX%.GXGX-.FXFXFX&.:.#.) ) ) _ ] _ ^ O.FX$.=.FX-.&.| ( | FXFXGXHXUXLXFXHX] ' W ^ ` FX-.~ *.} } U C U  .rX .X.| X.C @ @ X X + O +   e K q.wXR.T.I.L.h h Z @ # & @ & M N N J K Z 0XiX0XU uXJXUXIXLXX.UXUXHXLXIXKXKXUXLXJXUXIXLXHXUXLXHXHX*.&.| -.$.' %.;.FXGX-._ ) _ ' ) Y ` ! 7 ;.-.B / B / V H N V yX} x J G G D D t.s.z.J.b.I.S.S.K.L.f.J.L.a.R.a.U.'.,XC.G.2X].^.G.'.B.'.[.N.^.[.[.U._.N.[.oX+X%X$X9X9X#X%X#X+X@X7X@X#X#X~.[.;X9 # y J._.}.%X#X#X$X$X$X%X$X$X%X%X$X$X$X$X+X/.B.E.,.r.r.p.7.Y.'.].].C.m.N.|.|./.Z.U.G.N._.}.oX#X#X+XoXoX`.I.K.M.V.Z.`._.].0.U.D.w.0 F z.A.K.:Xf.g l S Z A A A A N N e % x e e e q e e % % # 9 p e.w.p.a.a.j.z.s.h.h.x.x.s.r.x.t.D g.g.S Z a Z Z t y u e e e M e y Z S v A A A v p b g.h.u.p.a.p.5.5.w.w.q.s.s.s.t.e.t.q.x.p.p.A.b.i.a.u.d.j.p.w.w.e.g.g.D F F b p p t u z e % % ",
"% e e % e e e e M e x M z z z y c d b m n e.r.w.u.p.p.5.6.r.r.n h s.a.A.S.i.i.M.S.F.H.Y.D.h.F w x & z c b f S S p p s h g >.w.u.d.K.S.M.T.F.n.I.I.M.S.S.I.b.F.I.n.R.{.'.pXC.^.].Z.'.'.C.^.].|.4X4X|.4X3X3X3XhX6XjX3X2X'.T.:X;Xh.9 t h.d.b.F.G.'.3X X+X8XzXxXxXxX9X9X9X9X9X9XxXzXkX XhXoX6XXXlX|.hXaXC._.[.].2XC.'.[.^.}.7X9XxX@X7X#X7XzXkXhX7X@X@X8X@X8XXX~.|.3X[.:Xg.# 9 l.f.E.U._.^.].3XXX X.X[.<Xn.v.R.{.U.[.sXdX'.pXdX2X2X].<XF.,XF.b.Y.A.z.r.q.-Xl.l.g.e.q.r.x.w.j.p.P.x.z.r.m l.-XZ J rXK H  .N  .yX} *.tXLXFX$.tXKXGXDX-.-.-.;.' O.] ~ ;.) O._ _ &.LXFXO.%.| | ` ` BXGXHXLXKXUXKXHXFX| ~ ! W O.~ ^ 4 [ | } C V  .} yXVXrXyX/ % o X X o @ $ $ X X e F t.wX,X1X,X:Xa.w.D a e # @ % N V H K K J H rXJXU rXJXLXKXIXKX*.FXHXFXLXUXUXKXKXUXJXJXBXJXUXUXKXLXKX( ] ' ;.~ $.DXLX;.-.O.Y W $.GX] 5 ` ] 6 ( tX| B / V H K K V rXyXH K A A G S n j.7.b.S.n.S.b.K.A.j.J.d.R.i.n.'.T.I.U._.].'.C.{.G.]._.C.C._.<XC.U.V.[.XX+X%X$X$X9X#X#X@X+X@XxX9X9X#X!.<X;X9 # N j.[.).oX#X@X#X$X$X$X%X$X$X$X$X$X$X#X#X~.N.K.u.j.K.b.b.G.[./.Z.C.V.N./.).|.Z.C.G.0.`.oX+X+X+X+X+X X`.{.I.V.C.`.`.^.^._.T.A.h.0 F x.j.K.pXd.w.y.S Z A v v K z N N N N y A G F G G Z A A p e.r.d.a.f.f.z.z.z.s.s.P.P.j.p.s.p.h.t.g.y.s u J Z w q u N % N e r v c S F a Z a p s e.h.h.s.d.j.u.,.w.s.q.q.s.d.s.s.t.w.t.h.d.a.i.b.m.a.i.p.a.5.4.h.r.t.m e.g.D b d c Z w z N % & ",
"% e e e e x x N x e M N x z N v c d D e.e.r.w.w.u.p.p.u.r.h.h.4.>.z.A.b.S.b.b.M.F.F.V.F.S.j.g.w e # v S n m F S s c F g.s.r.r.u.i.m.b.n.T.T.T.,X,XI.S.b.S.m.F.I.b.I.T.'.[.G.'.].^.^.].].3X2X4X3X|.4XjXjX3X3XjXjXlXjXsX2X1X,X:Xx.9 r g.A.b.V.I.'..XXX6X8X7XhXxXxX9X9X9X9XxXxXzXzXkX@XhX}.6XXXlX X3X3X[.U.[.2X'.G.<X[.Q.}.8X#X@X@XxX7X7X@X@XhXkXhX6X6X6X6X3X). X3X[.:Xg.# 9 l.d.E.U.G.^.].XXXX X|.].'.V.M.{.pX2XdXaX].].dXdX2X|.4X<XF.'.F.S.Y.A.P.q.D -Xl.g.e.q.r.q.x.w.h.6.h.t.g.D l.A y  .iXK {  .H  .} } BXJXHX%.' HXKXGXGXFX-.%.;.:.#.;.^ T ^ W O._ _ $.-._ ' ` &.] =.KXGXKXKXKXLXHX$.%.` B [ _ _ ^ 2 ~ #.../ / X.rX .yXVXJXyX} 1 o X o @ @ @ $ $ X X e G s.Y.<X].1X1Xb.j.t.D r r # # q N H H H U H V I yXyX*.JXKXHXUXKXLXLXtXIXKXKXKXLXBXtXUXKXIXUXKXUXKXBXBX*.;.=.%.] ' FXFX_ FXZX#.] ;.%.-.-.$.@.( 7 ( tX| H H G K C M rXrXH H i A G S h.a.a.Y.b.b.Y.K.u.:XJ.f.L.m.T.pXI.N.V._.].[.U.T.G.^._.C.C.C._.B.I.V.'..XoX#X$X$X9X$X$X@XoX@XxX9X7X#X~.1Xx.# # A h.'.oX+X#X#X#X#X%X%X%X%X$X$X$X$X$X$X#X!.W.K.i.m.T.G.0.C./.Q.!.].].Z./.).|.Z.C.^.Z.|.oX#X%X%X+X+XoX}._.U.C._.`.`.`.'.G.Y.A.t.0 F x.a.I.pXm.u.t.D F s S Z F a v A N y y S y.e.g.g.e.g.F D c.s.f.u.u.u.j.x.z.h.s.P.P.d.m.A.a.k.h.g.y.s t K A y q r N M N q r c b S F S a a s S t.h.j.s.d.p.w.>.w.t.g q.p.p.p.s.t.r.p.d.a.i.b.S.S.b.u.u.p.h.4.q.g.t.d y.D n n d b S a A N % % ",
"% % % e e z z N x e x M x z v v s d F y.r.r.w.u.u.p.p.u.w.s.r.4.,.L.L.S.S.M.M.M.F.G.B.F.D.P.g.0 q # v F e.n D b p d b e.t.s.p.d.b.M.n.n.T.T.T.,XF.n.M.M.R.R.R.I.b.I.U.{.G.^.].|.]././.].3X4X|. X3X3X6XhX6XkXkX X8X8XsXdX1X,X:Xz.9 q g.P.b.n.I.U./.XX8X8X8X@XxXxX9X9XxXxXxXxXzXzXkXkXkX}.hXXXjXhX X.XsXC.'.fX^.[.dX_._.|.zX9X+X7X+X@X8X6XXXXXXX/.XX6XXX6X6X X3XaX].R.g.# 9 l.f.E.G.C.].3XXX@X8X X|._.U.T.[.dXsX3XvX|.dXdXsX2X^.4XdXG.'.F.I.L.u.P.e.D x.l.g.e.D y.e.x.4.e.e.x.x.l.G N  . .{ N yXX.{ X./ yXHX=.tX] NXLXKXHXHX-.;.O.#.;.O._ W #.%.^ _ -.#.^ ~ %.' $.] ` BXFX&.LXGX;.| -.%.$.' ~ ;.' ~ ~ 5 _ -.&.` tXX.yXrXyXVXJXX.V 1 o X X @ & % & % $ o X e l.h.S.1X|.].[.n.K.J.s.n l w 9 # # y H U C H } } X.tXBXX.BXKXHXKXUXKXLX-.LXUXLXLXKXUXIXIXIXUXKXKXFX..LXGXLX' ' -._ ! &.%.O.FXGX;._ W O.O.;.;.;.@.R / | V z J G N C M { yXU N N A F g.r.p.L.D.D.L.A.d.;Xd.f.P.J.Y.T.I.K.V.'._.'.F.I.T.T.U.U.C.C.G.V.I.n.U.`.).#X$X$X$X#X$X#X~.+XxX#X#X+XoX1Xz.# # K s._.oX#X#X#X#X%X%X%X%X%X$X$X$X$X$X$X$X!.W.K.m.n.(.|.Z.Z.Z.&X!.3X2XQ./.).|.C.C.^.C. X+X#X#X%X%X+XoX}.Q._._.`.`.`.`._.T.:XD.r.0 F h.7.I.pXS.J.z.t.x.b F S G c S Z Z a l D t.w.p.a.p.j.q.q.z.d.a.i.f.f.j.j.j.j.d.L.L.m.S.S.m.A.j.h.t.d t y v a q q N N N r w b m D F D s s f D t.j.j.p.p.r.r.w.r.e.g w.f.a.s.s.s.s.s.d.b.b.b.S.S.b.u.u.z.h.h.x.l.x.y.y.m n n m b S c G x & & ",
"% % % % e z z z x x M N z z v v s d D e.q.r.p.d.a.p.p.u.w.r.r.4.5.A.S.S.F.F.F.M.T.T.G.F.D.J.g.0 9 # a F e.4.q.m S D e.r.p.u.u.a.M.I.M.n.G.G.G.G.F.F.I.I.,X:XY.v.M.Y.U.<XZ./.|.].`.|.`.^.].2X|./.3X3X6X3X6XjX6X}.3X3XsX2X1X:XY.h.q q e.;Xm.n.I.C.!. X8X7X8X7XxXxX9XxXxXxXxXxXkXzXkXkXhX}.aXXX3XhXXX2XdXC.{.fX^.2X{._.[.XXzXxX+X@X6XhX6XXX}.XX3X}.|. X X@X3X X6X3X`.R.g.# 9 l.d.I.U.G.2XjXXX+X6X X|.].U._.<XaXhX6XbXXXjXsXdX4X^.|.2XG.T.T.Y.A.>.z.g.S l.G G l.F e.n c.y.x.l.l.S A u  .rXI I yXyX} / / HXFX&.=.;.GXGXKXFX#.$.&.$.' FX&._ O.FXLX-.' $.#.' ` R _ ~ ! [ &.=.=.GXBX-.$.&.-.FX&.! %.&.~ ! ~ ] $.] -.-./ X.yXtXJXyXX.M % X X @ @ & % e % % % o X e -Xh.b.(.|.].].n.F.S.a.>.g s p r # # q  .I {  ./ JXtX=.HX=.=.BXGXGXKXKXHXLXGXJXKXKXIXIXUXIXIXIXKXHX=.&.HXFXLXFX] ` ;.^ ) ;.] ) &.;.ZX#.^ ^ $.FXAX| B 1 C H v r # V C * C yXrXU K N J g.e.x.P.j.j.J.A.A.p.d.P.J.I.S.S.Y.M.{.G.T.n.M.T.T.N.V.F.F.I.I.L.b.E.`.}.%X%X#X#X%X#X#XoX+X7X#X#X+XXX1Xk.# # K s._.).%X%X$X#X%X%X%X%X%X$X$X$X%X%X$X#X!.W.E.E.B./.|.Q.W.2.&X~.8X X!./.}.|.Q.C.C.!.}.@X#X#X#X#X#X+X X}.}.}.`././.Q.C.T.:XA.6.0 F k.8.B.[.M.J.d.t.x.f D F g.F F G Z S D q.p.8.8.b.a.z.w.>.J.J.m.i.a.J.j.j.A.j.d.P.L.M.F.F.M.S.A.k.t.s y r r t q r N N N q t m m n e.e.f f g e.s.j.d.p.s.r.s.t.t.t.w.p.d.a.d.j.z.j.d.d.A.b.n.n.S.b.a.d.s.4.t.x.g.x.l.D m n n m m m m Z z % e ",
"% % q q z z z z z x M N z z v c s d D e.q.w.u.p.a.p.p.u.w.p.s.w.7.A.S.F.G.F.V.M.T.'.H.H.L.P.g.0 9 # a F q.4.e.D D e.s.z.A.m.v.v.V.V.C.C.^.]._.^.'._.U.V.'.{.T.V.I.I.U.dXZ.`.|.|.|.2X]./.`.].`./.|.3XjX6X XXX6X6XjX6XjXsX2X1X:X;Xq q n P.S.n.T.C./. X8X8X8X7XxXxX9X9X9X9X7XxXkX6X6XhX X!.XXXX3XhXXXaX<XU.pXdX^.1XG.U..X}.@XxX+X+XXXXX3X.X|..X3X|.|.XX X@X@X}.XX|.].Y.G # 9 l.z.I.C.C.|.3X X+X6XXX/.[.G.G.sXjX6XzXkXXXhX.X2XsX].]._.N.G.T.:XA.>.x.l.S G G G l.F F m x.y.D y.0XJ K yXX.M | *.*.| / tXBX-.] ` =.-.;.-.-.;._ #.;.~ ;.DX~ DXGXHX%.-.;.;.$._ ^ 5 [ ' ] =.FXGXGX-.-.%.[ -.-.@.&.%.;.' ~ ~ ' ` %.%.;.*.*.HXBXBX} V 1 & X o @ % % q e e e % * @ X e -Xh.b.G.`..X'.N.F.M.i.i.u.h d p r 9 @ @ % X.yXX.| KXKX=.=.BX' BXKXGXHXKXKXKXKXUXIXUXKXIXIXIXLXGXtXFXtX' ~ ZXGXHX&.O.O.$.! O.' ' O.%.&.;.O.^ %.JX*.B | 1 M J K K e M V M V yXuXrX{ N A v l.g.4.x.z.p.P.u.j.P.L.:XY.M.M.i.T.T.{.S.K.T.I.i.M.M.M.S.A.J.i.M.{..XoX%X+X#X~.+X@X+X@X@X+X#X@XXX1Xh.# # J s.'.).%X%X#X#X%X%X%X%X#X$X$X$X%X%X%X+X!.N.E.U.G././._.W.2.!.+X7X@X/./.}..X_.C.C.Q.}.+X+X#X#X#X#X+X+XoX X}.}.}.`.C.N.F.Y.A.>.0 c.L.H.Z.].F.K.u.w.x.D F F g.y.F F s s t.w.d.b.b.S.A.J.r.h p.J.A.7.i.K.A.A.A.A.d.K.Y.F.F.F.V.F.S.d.s.f v e i r q r K N N q p D n n e.y.q.D q.r.k.j.d.u.u.s.x.s.t.h.s.p.a.a.p.k.j.d.f.a.S.n.n.n.b.i.a.d.q.t.q.f x.x.F e.D D n m m b m c z e x ",
"% % q e z z z N x e x x z z v c s d q.t.r.w.5.5.p.7.7.5.5.p.s.u.a.S.S.T.G.B.n.n.U.U.G.U.Y.L.h.w e # v F q.q.t.e.g 4.p.A.S.S.F.U.C.^._.`.].|.4X|.].^.^.G.[.1X<X'.I.I.F.dXC.].|.|.|.|.]..X.X/.Q.`. XXX6X6X3X6XlXkXlXjXjXvXdXdXpXqX9 q m A.S.V.T.G..X@X+X+X+X#X9XxX9XxX9X7XzXkXkX6X6XjXXX}.hXhX6XhX4XaX[.{.dX<X^.G.U.{.]./.oX7X@X@X}.|.XXaX.X].`.Q.|.3XXX6X6X XXX|.[.Y.F # 9 l.J.R.C.G.].3XXX+X7X6X/.4X_.^.jXlX8XbXzX8X6X.XdXvX2X].G.N.T.T.Y.J.5.x.l.G l.l.F l.F g.f x.l.l.G G  .yX{ V HXtX| &.| tX&.%.] / =.-.@.ZX;.' ZX#.' $.&.` &.&.] #.] ] &.&.! #.] ~ ] O.' ` HX=.HX-.&.' %.FX-.&.FX%.%.' 6 ! ' =.&.-.tXFXHXHX*.BXX.C * @ X @ # # 9 e i u y e e M @ X e l.g.a.G.].[.'.N.U.U.N.M.9.,.5.f t i # @ @ X 1 *.*.( FXLX=.HXBX..' LX-.GXHXKXKXtXBXHXIXUXKXKXtXHX=.&.=.ZX#.' ' ;.FX$.$.) ) Y ] ZX&.$.O.' ;.-.O.@.AXFX=.| 1 x A  .{ % M V V C X.JXyX .H K K F D x.t.s.P.u.P.qXL.:XY.K.K.i.Y.T.T.M.K.I.Y.b.J.b.m.a.j.j.u.a.T.[.oX X+XoX&XoX@X@X@X+X+X#X@XXX1Xz.# @  .s.'.oX%X#X#X#X%X%X%X%X#X$X$X$X$X$X#XoXOXV.V.{.`.|.Q.[.C.Q. X$X$X+X}.!.`.[.'.C.C./.|.+X%X%X%X#X+XoXoX XoX}.oX}.`.C.B.F.Y.A.4.j z.H.'.^.[.{.R.f.r.x.y.n n e.e.q.y.f f c.r.d.b.n.S.J.z.e.h w.d.A.8.b.L.S.D.L.A.m.K.R.U.G.G.B.F.S.f.s.F y z u r q r N N N w p e.e.4.r.c.t.t.p.p.d.j.a.u.u.s.x.s.r.j.j.p.j.a.a.k.j.j.d.b.S.D.D.S.b.i.u.s.h.y.g d l.l.F D D D m m m b F s u q e ",
"% % q u z z z N z e e x z z v p s d D t.r.r.5.5.7.7.5.5.5.w.r.5.A.F.H.G.G.C.F.n.G.G.G.U.S.A.t.d e # Z F e.w.t.w.h.j.A.S.S.F.G._.^.`..X|. XXX3X}.|././.^.2X].].G.V.I.V.dX^./.|.4X4X|.].|..X_.^.|.6X X X6XhXjXlXkXlX8X8XsX4X<X,X;X9 r m A.S.B.'.'.4X@X+X#X@X7X9XxX9XxXxXxXzXzXkXXX6XlXhXhXlXlXhXhX|.2X[.{.<X<X^.C.{.[._./.+X#X@X+XhXXX.X.X`.`.].|.`. XXX6X@X X6XXX[.K.F # 9 l.J.I.U.'.2X3X6X+X@X6X|.4X[.[.jXkX8XzXbXzX6X3XsXsX[.^.G.N.T.R.L.J.t.x.l.J -X-XG J S G f qXl.s l.iX .M *.JX..! $.tX| AXBX` &.-.=.-.-.HX;.DX:._ ] ;.&.$.-.` , ~ 4 ] $.~ %.$.` $.%.` ' =.BXFX] ( ] -.FX;.:.&.;.#._ ^ #.$.=.HX*.-.LXGXFXBXLXyX1 @ o @ X & e 9 q u u y y e e M @ X e J g.a.G.].'.C.2.U.{.B.B.9.n.wXh.p i # % & @ X $ ^ FX=.=.FX&.GXHX-.&.-.FX;.GXKXGXHXtXJXLXLXKXFXHXtX-.] ;.;.DXDXFX;._ O.ZX_ ) Y ] ;.%.-.) Q ;.;.| -.FXNX-.BXC N x N V N N M V M I BXHXX. .N K G y.q.j.s.7.L.P.J.R.K.S.M.i.Y.,XT.m.L.I.R.J.L.a.d.u.s.s.r.d.I._.|. XoX/.!.~.@X@X+X+X+X#X+XXX1Xx.# #  .h.'.+X%X#X#X#X%X%X%X#X#X$X$X$X$X$X#X}.`.U.C.].^.`.Q.U.U..X@X$X$X X}.!.Q._.U.N.B.`..XoX%X%X%X#X%XoXoXoXoX}.oXoXOXC.V.T.T.L.7.j j.H.]./.`.{.I.f.p.t.t.q.m g e.e.l.D D c.w.a.m.D.A.j.t.y.f t.d.L.S.F.Y.L.L.L.A.a.J.Y.T.G.G.G.G.M.f.x.g.y N u u u y N N N r c g.r.6.r.h.h.h.k.j.A.m.f.u.s.r.h.s.r.k.j.a.A.j.j.j.j.j.m.A.S.S.F.F.m.a.j.P.x.D b b -X0Xy.f D D m n m b F s z e z ",
"% e e y A v z z N z x z z A c s s d m q.w.r.5.5.p.w.w.w.5.r.r.>.A.Y.U.G.C.G.'.B.G.G.G.U.D.d.t.p e # Z e.w.w.r.w.w.u.A.S.G.G.^.^.!./.|.|.}. X X/./.!.Q.Q.2X2X<X'.F.V.C.dX].^.].4X4X4X|./.`..X.X.X6XXX3XhX6XXX6XjXlX6X3X4X2X1X:XP.9 v e.A.F.B.'.].|. X+X9XxX9X9XxX9XxXxXxXzXzXhX X XlXlXkXlXkXhX3X|.[.<XU._.2X'.G.[.[.C.}.@X+X+XoX/.!.].3X.X`.`.`./. XXX@X X). X|.[.A.F # 9 l.j.M.'.].2X4X6X@X+X6X`.].[.3XjXkXzX9XzX7X3XaXsX2X].C.F.v.,XR.S.L.z.qXl.G l.l.G l.S F F G F l.0XH { yX*.^ ~ ;.FX%.HX-.&.-.-.%.&.-.ZX%.FX' #._ :.;.&.-.;.Y Y > 4 6 ! 5 ' ! ^ $.' ` %.&.&.[ $.=.=.$.:.$.&.-.` ] %.-.BXHXBXtXBXLXHXtXGXJX} % o o @ o % % q i t Z Z v y r x x o X x  .l.s.T.[.G.N.2.U.{.B.G.0.B.Y.p.D Z # # % & # @ o 1 *.*.*.=.*.| tX%.%.$.-.GXKXGX=.LXGXLXUXKXKXLXtXFX&.~ ' -.-.LX;.O.) ] $.&.^ W ) ' HXFX] _ ] @.;.-.FXDX%.}  .X.M e E V M M V I / ..tX*.} H A J F y.q.>.A.J.m.wXR.b.,.8.F.pX:XK.R.S.Y.m.P.f.d.5.p.r.w.J.K.C.]. X/./.}.~.@X7X+X+X@XxX#X@X<Xx.# # 0Xz.'.+X%X%X#X%X%X#X#X$X$X$X$X$X$X%X#XoX`._.C.].Z.Q.C.W.V..X+X%X#X+X}.Z.Q.C.V.2.2._.}.+X+X%X#X#X+XoX}.}.}.}.}.`.C.V.F.T.H.L.p.j J.G.4X/._.[.I.m.j.t.c.g.D m e.y.x.y.e.x.w.a.A.D.A.s.e.x.t.z.A.Y.Y.U.F.I.L.K.m.f.m.Y.U._.^.G.F.m.f.J.x.Z N r y K A A N N r c g.g.4.r.z.j.j.A.A.A.m.a.u.s.w.s.h.p.s.a.a.A.j.k.d.d.d.m.S.M.F.F.F.b.m.L.wXx.x.F F uXiXg.g.e.e.n 6.h m e.c z e z ",
"e e r y c c c v z N x x z A v c s d f q.w.w.3.>.s.r.r.w.4.q.D g p.Y.F.B.G.G.G.G.T.G.F.F.D.P.l.w # # Z e.s.p.5.5.w.u.a.n.F.G.^.^./.}.}./.}.XX.X|.0.Z.^.[.[._.G.G.C._.C.1X[.^.|.|.3X3X). X6XXX|.3XXX XXX6XhXkXbXbXbXcXcXvXfXgXpXP.w r g.P.I.Z.]..X|.XX8X7X9X9X9XxXxX9XxXxXzXzXkX6X@XkX@XkXkX@XkX/.[._.<XU.2X'.pX_.^.3X].Q. X+X@X@X}.|.2X.X].].`.`.|.}.XX X).!. X4XB.k.J # 9 l.J.M._..X|.|. X~.~.!.`.`.|.XXkXzXxX9X9XkX6X|.dX<XG.'.T.n.I.F.:Xb.f.qXy.l.l.F F l.F J N V  . .C X.yX| / ( FX` &.HX` %.;.&.&.;.-.;.-.HXO.%.#.#.DXFX;.%.] ~ R 5 6 5 ! _ ] ` ' %.O.%.-.) ) O.ZX&.%.#.-.-.&.~ %.-.=.LXHXtXBXJXJXtXBXHX=./ 1 @ o @ @ # & e w Z Z Z p v Z z x M X X M H v g.:XT.C.C.N.C.T.U.U.N.Z.'.b.6.w # q u q 9 @ & @ % V *.*.*.=./ *.-.:.;.DXNX-.KXLXGXFXGXFXFXLXGX&.%.O.) &.%.-.FX' ~ &.%.] O.) ` 5 W GXKXGXDX&.' %.&.HXHX=./ tX| 1 M V M V M M | | } =.X.X.X.H A J m h.J.L.S.Y.Y.R.<.<.F.T.R.K.R.n.8.f.P.J.u.f.d.u.7.L.I.V.G.Q.}././.}.+X@X#X$X9X$X#XoX].x.# # 0Xh.{.+X#X#X#X#X$X$X#X$X#X$X#X%X$X$X$X+XXX_.C.U.V.C.U.C.!.~.+X#X#X+XoX!..X[.B.W.N.C.}.~.+X#X%X+X X}._.'.'._.C.U.R.M.K.:XD.J.w.j L._.`.`.<XC.I.m.A.s.t.l.G c G D g.x.4.s.r.A.A.m.A.A.j.J.m.b.F.F.F.T.F.D.S.:XL.s.z.Y.T.(.G.G.T.J.f.m.L.e.s r A G F G A z w p x.t.w.u.d.d.a.b.A.A.A.s.p.s.s.s.x.h.p.a.A.A.A.A.a.d.J.m.M.T.V.n.n.S.A.J.P.x.n S s uXeXl.x.h.r.4.6.4.D F c u e N ",
"q e r a c c c v A N x x z v p p a d f w.w.,.w.>.e.e.g.r.m f S l s.L.F.B.G.G.G.U._.G.F.S.D.P.l.r # # S e.p.p.w.5.5.h.L.:XT.^._.`./.|.|.|.|.3X3X.X2X_.G.G.T.T.G.F.^.].'.<X'.B.].2XjX8X+X8X8X@XXX3X6X6X6XjXkXkXkXkXkXkXcXvXdXpX:XP.w w g.J.F.Z.`.|.}. X8X7X9X9X9X9X9X9XxXxXkX7XkX6X6XkX+X7XzX@XkX|._.U.,XU.[._.{.B.].3X`.Q. X8X8X6X}.|..X|.[.[.].`.`./. XXX6X|.XX|.F.z.l.# # F j.M.C..X.X4X3X}.oX|.[.[..XXX6XzXxXxX7X6X X2X2XdXV.V.R.M.T.I.:Xb.m.P.x.l.F G A J G N V } V I tX| / ^ ( &.' -.%.^ $.$.%.' ;.FX%.GXFX&.$.%.] %.-.;.-.] ~ ' &.&.' ] ] ` W ] #.#.%.;.$.O.O.%.;.%.DX-.#.%...-.tX=.tX*.HXHXHX*.tXHXFXtXB $ o X @ # % % # q 0 s p a t v Z N e M o X % H Z x.qX:XF.G.N.U.{.U.V.C.Z.'.D.6.a 9 u a t r # q # & % V } X.tXtX=.*.=.NX:.] HX=.AXKXHXGXHXZXO.&.%.HX%.] ` &.' HXDX#.~ ;.;.FXHX$.&.` 6 ;.LXUXUXFX' ' %.FX-.%./ =./ B C V V H R R @.*.( | -.X. . .A G e.s.a.a.J.L.wXv.<.F.pXR.b.K.F.Y.m.L.J.m.J.m.i.b.I.T.G.'.`.|.}.~.).+X$X$X$X$X9X$X+X[.x.# # J q.C. X%X%X%X%X%X%X#X$X#X$X#X#X$X$X$X@X@X`.C.U.I.F.V.^./.@X8X+X#X+X).!.[.[.C.B.V._..X).+X#X+XoX}.`.C.V.I.U.E.E.E.a.m.S.a.j.w.j P.G.C.'.<XU.U.M.m.u.e.g.F c G D g.h.u.p.p.L.S.b.m.m.J.A.b.n.G.^.G.T.F.S.S.:XL.t.d.S.G.^.G.U.T.J.d.M.Y.p.n a F g.e.F v z w p l.t.w.7.a.a.a.m.S.K.j.s.r.k.p.h.z.x.h.a.A.D.L.L.A.m.K.m.F.C.B.n.F.F.K.J.P.q.F F l.0X0XF l.e.w.r.p.6.n g.G y e N ",
"e e y a v c c v N N z x z v v c a p g w.7.7.w.w.4.e.g.y.f s Z l q.A.n.B.C.B.G.G._.U.S.D.m.x.l.u # 9 F e.r.h.s.q.4.p.J.L.F.B.C.^./.|. X|.|.XX.X|.Q.Z._.dXfXfX,XF.'.[.'.{.pXG.dX3X6XXX@X8X6X6XhXhXhX6X6XjXkXkXkX6X6XhXjXsX<X,XY.h.9 w g.J.F.C.].`.`. X8X7X9X9X9X9X9X9XxXxXzXkXkXkXkXzX+XzXzX@XkX3XQ._.pXU.[.'.{.N._.2X^.Q.XX6XhX3X|.2X.X].[..X[.`.|.}.XX XhX4X|.G.M.s.J # # S j.M.Z..X2X3X3XXX3X3X.X.XXXXXkXzXxXxXkXhX|.2XU.pXI.I.K.m.R.F.:XM.S.wXx.g.l.J K H z  .I I | } P / ^ ` %.-.-.%.) ` ;.;.;.] &.%.LX-.] -.$.%.-.-.;.&.$.~ R ' &.' ) ` ` ~ ^ :.%.O.&.$.~ ' ' ' ;.ZX-.-.&.%.FX=.*...tXJX*.=.BXHXtXX.( * o X o o @ # q i r t p s d Z s Z Z A e M X X M H A l.x.L.F.G.B._.,XI.U.{.B.H.Y.6.A 9 a Z v Z 9 y 9 # # % M V tX..tX*.^ FX=...' ..@.;.GXKXGXGX' _ -.;.) ` ' ) _ &.-.GX;.^ O.-.LX-._ $.%.Y 5 $.LXIXKXFX` &.%.' ] *.&.*.} { M 1 } *./ ] =.^ ^ *.yXyXrXz F x.r.z.;Xd.7.<.T.1X<X{.Y.pXF.n.M.E.M.M.K.v.<.V.U.].`.XXoX+XoXoX~.+X$X$X$X$X9X$X+X].x.# # K w.V.XXoX~.oX+X+X+X#X#X#X$X#X$X$X$X$X$X7X}.Q.'.T.F.N.C./.6X+X+X+X+X).!.].'.U.E.N.Z.`.}.+X#X+XoX}.OXC.V.E.E.M.M.v.u.A.a.7.s.n j J.F.C.`..X_.'.U.K.p.q.y.F S F D h.p.d.j.i.S.S.S.I.S.m.M.v.B._.].^.G.I.S.D.Y.J.r.p.M.B.G.G.(.T.J.d.A.Y.J.q.d S F e.F v y i p l.y.w.5.u.f.f.M.K.K.d.s.r.k.a.j.z.z.j.A.A.A.L.L.A.d.A.m.F.U.G.G.G.I.S.a.5.n y.F 0XG l.F g.r.r.h.h.6.g g.l.z e N ",
"e e z z a p a v z N z e z v v c a s n w.7.,.5.5.w.e.r.e.b s Z a e.d.n.B.n.n.F.F.T.T.S.D.A.x.l.u # # F F r.h.h.q.r.r.p.a.b.B.G._.Q.}. X|./.|.|.|.].^.^._._.T.T.,X,X_.'.'.dXG.2X2X3X}. X8X6X6XjXhXjX6X6X6XkXkXkXkX).|.3XsX2XpXpX;X9 w g.J.F.C.]./.`. X8X7X9X9X9X9X9X9XxXxXkXkXbXkXzXzX+X7XkX@XkX6XC.G.{.U.<X[.T.V.^.|._._.3X6X6X|.|.|.].].[..X].Q..X.XXX}.3X.X^.0.S.w.Z # # F h.v.Z..X2X.XXXXX3XXX.XXX3XhXkXbXbXlXlX.X<XpXU.,XT.Y.K.m.R.M.R.n.S.L.x.l.Z K e H  .V / | / / B ` &.=.&.' ' ] ! ~ $.O.O.` -.-.) ] &.&._ &.-.$.-.ZX$.] ] &.$.) ! ) ' ] ] ` &.$._ ] ] ' %.&.FX-.[ ..=.-.-.&.| BX=.*.*.JXtXX.tXI o @ o @ & # # 9 i r p Z s D S G S S Z A N M X   M H A F q.J.S.U.G.{.pXK.T.T.F.n.:Xh.Z 9 S S S Z 9 A y e # @ % C V X.I X.tXB | *.@.| -.' -.-.HXHX;.#.W ' ] ] ) _ O.FX_ ' &.O.W ` %.O.;.FX_ ! ] ) 5 #.GXKXLX;.;.-.*.$.*.*.*./ | ( M / | ` ` -.%.( / X.yXrXK v w x.g.s.J.,.T.[.1X_.F.T.F.C.{.U.C.U.U.Z.N._.`.|. X@X+X#X%X#X+X@X$X$X$X9X9X$XoX_.x.# # K u.U.3X}.).oXoXoX+X+X#X#X$X$X$X$X$X$X#X#XoXQ._.{.F.0.^.|.6X8X+X@X@X}./.`.'.U.V.N.W.C.}. X@XoXoX}.`.C.I.E.M.n.m.v.i.P.D.p.h.g 0 z.K.C.`..X`.].{.I.d.w.l.F S S q.h.u.K.A.a.S.F.F.T.K.K.M.9.B.(.].^.C.F.L.A.Y.J.p.s.m.B.U.(.'.Y.J.p.A.Y.L.r.s s D g.F v y i a l.y.q.4.u.u.f.S.K.K.d.p.p.j.k.k.j.z.j.A.D.m.A.L.m.d.J.m.I.V.C.G.G.T.I.A.p.h.y.F 0XF F l.l.x.h.p.h.q.D l.G z u A ",
"M N N z a p t z A N N z z y p p a p m w.7.5.5.5.r.y.g.n c Z Z a t.A.S.F.F.M.G.F.G.F.b.m.D.z.G u # # Z m 4.s.h.q.e.w.u.a.b.n.F.U.Q.|.|.|.|. X3X X/./.].dX,XF.n.F.,XT.,XT.,Xn.].2X6X XXX6X6X3XhX3X6X6X6XkXkXkXkXbXbXbXcXvXdX,X:Xx.9 r g.J.I.G.`.Q.`. X6X8X#X#X9X#X7X7X7XzXkXkXzX8X7X8X+X7X7X@X8X3XQ.C.U.'.2X'.U.U.^.[.'.[.3X X}.OX`.[.[.[.[.[.`.Q.|..X|.Q.].`.C.N.R.r.Z # # F s.<.C..X.X].|.XX6XXX|.XXXX6XhXlXlXhX2XC.pXpX,XT.T.N.L.K.R.m.Y.b.A.P.x.g.A z C } V / | B / B &.%.' ;.' _ ` ` ' $.#.&.#.-.%.' ' $.;.&.&.-.O.&.HXFXFX' ' $.$.' ] ' ' _ _ ^ _ O.) ' -.&.$.:.&.$.-.FXtXtX] tXJX..| BXJX*.HX*.* X o X X # # # q r p s s f g y.q.g.D S Z A N M X   M V A p D j.D.T.^.<X<XF.T.F.T.n.;Xx.S 0 F q.F S 0 Z A y u 9 # X % M } } / X.X.V =.=.@.-.-.&.;.&.-.ZX&._ _ ` -.] O.O.;.O.O.;.' ' _ ) _ O.$.5 Y ] O.W 6 $.LXGX-.AX( ( / | =.*./ | $.] $.` ' ' %.| ( ( { rXyXyXK F g.g.s.a.'.].'.G.n.U.G.'.`.'.Q.^.`.Q.Q./.).+X+X#X%X$X%X$X#X$X$X$X$X9X9X#X+X'.x.# # A u.Z..XOX/.}.oXoXoX+X+X%X#X$X$X$X$X$X%X#X X^.G.'.T.N.].}.XX7X@XoX/.!./.].'.U.I.N.N.V./.|.XXoX).}.`._.T.E.n.n.M.M.b.L.Y.A.z.q.j z.K.C.`.|.`.`.{.E.d.w.l.F S D w.z.i.K.v.m.T.T.B.V.F.R.I.9.Z.^.^.G.B.V.L.A.L.J.s.p.m.F.U.U.T.Y.z.s.m.L.J.w.n D g.x.F p u i a l.y.q.q.r.u.i.S.K.A.d.p.s.j.j.k.h.h.k.A.D.A.K.L.d.m.K.M.I.n.B.B.F.T.Y.L.J.x.y.D eXF D g.g.z.p.p.s.q.y.-Xl.v y A ",
"k k y y a y v z N N z z z v p p p p m 6.5.5.r.e.y.g.g.F d s A Z t.j.S.T.F.S.T.F.F.F.b.d.A.j.G r q # Z D n r.h.r.g q.k.A.b.n.V.G.Q.`.|.|.|.3X6X X4X`.'.<X,XI.F.:XpXY.Y.F.T.C.[.sX3X X X6X6X3X3X3X6X8XkXkXkXkXkXzXkXkXjXsX2XpXpX;X9 r g.P.T.C.`.Q.|.XX8X8X#X9X9X9X9X9X9XzXkXkXkX8X7X7X7X7X7X7X8X6X|.].^.'.2X_.V.T.C._._.[..X}.}.`.`.[.[.[.[.[.`.^.|.XX|.Q.[.{._.I.R.s.J # # F z.v.G.].`./.|.XX3XXXXXXX XXXhXlXlXjXdXV.{.T.pXT.U.<.R.J.L.i.L.A.A.P.l.G N  .V V | ! B ^ 5 %.] 6 ;.~ ! :.W _ #.' -.%.DX&.O.&.GX;.FX%.$.~ _ ;.HXFXHX` O.$.%.;.&.$.' _ ) _ ~ _ ] ' ;.%.=.&.%.-.FX-.*...tXFX| *.tX..*.BXB X X o @ & @ # # q w p f D q.q.g t.q.y.D S S A N M X X M C K Z e.x.D.T.^.5X<XI.T.Y.pXL.A.z.b p e.r.t.D 0 f S c t i q # @ M & C { V { tX| | =.&.ZX&.W ^ _ ' LX] ) ' _ &.' ] -.FX$.) ] ) %.;.$.O.&.$.` Y ~ O._ 5 ` -.-.FXGX*.^ ( | ....&.$.' $.` #._ ' $.( / / 7 I yX .K K F m h.:X'._._.F.T.G.^.C.Q.Q.OX/./.~.~.oX+X%X#X%X$X$X$X#X$X$X$X$X9X$X+X@X{.-X# # A a.B.Q.Q.!.!.}.}.oXoX~.~.+X#X$X$X$X$X%X+X X/.G.'.'.B.^.Q./. XoX~./.!././._.U.E.b.v.B.C.`.}.}.}.}.`.Q.U.B.B.V.T.U.n.S.F.D.P.r.j P.Y.G.|.|./.^.'.m.f.q.g.D S t.s.A.N.E.M.M.T.U.n.n.M.I.I.9.B.C.G.G.n.S.L.A.L.L.s.s.m.F.H.G.U.I.z.c.J.L.J.w.D S g.x.F a r i a l.y.q.q.r.u.i.m.S.A.d.s.s.A.j.k.s.s.s.A.S.S.S.K.d.d.J.m.M.F.G.G.G.F.F.S.J.z.t.t.eXy.t.e.s.z.h.k.h.4.y.qXl.S b g.",
"e e u u y y z z z N z z z v v v p p b 6.6.6.e.F G G G m s S F S t.p.b.H.F.S.I.n.n.F.b.a.D.z.G u e % S D n w.h.t.4.r.j.L.S.F.F.U.C.^././.}.3X3X}.3X/.^.'.T.M.b.K.pXS.b.n.U._.[.sX4X X|. X6X3X4XhX6X8XkXzXkXkXhXzXkXkXjXsX<X,X:XP.9 r g.P.T.C.`.Q.`.XX6X8X7X9X9X9X9XxXxXzXzXkXzX8XxXzXxXzXzXkX8X6X3X3X_.'.2X'.n.U.G.^.U.[.|.}.XX.X_.[..X[.].[..X|.XX3X|.Q.2X{.U.T.R.j.l.9 # F P.M.U.`.^./.|.XX6X@XXX@X@X6XhXkXlXsXsXC.{.{.<XG.G.n.R.m.A.7.L.j.x.-XG 0XH V } *.~ 6 ~ 5 &.[ L ;.5 ' ' ^ ~ ` #.$.#.FX' #.%.-.%.$.;.O.` W ;.FXLXKXLX-._ O.#.O._ ) ~ ^ _ ' _ _ ] ' &.%.%.=.-.BX| ( =.tX*.| tXBX..HX| $ X o X X @ @ # q r r d d g r.s.s.4.s.e.t.D F F A e M X X M C U J y.x.A.R.G.1X,XY.:XY.wXL.p.g.S d s.s.s.q.0 g D D F s w i # @ & 1 e { } | *.^ | FX-.) _ O.) ^ DXHX$.] ` $.-.&.] #.-.-.&.~ O.$.GX&.] O.-.ZX^ ; W &.$.~ ~ [ tX@.| B P ` :.` ' $.~ ' -.&.6 ~ &.! B ~ 6 B *.rXH K J n 7.D.Y.T.n.F.G.[.^._.`.].`./.oX XoX+X%X#X%X$X%X$X#X$X$X$X$X9X#X+X@X{.-X# # G :X'.Z.Q.OXOX/.}.oXoX~.~.+X#X$X$X#X$X#X+X|.^.C.T.T.F.G./. XXXoX}.}./.!.^.G.C.E.b.v.N.C._.`./././.`.Q.C.C.C.C.'.'.G.G.H.n.L.u.j L.T._.].|.`.G.T.i.u.e.g.F D x.p.b.F.I.K.m.F.F.n.F.S.K.I.9.F.F.G.T.M.S.L.j.L.L.u.u.m.Y.F.G.U.Y.P.x.J.P.P.r.D s D x.F v i i a l.y.q.q.w.p.i.b.S.S.d.s.s.j.A.j.k.p.p.A.S.S.K.K.a.a.m.b.M.F.B.G.G.F.S.S.L.j.t.x.qXt.c.w.h.j.j.j.h.g t.qXe.D e.h.",
"e e u u y y z z z N z z z v p p a p c D e.D F Z J G S b b y.F f r.u.b.H.S.S.I.n.F.F.b.a.L.x.F u N # Z D g 5.s.r.r.w.5.8.b.S.F.V.G.^.^.^.|.6X3X}.|.^.^.'.T.m.A.:XY.m.b.M.M.C.^.3X3X6X X X6XXX|.6XkXkX6X6XkXzXxXzX7XkXcXvXdXpXpX;X0 r g.P.T.C.`.`./.|.6X8X#X9X9X7X7X9XxXzXhXkXzXzXzXzXzX7X7XzX6X6X6X3X/.^.]._.N.n.<X[._.[.|.|.3XXX`.[.2X[.`..X3X3XXX3X|.Q.[.U.B.M.:XJ.l.9 # F P.N.'.].^.|.3XXXhXhXoX@XhXkXkXhXhXaX[.C.{.dX1XG.B.G.pXA.j.5.z.x.l.-X . .V X.| B 5 W 5 ' ! ! ' ~ O.~ ! ` _ ` ' &.;.] _ ' ;.' %.' ' ^ ~ &.%.;.KXKXKX-.&.;.;.' ~ ^ ) _ _ _ #._ _ $.%.-.=.BX( *.=.=...| tXJXtXtXBXB o X o X @ @ # # # i r d f g 6.p.p.p.5.h.t.c.e.y.S y M M X X M N J G F c.j.:XT.:X:XK.L.J.z.z.e.t.F d z.j.p.w.j n q.t.D D c c q e # @ M e C { B | ] ~ -.-.O._ ' &.;.' GXO.$.#.` LXO.! ;.$.-.%.;.%.;.O.] _ Y O.;.W , 6 ^ &.' [ $.( ] ] ^ 6 6 #.' ~ &.O.] ] %.$._ ~ ^ ] ! P / { yX .y J eXP.j.A.A.wXT.'.'.U.'.'.Q.!.}.@XoX+X%X%X%X$X%X#X#X$X$X$X$X9X9X@X X'.x.# # G :X|.!.`.}.}.}. X+XoX+XoX+X#X#X#X%X#X7X X`.G.V.I.R.V.G.].3X X~.~./.!.Q.`._.U.I.E.b.N.U.'.]././././.Q.Q.^.Q.Q.].<X(.'.5XH.Y.7.j K.T.G.[.[.'.I.R.a.s.e.x.g.D x.u.8.U.T.m.m.I.F.9.n.S.Y.K.8.F.F.T.,XK.J.L.a.S.S.u.w.b.Y.I.T.U.Y.P.x.z.P.P.t.G S y.x.F a q i a l.e.q.6.w.u.i.b.S.A.j.s.p.j.A.J.j.s.p.b.S.S.K.K.a.a.m.m.S.F.B.G.T.F.n.m.P.j.w.x.r.s.s.s.d.A.a.a.p.>.c.qXg 6.w.j.",
"N y y y u y A z z z z z A y p c t w c F F F A K E A c m g.x.h.r.w.s.b.n.F.S.n.F.F.F.S.D.D.;Xx.r e 9 Z e.5.p.P.P.p.J.Y.L.T.T.9.C.U.'.].|.|.3X6X6X4X2X].<XpXR.L.wXL.L.S.v.T.G.^.sX6X3X3X6X3X|.|. X6X6X7X8XzXkXzXxXzXzXjXvXvXpX,Xz.9 q g.;XT._..X`./. X8X7X9X9X9X9XxXxXxXxXxXzXzX7X7XbX#XbX8XbXoX@XkX X].^.2X].I.U.].[.'.C.XX XXXXX.X.X.X.X.X3X3X3X6X).}.`.[.G.F.F.F.P.l.9 9 F P.V.'.`./.}. XXXkXkX+X+X@X6X6X6XhXvX.XdX[.'.G.Z.'.1X:Xj.d.t.x.F 0X .E V / B B ~ 5 ^ ~ ] ' ) ~ ` ` ! ~ ~ ) ] %.;.' ) ' $.&.%.O.^ ] ) ;.] ;.LXLXKXKXZXO.' _ ] O._ ' ~ ~ ;.) ` -.FX-.HX-.:.=.BX..*.BXJXBXtXBXX.$   o X o @ & & # # i t t s d g s.j.p.w.4.t.x.y.y.g.G N H C X   V H K l.F l.c.J.L.A.L.w.x.*Xq.*Xl.l Z d h.z.w.w.j q.h.>.w.5.4.d w i 9 # @ @ M M / / &.%.! &.-.%.-.-.' ` ) -.HX' %.O.FX%.%.FX] ' FXHX&.&.) ` ! ' O.#.&.6 2 4 ` %.~ &.' [ _ W L ^ ] ` ! ) ) O.] ` ' ~ ! ] $.%.*.} / X.{ H J qXl.D x.P.m.R.R.M.Y.T.<XG.`.|. XoXoXoX+X#X#X#X#X$X$X$X$X9X9X@X@X{.x.# # G :X/.|.XX@XoX).+X8X+XoX+X@X@X@X@X@XkXXX.X].2.v.wXR.<._..XXX X X}.}. X.X`.Q.U.U.m.i.N.U.C.[./..X/..X.X].].`.|.].].(.(.H.B.D.u.j L.<XG.F.:XT.K.A.s.t.y.l.l.F t.k.A.G.T.a.d.Y.S.b.S.A.A.A.a.i.b.Y.K.d.qXJ.J.S.D.u.7.S.F.T.V.G.n.wXx.;XP.x.x.Z S F x.G a r r s l.y.q.6.u.f.d.S.S.m.a.s.h.a.j.J.j.s.d.S.S.S.Y.S.b.A.J.m.S.F.F.G.U.F.M.S.A.a.p.f.p.p.f.a.a.A.a.p.p.p.r.q.q.p.p.p.",
"z y y y u y A z z z z u z t p v t w c S F F A K J A F D r.z.a.p.r.d.n.H.T.I.F.G.T.T.F.L.D.P.l.r e 9 S r.u.a.L.A.a.m.I.T.,X'.F.{.]..X2X.X|. X3X4X|.|.[.,XpXR.P.P.L.K.S.n.1X[.|.jXjX6X6X6XXX|.|.XX6X8X8XkXkXzXzXxXbXbXkXjXfXpX,Xj.w r g.J.F.C.|.}./. X8X8X7X9X9X9X9X9X@X7XzXzXzX7X+XxX7XzX7XkXXX8XkX6X4X^.2X[.U.T._.^.G.Q.XXoX X X X`.`.|.XXXXXXXXXX}././.].C.G.U.T.Y.x.9 9 S P.F._.`.^.). X X8X+XXX@X6X@X6XhXlXjX.XdX[.'._.(.5X,X:X4.g.F l.J  .{ { B 7 ^ ^ [ ! ^ ] ` ` ` ) ~ ^ ~ 5 [ ' ;.$.^ ~ ' ' #.%.^ ) ] $.;.$.%.;.GXFXLXGX-._ #.] ' _ ) _ #.] ^ $.ZXHXtX%.] ..GX&...BXBXtXX.BXyXC @ & o X @ @ # & # # 9 r t w s D e.t.r.w.h.e.y.l.S G G F N N M X   V H A l.l.x.t.x.,.j.qXh.x.x.F l.l.S a p x.x.t.q.0 g j.u.a.a.p.h j w i i q # @ % 1 / / | &.] &.;.ZX-.' ] ' ` O.;.%.O.&.-.;.;.;.%.' $.` ~ 2 %.;.^ &.O.! ' 5 4 O ^ ) ` @.] ^ ! ^ Y ! ] ` ^ ^ ~ [ ~ ) O.#.` ~ ^ *.| / *.FX{ H K G l.F g wXu.d.u.P.pXgX{.'.[.`././.~.).oXoXoX+X#X$X$X#X#X#X+XoX_.x.9 # F Y./.oX@X@X+X%X+X7X#X+X#X@X#X+X@X@X@X.X'.U.n.b.R.R.v._..XXXoXoXoX}.}./.Q.C.C.U.M.N.M.U.G.].^.|.!.|..X].].].|.].G.G.G.B.9.8.7.j A.'.B.F.:X:XA.j.z.x.e.l.l.F e.j.S.U.U.m.j.Y.S.b.L.J.J.J.a.a.b.L.L.j.qX;XJ.S.Y.A.7.m.Y.S.T.1Xn.P.x.qXx.qXqXA v g.g.S t u r s l.t.r.5.u.p.a.S.S.A.d.s.s.d.d.j.j.s.j.S.S.I.Y.S.a.m.J.m.m.b.n.V.F.F.S.S.A.d.d.d.f.a.f.d.j.d.a.a.p.p.s.s.r.p.p.p.",
"y u y y u y A N z N z e u y a p t w s S F Z N N K A F e.7.A.m.d.5.p.b.V.T.F.F.G.'.G.F.I.L.P.g.w e 9 S r.p.i.A.m.a.i.S.T._.^.G.'.].[..X|.|. X6X6X X3X<X{.:XR.J.J.d.m.S.n.<X3XXX6XhX6X6X3X X}.|.6X8X8X7XzXzXzXxXxXzXzX6X3X2XpX,Xs.w r e.J.T.^.|././. X8X7X7X7X9X9X9X9X#X7XzXxXbX9X#XxX9X7X7X8XXX6X6X6X2XC.].[.U.V.G.Z.G.`.XXoX+X@X3X/.!.|.XX|.|.XX|.}.}./.].C._.'.T.L.l.9 # b J.V.^./.!.). X X@XoXXX3X6X XXXjXlXaX^.[.{.T.H.F.,X:X;XD g.l. .U  .I 7 6 ] 6 ^ ~ R ] ~ ^ ^ ~ ) ^ ^ [ ~ O.%._ ~ ` ] ' %.$.^ ~ ] ;.^ ] ' $.;.-.HXZXFXZX~ -.#.^ ~ &.#.#.&.#.;.HX-.| tX&.=.( tXBX=.tXtXtXX.& @ @ X o % @ # # 9 q 9 i u p a c S G g.F D F F F J Z F A A N V C X X I U G l.qXx.s.P.>.;XqXq.x.l.F l.g.F a d F g.c.l.j 4.z.d.A.S.A.,.h d p y u # # @ & $ B / ! %.` ' FXHX-.! [ %.' ~ ;.' &.] ' %.%.;.HX-.4 ] _ 6 ' ) ` ) ) ! O._ 7 , ^ _ ~ ] -.$.$._ ! &.;.^ ^ R B ~ ' ] _ ] O.[ R | B [ &.} { rXN y Z 0Xc.e.x.t.h.z.L.b.V.U.^.Q.Q./.}.}./.!.oX%X%X%X#X@X#X+XoX{.x.9 # G T./.).#X#X%X+X#X$X$X$X#X#X+X@X@X+XXX[.U.U.m.a.wXR.n._.].}.).oXoX}./.`.`.Q._._.V.n.I.G.C.].^.|.OX|..XG._.].[.{.F.F.F.n.8.p.r.j J.T.B.S.:XY.J.P.qXx.D l.x.e.6.j.Y.'.G.d.z.L.A.b.L.L.P.P.a.D.m.L.wXz.;X;XP.H.:XS.u.S.Y.Y.F.1XH.P.x.qXx.-X0XF t l.g.S a u r s g.g.r.6.5.p.f.A.S.A.k.s.w.d.p.k.z.s.j.A.S.T.Y.M.v.m.J.m.b.b.b.D.F.S.D.S.m.a.m.m.a.a.d.A.A.p.d.d.p.p.s.k.p.s.s.s.",
"y y y y u y A z z z u e u y t p p p s S S Z y A A Z F r.7.m.D.b.5.7.9.0.B.F.G.G.^.B.V.Y.Y.J.t.0 r q b 6.7.8.S.S.M.9.n.G.G.C.C._.^./.}.|.|.XX6XhX|.].^.C.V.M.b.a.a.a.S.V.2X3X XXX6X@X@XXXXX XXX6X8X8X7XzXzXxX9XxX7XzXkXjXfXfXpXk.w r e.J.1X/.|./.|.XX8X7X7X9X9X9X9XxX7X9XxXxXbXzX7XxXxX7X7X8XXXhX3X4X|.Z._.<XR.n._.Z.'.[.XXXX8X@X6X|.}.|..X}.}.|.|./.|././.G.'.'.F.A.l.9 # c k.n._./.^.`.4X3X8XXX.X.X|.|. XhXjX3X2X<XT.R.I.S.;X;Xx.p 0XJ V I 7 B 6 B 6 ~ 6 ) ` 5 6 ! ^ ^ ^ ) ) ^ O._ ) ^ _ O.` ] ! ' ' ' ] 5 ] ;.FX-.&.%.;.&.-.LXHXO.! O.&.O.#.-.-.;.-.FX-.-.&.-.*.tXBXtXtXFXyXB @ @ o @ @ @ # % q 9 q i q r y a Z Z G J J J J E J K J K J H N N C C X   V H G l.x.x.x.qXx.eXeXF x.g.l.l.G G t v l.l.G G 0 f j.m.S.V.D.<.1.>.f Z r u q e @ # & B ( B [ ' [ ` @.$.^ ^ $.' ^ ] ' $.$.' %.%.&.GXZX] ) ! ! ^ #.~ ) O.^ ] ] 4 ^ ) 5 Y ~ %.$.~ ' ] ~ O.[ ^ [ ^ 5 ` #.~ O.@.| R 5 L :.| X.V yX{ A A S x.D D y.e.p.i.M.C.^.^.Q.Q.`.`.Q.!.}.oX+X#X@X7X7X+X@X[.P.w # g.T.}.oX#X%X%X#X$X$X9X$X#X#X#X+X@X+XXX.X{.F.i.i.pXwXb._.`.}.}.oX X}./.}.`.`._._.V.B.G.C.C.].`..X/.`./.Z.C.G._.U.M.M.S.b.a.h.w.j L.:XC.I.Y.I.Y.wX;Xh.q.g.l.y.5.A.F._.V.m.J.L.M.b.S.L.L.L.a.S.A.L.wXz.P.z.L.:XT.A.m.Y.S.Y.n.U.T.P.x.-Xg.l.l.J t g.g.F Z u r p g.y.r.6.5.u.p.b.A.A.k.r.w.s.p.k.z.s.s.S.I.T.T.S.b.m.J.d.a.b.n.F.F.S.S.A.a.i.a.m.m.A.A.j.d.p.j.d.u.p.d.a.u.r.t.t.",
"v a v a u y y y y u e r t t t p p p m m D S s Z G F g.p.8.D.b.b.a.a.n.G.G.U.'._._.G.F.T.R.L.c.0 r q S 4.u.b.K.I.S.v.n.(.(.^.].|././.}.}.}. XXX6XXX|.].[.T.I.Y.R.A.S.T._.3XXX+X@X@X+X XXX6X6X6X8X8X7X7X7XzXxX9XxXzXbXcXvXsXfXpXp.Z Z y.A.'.].|.}. X@X7X7X9X9X9X9X9XxX9XxXxX9XxX7X7XxX7X7X8XkXXXhX|.2X[.N.'.pXR.E.'.C.[.]. X8X7X+XXXXXXX|.}.`.}.|.|.|.|././.^.].'.U.m.l.9 # S z.F._.]./.|.4X X6XXX.X].].|.4X6X8XsXfX,XM.J.z.t.c.x.-XU U V V 1 , 6 5 , 5 < [ ^ 7 5 5 ^ ~ L W ~ ) ^ 5 ` Y ` O.) ] Y ' &.^ ) 4 ` $.&.ZX' %.' -.] ZXGXFX;.-.` ` -.GX' ;.HX-.HXFX&...=.tXtXtXBXFX} * $ X o @ @ @ # # 9 e q r r q u A y y K J K K H  .rXrX .rX .rX .{ V 1 7 X   C H G x.s.j.x.l.l.-X-XZ l.G J J K K z A J G Z Z 0 n z.A.F.B.B.<.,.u.q.l d t i y q % @ & 1 | / [ &.=.-.~ &.$.! ~ #.! 5 Y O.&.O.&.&.&.&.-.;.^ Y ! ! ) ` 6 ~ _ Y 5 ] ' %.` ] ` ] ` ~ _ ` ' ~ @.[ B [ ) ) ;._ ] *.] ! ! _ ~ / X.{ C yXH r Z Z F y.q.r.a.Y.U.'.^.C.0.!.^.Q.Q./. X+X#X+X7X9X+X@X[.x.0 # g.T.~.+X@X#X#X#X#X#X$X#X#X#X+X#X+X+XXXaX[.U.M.b.gXpXn.'.`.}. XXX@XXX`.OXOX_._._.G.C.G._.C.^./.|.OX!.Z.C.Z.Z.V.n.i.8.7.8.a.r.g j P.,XB.F.I.F.U.T.Y.a.w.r.h.h.p.K.M.G.B.M.P.I.F.n.F.R.L.R.b.F.S.I.:XJ.P.z.:X:XT.S.A.I.b.F.D.H.F.j.x.-XD l.S 0XZ F g.S c u r p g.y.e.6.6.p.u.a.m.j.k.r.w.p.p.j.z.s.u.A.T.{.{.Y.S.d.m.A.d.A.A.S.S.S.S.m.i.i.a.a.m.J.J.z.s.h.z.h.p.s.j.j.u.t.t.t.",
"c a a a t y y u y z u u z u t Z a d m 4.4.q.b F S n r.u.8.A.A.b.m.S.G.(.(._.].^.].^.U.,XT.Y.s.0 q q S q.a.m.S.I.S.M.n.G.].^.].].|. X X X XoX X6X X}..X2X_.V.F.I.K.S.,X[.3X X+X@X@X+X+XXX6X6X6X@X8X7X7X7XzXxX9XxXzXzXkXjX2XdXpXp.a v e.A.'./.}./. X@X7X7X9X9X9X9X9XxX9XxXxX7X9X7X9XxX#X7X@XhX|.aX2X[.'.N.'.pXR.I.{.C.[._. X8X+X+XoX XXX|.`.`.]..X2X.X|.^.].^.[._.T.a.l.9 # Z z.R._.].^.].|.|.6X3X[.'._.].4X4X3XsX,XY.d.h.y.S l.0XrX .{ 1 B B > ! , 6 6 [ 7 2 R 5 ^ ^ ^ W ! ~ _ _ ! ^ $.! ! #.W ~ ! 2 Y 6 ~ $.-.-.;.%.$.;.] $.` #.FX;.] ' KX-.` %.-.FXGX=.&.&.=.tXtX*.X.tX| 1 $   o @ @ @ # q q 9 u q r u i u A y z N N e & M V V M M V C C M M 1 $ < .   C H J x.h.g.g.G  . .E N H H H H N H M N K A y A w y.P.A.G.G.G.9.9.b.p.q.g d s t Z i % @ @ $ B / ^ ` $.%.' ~ ;.^ ~ Y ^ ~ Y %.;.;.$.' ' ' &._ ' _ ) O.] ;.! 5 5 5 Y 6 ] ;.-.%.&.] _ ' ] ' [ R ^ | ' 5 W &.&.O.' &.' ' 2 5 / C } } V rX .N K F y.D r.a.I.U.^.Q.Q.!./.`./.Q.`.XX+X+X+X7X7X%X+X].z.w # g.{.OXoX~.%X#X#X#X$X#X#X$X9X#X@X+X@X@X3X.X'.,XK.pXR.F.[.`.}.oXoXXXXX`.OXOXOX`.`._.C.^._.C.Q.Q.`.`.OXOX_.G.C.C.V.v.i.i.D.P.h.g j P.'.C.^.[.'.C.U.T.I.b.p.j.P.j.L.N.U.V.E.Y.I.F.B.G.T.I.R.M.F.U.T.R.L.P.P.Y.T.1XI.m.S.m.S.n.H.H.j.g.l.e.x.b 0XF F g.F c y t p g.e.y.6.r.t.p.a.d.j.s.r.w.w.p.z.z.q.w.A.R.,X{.R.K.b.d.A.d.b.b.D.A.m.A.m.u.m.m.m.d.J.P.P.x.x.c.h.s.k.A.j.p.s.s.s.",
"c a a a t y y r y z z u t y a Z s s 4.5.w.p.w.r.m 4.s.p.a.A.m.m.m.A.G.^.G.^._.Q.].]._.'.T.R.c.0 # 9 Z q.d.M.M.M.I.T.B.G.].^.^./.oXoX+X+X+X+X+X6X6XXXaXaX'.U.U.F.M.v.'.[.3XoX+X#X@X@X+X X@X8X8X6X7X7X7X7XzXxXxXxXxXzXbXcXsXfXfXP.0 t y.A.,X/./.}. X@X7X7X9X9X9X9X9X9X9X9XxX9XxX9XxXxX9X8X8X6X|.3X4X].U.N.U.R.K.K.R.V.{.C.XX6XoX@X X}.}.}.`._.`.[.2X.X].Q.].[.5X_.{.u.l.9 # Z x.R.U._.G.^.|.|.3XXX_._._.'.].4X4X2XU.Y.z.x.J J 0X .} / 1 1 7 , 7 4 7 6 ^ 6 ! 5 6 W ! ! ! ! ! ^ _ ` ] ' 5 ) ) 6 ) ~ 6 2 ! ] &.;.$.;.&.#.' ] O.;.%.-.&.&.HXFX-.%.;.&.-.FX-.&.=.=.HX*.*.| tX( $ o   o o o @ # % r u q y i u u i y K k N M % & @ $ 7 1 B B P 7 M 1 B B $ -     M K G l.g.S K { { | | ( |  .} | ( | / / H H N N 9 F P.m.G.(.(.0.9.S.d.r.h q.g D p v r q @ @ $ B | ~ ! ' $.%.] ' ` ~ 5 ^ ~ ` ' ;.&.$.] O.-.;.$._ O.) ^ O.O.R ! R ' O.Y R _ ~ %.;.~ ^ ) ) 5 ( [ ~ ] _ W Q ' &.&.^ &.&.] ^ } *.V } *.I rX0XK S D t.J.b.F.C.Z.Q././.`.|.}./.|./.~.oX@X7X#X+X+X[.P.p # y.{.}.).!.~.@XoX#XxX#X#X$X$X@X@X@X@X@X6X|.].<XF.pXT.U.[.`.}.}.!./.`.OXOX`.`.`.].`.^.^.^.Q.Q.`.|..X.XXX|.].`.`.U.M.m.S.:X:XA.w.h Y.[./.|.2X|./.].<X'.I.A.J.P.A.Y.2.C.U.E.R.U.U.C.C.{.V.{.F.B.'.'.I.R.L.L.:XT.1XY.S.L.A.S.n.H.1XL.r.e.x.h.g.0XF e.g.G Z a u p G F F e.g.t.s.a.A.j.h.r.w.u.d.z.h.q.p.L.:X<X'.T.K.a.m.J.a.a.i.m.A.m.J.m.u.m.m.A.j.z.z.x.x.c.g.t.t.h.j.d.a.d.d.d.",
"c a p t t y y r u z z q w t a s c f 4.5.u.a.p.h.5.u.J.A.b.S.m.a.S.n.G.G.B.^.].^.|.].'.'._.:Xx.0 # q Z q.d.M.S.K.Y.,XG.^.2X].].|. X+X+X+X+X+X@X8XXX XXX|.^.'.,XF.v.<.G.].6XoX+X#X#X@X@X X X@X8X7X7X9X7X7XzXxXxXxXxXzXbXmXvXfXfXP.t v g.A.'.^.|.6X}. X8X7X9X9X9X$X9X9X#X9X9X9XxX9X9XxXzX+XkX@XhXjXsX[.I.v.R.R.K.I.{.V._._.hX8X).8X@X)./.|.`.C.Q.[..X|.].Q.].|.2X_.T.u.l.9 # Z z.Y.V.V.V.G.5X2XaXaXU.R.T.G._.[.1XT.:XP.y.F J  .{ C I B 7 7 , , 4 7 B 6 7 ^ ^ 6 5 ! 5 W ! W ! ^ ~ ^ ! ^ _ ^ ^ W 3 2 2 ) ] ' -.;.FXFX$.$.O.O.%.&.^ ] FX-.DX;.-.-.-.=.-.-...=.tX*...tXBX*.7 +     @ X @ & @ # u u r u y i u y i y K y N M M 1 $ 7 [ ] | ! 6 < 7 B B 7 1 , .   C K l.x.G K H { $ < 6 ! B B 6 B 6 B 4 1 M N N N i y.P.b.G.'.5XZ.B.F.m.p.>.>.r.h D p a i # @ o o B $.] ` ' ' ' ~ ~ &.~ ! ! ` ] ~ ' ;.~ ~ ] &.-.%.) 5 -.&.^ %.] W ~ ) ~ 5 O.[ ! ! ] ) Y ` ] ] ` ^ ^ O.:.W Q ) ' &.^ ^ $.@.*.X.V / B | C { iXl.F e.h.u.M.'.G.Q.!.0.!.`..X.X[.Z.&X).7X7X#X#XoX2XqXs # F R.`.XX!.oXkX%X#XxX#X%X#X$X#X#X@X+X+X6X4X^.G.n.gX,XF.2X|.}./.&X!.`.Q.Q.OXQ.Q.`.`.Q.Q.^.^./.|.|.|.}..X}.|.|.].G.n.n.S.Y.D.p.5.h I.].4X|.|.}.|.3X.X_.T.F.S.L.b.Y.2.U.[.U.{.'.'.^._.[.C.{.U.n.,X,XF.pXY.j.;X:XU.F.Y.R.b.S.F.H.T.Y.J.x.x.k.;Xl.D r.e.y.b a t p F S F e.g.r.p.d.A.j.h.r.w.p.j.z.z.r.d.:XpXpXT.I.M.a.m.A.u.a.b.A.S.A.J.j.w.f.J.J.J.z.z.x.x.l.l.c.h.k.a.a.a.a.a.m.",
"c a v u u z y a t t y y u t c b m g 4.r.k.a.p.7.7.m.D.b.b.S.F.F.F.F.G.G.(.(.`.`.].2X_._.<X:Xs.t # 9 v e.k.A.b.m.I.T.G.^.|.|.|.XX}.~.@XoX+XoX X6X X XjX/.U.pXT.T.Y.v.T.|.3X X+X#X7X7X6X6X7X8X@X7X9X9X7XzXzX7X7XxXxXxXxXkX8X2X_.J.p a g.A.'.].|.|./.XX6X+X9X$X+X#X9X9X9X9X9XxXxXxX9XxX7XxXzXXX@XhXsX1XE.a.R.R._.V.[.Q.[.`. X8X X@X+X X/..X[..X_.[.`.}. X}././.]._.,Xu.l.w # p j.Y.Y.m.S.S.'.1X[.dXI.K.K.M.M.L.Y.;XqXy.l.H  .{ C ..P 7 1 7 , 7 6 4 , 6 7 P 4 4 Y ! 6 ^ L 4 ^ ] Y ~ ^ ^ Y W Y 6 6 > _ #.&.ZXFXGXGXZX&.] -.;.-.) #.' ' -.-.-.-.FX=.BX=.=.FX&.&.tXtXtX( < X X X o @ @ # # % q r t a p t i y u a Z S Z A C 1 1 7 / ] ' R B 1 > O 8 7 7 $ 1 X o V J x.t.g.Z H yX. . B [ ! ! ! B B B 7 $ M % e A w l.p.b.V._._.C.F.I.S.7.,.r.r.4.n D b p 9 # # @ o * / ..! ] ' %.[ ^ %.] ^ ~ ) ~ -.#.$.' ! $.O.&.O.^ 6 O.] O.O.) ) ) ^ ` Y ^ ) ^ 6 _ 5 ~ ' &.] ) ! ^ _ $.) ^ _ ) #.) ~ %.*.=.( ( / M C C M { 0XG D p.A.F.G.C.^.Z.2.Z.[._.C._.Q.!.#X$X#X#X}.,Xh.w 9 D S.Q.XX|.+X@X+X#X+X#X#X#X$X9XxX9X@XhX|./.^.G.F.pXI.S.<X'.2X!.0.Q.Q.`._.[.`.Z._.`.C.^./.^.!.|.|.3X}.|.|./.|.`._.U.M.S.b.m.P.6.j D.'.`.`.`.|.}._._._.^.G.G.m.m.I.Z.C..XC.V.^.2X^._..XQ.{.F.D.wXD.Y.pXY.qXqX:XT.T.G.I.I.I.F.'.].G.F.S.K.S.A.r.t.j.j.s.e.c v p F F D e.r.u.u.d.J.J.j.u.5.r.h.j.h.u.j.:XpXI.T.T.I.M.n.v.i.S.7.A.A.A.A.P.j.d.u.m.S.A.z.l.l.l.l.x.p.d.J.s.p.a.a.a.",
"S v v u y A v v p p a y t t s f f g 4.5.p.j.j.a.7.b.A.b.b.F.G.F.U.U._.(.(.(.^./.^.].'.[.5X:Xh.w # q v D p.A.i.i.M.F.G.^.|.}././.}.!.).).+X6X|..X}. X6X/.I.pXT.,X:Xb.G.].XX+X+X#X7X8X6X6X7X@X@X7X9X7X7XzXkXzXzXxXxXxXxXzXlXsX<X:Xp p g.D.'.].|.|./. XXX+X7X#X#X#X9X9X9X9X9X9X9X9X9XxXxXxX7XoX6XlXvX'.v.a.wXR.'.C.`.Q..X|. X8XoX+X+X@X}.3X[.[._.[.XX|.}.}.|..X[.U.I.u.x.0 # c P.S.J.m.L.A.T.1X[.{.E.J.m.i.u.z.x.qXF l. .{ V B | B P 7 7 7 , , P ^ 7 4 5 4 6 ) 4 5 ! ` ^ ~ _ ] ^ ! 5 _ W ~ W 6 2 _ _ DXHXHXGX-.O.&.ZXLX-.&.O.' ;.;.-.=.NX-.=.=.tXtXBXBX] =.HXX.*.| < .   X o @ # # & e q r a a d s a u N u v l D b K C M B / / ] / 7 1 $ O 8 4 4 6 < 1 X @ K l.l.t.x.J H I + - [ ! ! ! ~ ! B B 1 $ $ 1 M u 0 x.;XM.F.'._.C.V.F.F.i.7.w.5.4.4.q.q.m w r u % @ o * 1 | ! ] ] %.%.R ' $.$.~ ! ;.' 5 ;.%._ _ &.%.-.$.~ ] ) ;.HXO.Y O.;.Y O._ ^ Y Y > ` ] _ %.O.^ ) ) ! &._ ~ ] ) #.%.~ ] ' %.| / V V V C % N 0Xl.e.j.m.F.F.9.2.Z._.'.C.C.'.Q.!.$X$X%X+X}.:Xh.w 9 F I.^.`.}.@X@X+X@X7X@X#X$X$X9X9X7X+XhX3X`._.U.S.pXS.F.<X'.].`.^.`.`.`.!.OXQ.Z._.`.C.`.].`.Q.|.}.XX}.}.|./.|.Q._.B.n.M.Y.D.P.w.h L.,X^.^.}.|./.U.T.U.^.^.^.F.E.T.C.!.|._.C.'.|.^.^.XX`.[.I.s.eXwX:XR.K.P.qXY.T.G.T.F.V.I.C.'.`.^.G.G.T.H.S.w.w.j.A.d.r.S c t S S D r.p.p.u.d.A.A.a.u.r.h.g.h.h.p.A.L.F.n.U.U.V.V.V.n.m.m.i.K.A.A.s.k.s.p.f.S.F.S.A.x.l.l.l.x.d.A.K.d.d.j.m.b.",
"S c v u y A v v p p v A a a f f f 4.q.4.u.j.j.a.u.m.A.b.b.S.H.F.V.V.G.(.(.^./.`.^._.'.1X].T.h.w # q v n p.A.m.a.v.F.(.`.|.}./.!.}.~.). X+X8X|. X XXX6X].T.R.F.,X:Xb.G./.XX+X#X@X8X8X8X6X7X@X@X@X7X@X@X7X7XzX9XxXxXxXxXzXjXsX,X:Xd p h.D.1X|.|.XX/. XXX+X7X9X7X9X9X9X9X9X9X9X9X9X9XxX9XzXkX6X@XXXjX'.n.i.R.T.^.C.`._..X X X8XoX+XoX+X X3X[._.C.`..X|.XX X}.}.]._.V.a.-X0 # A P.M.M.m.K.b.G.[.].G.n.m.a.u.s.c.l.G J  .V M / / B 6 6 < > , 6 5 6 4 5 4 6 ^ 6 6 ! W W 6 W ! ! ' ] ] ^ ~ ) _ ^ ^ ^ #.&.-.FX-.-.&.;.FXFX$.] ;.' FX-.FX-.;.-.%.=.*.BX=.-.' HX=...*.B $ X   X @ @ # & # 9 u i r S s d b a a A r Z F e.D K N * B / 6 / B 1 $ $ . 8 6 , 6 1 1 X X H l.y.g.l.l.V * - B ( ^ ! ^ ^ ! B B 6 4 7 M M z p x.wXS.F.'.'.G.F.F.Y.m.a.w.w.w.w.5.q.e.d d A y # o o o < ( ^ [ ' ~ ] $.' %.;.~ ~ ` %.~ $.-.O.~ $.O.] $.%.) _ ;.] ~ &.! -.' Y W Y _ ! 3 ] ` W W ;.Y Y 5 6 ;._ ^ ! ^ _ ;.` ^ &.] *.*.1 V V M N N J 0Xg.e.t.d.J.S.F.'.5X/.Q.`.!.~.#X$X+X+X`.Y.l.t # D Y.Q.!.}.@X+X+X@X7X+X7X9X$X9X9X#XXXhXaX.X'.U.S.pXb.R.,XU.G./.|.|..X`.Q.Q.Q.Q.`.`.Q..XQ.Q.!.`./././.}.|./.}.Q.C.N.n.M.Y.S.x.6.h L.'.Q.^.|. X^.E.R.T._.Z.^.G.I.'._./.|._._.`.]././. X X[.Y.h.eXeX:XV.I.L.qXY.T.B.'.G.V.G.G.]./.Q._._.T.G.S.,.w.d.A.d.r.F Z t S b n 6.p.p.f.d.j.j.p.w.r.e.y.g.h.r.j.L.S.F.U.U.V.V.V.M.m.m.u.A.j.j.p.p.r.p.b.F.F.n.A.x.l.l.l.x.j.A.K.d.d.j.A.m.",
"b a v u u v t p c a Z Z a a b f h 4.w.5.w.p.p.5.a.b.A.D.n.F.G.H.N.B.G.(.(.(.`.].]._._.'.(.T.x.t # q a b p.J.A.b.n.T.].`.|.}././.}.}. X6X).6X/..X~.). X^.V.m.9.F.Y.n.T.].XX+X+X7X7X7X8X6X8X@X@X@X8X+X+X@X8XkXzX9XxX9X9XkXjX4X'.L.j p h.D.1X|.|.4X|.3X6X8X7X9X7XxX9X9X9X9X9XxXxXxX9XxX9X7XkXkX6X X8X2XT.i.M.U._.!.`.`.XXXX+X+X%X+X).+X X3X[.C.C.'.`.|.XX X/./.`.'.C.m.-X9 @ Z z.S.M.m.F.n.(.5X].^.I.b.i.s.x.l.G A K V C { / B *./ * < 7 4 7 7 , 7 5 5 > 6 ~ 6 6 5 W 4 _ ' ~ ' ` _ ~ ) -.:.' _ #.&.' O.-.%.] ` %.-.' ;.#.%.;.-.-.;.;.NX-.%.%.&.tX=...FX*.| *.1 @   X o @ @ # & e i q r t a S f f D p c A r l y.y.F J H M B R - 7 < $ O O . O > 8 5 < 1 o X K J y.x.x.-XH I B [ ^ ~ ^ ~ ^ P ^ R R ~ ! B 1 N v x.wXb.U.'._.G.G.T.H.D.a.p.p.p.p.u.5.w.4.d a A q # # @ X X / R R *.] ! ^ ~ 5 &.] ~ ! $.Y ` #._ ] ` ] ] O.;.&.O.) ^ _ ~ ` %.) 5 4 W ! ) _ ' ] _ 5 &.) ' ! ^ O.;.) ) ] ! %.$.[ @.@.| @.V M { N k N A 0X0XZ S e.w.<.9.B.0.C.Q.!./.%X#X+XoX'.K.l.t # D R.Q.!.oX@X+X+X+XoX X7X7X#X$X9X@XXXhX3X.X[.U.I.pXb.pXpX_.0.^.|./.|./.`.OXOX_.].`.Q..X/././.|.|.|.}.XX|.!.}.!.C.B.n.M.L.d.k.>.j K.'.^./. X X`.I.K.R.'.Z.^.^.U.'.'./.].'.[.^.`././.+XoX|.Y.x.eXeXL.F.T.L.wXI.'.B.'.C.G.U._.|./.!.]._.U.H.S.,.q.A.A.d.r.F Z t S S S 4.w.u.f.d.d.j.p.w.e.n y.x.x.q.s.:X:XU.'.U.C.V.F.n.m.m.u.d.s.x.h.r.s.d.m.F.B.n.A.x.l.l.l.z.d.A.S.f.f.a.a.d.",
"c s Z y u y t v c a v Z a a b m g g 4.5.5.5.5.5.a.a.b.b.n.F.H.H.B.C.(.'.(.(.`.].|.'._.'.].:Xx.w # e v b w.A.a.i.n.T.].`.|.}.}.|.}.}. XXX}.3X/.|.}.6X6X|.T.K.n.:XI.S.'.].6X+X+X9X9X7X8X8X@X@X7X7X7X@X+X X8XkXzXxXxXxXxXzXcXsX<X:Xj p k.S.1X|.|.XX|. X6X8X8X7X9XxX9X9X9X9XxXxXxX9XxXbXxX+X+X6XhXkX6X4X<XN.V.[.]./.|.|..XXX+X+X%X#X+X+X@X3X2X_.C.'.[.`.`.|.|.|.|.`.G.M.x.9 @ y z.I.R.V.T.H.2X2X].'.S.J.z.x.l.A K U C * B ( B / =.7 , 7 4 6 4 7 7 6 > > ~ 5 , 6 6 5 ~ ) _ &.~ ^ $.~ ] $.-.#.ZX;.O.#.' =.-.$.' -.;.&.FX-.$.%.FX-.;.' -.NXFXFX....tX=.FX` ..( $ X o o o @ # @ # q u u t w s D b g 4.q.f F F w l y.y.F J H C / B 1 + X   .   . 8 8 > B 1 1 o X K J y.qXx.l.H } ^ [ R ~ ~ ~ ^ ^ / ^ 5 R 5 B % N t qXwX9.G.^.^.^.T.T.H.b.7.u.p.a.a.d.a.a.5.h f Z u q q % @ & X $ / 7 ! &.' ^ ' ^ ~ ' ^ ^ ~ _ _ ~ _ ~ _ O.O.] ' -.HX&.Y ^ 5 ` W 6 6 ! ! ! ) _ ) _ O.~ ' ] ^ ! O.O.#.O.~ _ ~ %.@.[ ] ] | *.{ % V H M x M U rXJ Z e.w.7.b.G.Z.Z.!.!.).%XoX}._.J.x.a # F ,XQ.}.@X@X+X+XoX}.XX6X8X#X#X9X+XXXhX.X[.[.{.I.pXn.dXdX'.Z.].|.!.}.OX`.Q.`.`.`.`.Q.|.}././. X3X|.}.}.|.!.}.!._.U.E.S.A.a.k.>.j A.'.`.|.}.|.[.R.J.Y.{./.}.]._._.^.^.^.[.[.^.(.`./.+X+X.XI.x.eX;XL.{.G.R.R.F.,XG.^.C.'._.`.|.!.!.].'.G.U.S.w.s.J.A.d.e.F c t S S D 6.w.p.f.d.z.j.p.r.q.q.g.qXx.4.s.qX:XF._.G.F.F.F.S.A.a.u.j.s.h.r.r.z.A.S.G.G.n.m.z.l.g.g.j.a.D.S.i.a.a.a.a.",
"c c Z y u y a c c p a v p p f g q.4.4.w.w.7.7.a.a.a.a.b.b.S.H.H.C.G.(.(.(.(.`.].].]._.'.5X,Xx.w # % a m r.A.m.m.b.H.(.].5X}./.}.}./.}.|.4X8X]./.!.oX|./.T.S.n.,XS.S.,X].6X@X+X9X9XzX8X8X@X@X7X@X7X@X@XXX6XkXzXxXxXxXxXzXcXvXdX:X0 d k.F.[.|.|.|.|.}.XX8X7X#XxXxXxXxX9X9XxX9X9X$XxXxXxX+X+XhX6XkXkX4X'.N.U.<X].|.|.|..XXX+X%X+X#X7X+X@X X2XC.V.U.'._.`.`./.`.|.|.[.I.x.0 # N z.R.{.U.1X'.2X]._.T.:Xh.y.l.0X{ V M 1 B ] 6 6 P 1 7 7 7 , 7 5 6 4 7 , 4 4 , Y ! 5 ^ ' L #.~ 4 ' ~ $.' #.$.;.;.;._ ] -.] :.FXFXHXFXGXFX$.;.FX-.;.;.FX;.HX%.%.-.=.| tX&.*.P o o X X & @ & # # q r t t p w f y.g >.p.4.h F F w D g.g.y.J H C R V B $ + o . . O , , 2 5 > 1 o X N J t.P.g.G V V ^ ) ` ) ] _ ~ ^ ^ ^ R 5 4 6 * N w ;X:XM.G.^._.'.'.T.S.b.p.d.j.a.b.A.D.b.,.>.q.D w 9 r e # # @ @ @ B | 6 [ ZX~ O.) ~ ~ ^ ) ~ #.&._ ^ ) W ^ O.%._ ` %.O.~ _ 5 Y W 6 ! ) ^ _ %.O.^ &.FX_ ) &.! _ Y ) &.O.O.^ ~ ~ ' ` ^ | ] yXR % C C 1 M % M yX0Xw b h.u.D.B.Z.G.^.).oXoX`.U.J.l.t # S R.Q.}.+X+X+X+X~.!.|.XX@X+X#X7X+XXXhX|.[.<X{.T.T.F.pX'.^.^..X|.OX}.}.}.Q.`.`.`.`./.|.!.!./.).XX}.`.!. X/.}.Q._.T.K.K.b.a.h.4.j A._.`.|.}.}.[.R.J.K.'.|.}.(._.^.G.^.].<X[.G.(.^./.#X+X6XI.c.0Xx.;XpXZ.T.I.V.{.G.^.C.]././.|.!.!.].'._.U.S.u.s.L.A.d.r.F Z w Z Z D q.p.p.f.j.z.j.p.w.e.e.t.x.c.q.z.qXP.V.U.G.F.F.S.m.A.a.p.P.s.r.g q.P.K.F.G.G.V.b.j.l.c.c.j.d.D.S.i.m.d.d.m.",
"c s Z u u y v Z c p t v p p f g 4.q.w.w.p.k.j.A.a.a.a.b.b.S.F.H.V.C.G.^.(.(.].].^.].G.'.1X:Xg.r # % y F p.A.A.K.n.F.^.].4X)./.}.}./.|.}.3X3X]./.!.XX X].{.K.F.,XS.n.G.^.6X8X+X7X9X7X7X8X8X7X7X@X7XhXhX6X6XkXkXxXxXxXxXkXkXsX1X:Xj d P.H.].|.|.|.|./.XX7X8X@XxX@X7X7X9X9X9X9X9X9XxX9X7X+X7XkXXXXX8X|.{.N.U.<X}.|.|.|.|.3X@X+X+X8X7X%X X|..XC.V._._._.].|./.^.|.3X[.U.P.0 # A J.T.T.G.1XH.'.G.K.J.t.-X0X0XH M M B P 5 < 6 ^ 6 R 1 > 7 6 4 6 7 , 4 4 4 7 5 Y 6 ' ] ~ :.~ ' [ ~ ' ~ ~ ' &.-.` _ :.&.$.-.GXFX;.HXHXFX%.HX%.-.FX-.-.-.NX:.%.;.| =.tX| } * X o @ @ & X # e 9 9 r t p d f d f q.5.u.a.5.g e.F d y.c.g.g.-XH C R { / / V 7 1 < , 4 6 4 6 - 1 X X N J x.z.-X0XH R ^ [ ] ) ] ) ~ ^ ^ ^ ~ ! W 6 M N t P.:XF.G.^.].'.T.Y.S.m.j.j.A.A.A.b.9.9.<.,.w.q.d p a u e # % & X   $ / ^ 4 O.) W ' ` ` ~ ] ^ W ` ` ^ _ ) ) ] &.O.] _ ) O.) Y 6 _ ` Y ) ~ ) _ _ &.) O.~ O.` ;.$.^ _ ' O.%.[ ^ 5 ` ' ! ] ] | / 1 1 B C C M x  .rXA a l.h.a.b.F.G./.|.}.`.U.A.t.w # l R.Q.!.oX+XoX X}.!.`.XXXX+X#X#X+X XhX.X[.[.[.<XU.'.pX_.G.].|././.}.XX}./.|.`.`.`.`.|.}./. X X6X|.|.`.|.}.}.Q._.E.E.J.b.p.h.4.j m.U./.}./.}.[.R.J.K.U.]./.^.G.G.G.].2X<X'.G.T.B.^.8X#X6X'.c.qX;X;X,XC.T.I.G.'.(.^.^.]././.|./.Q.`._._.U.S.u.f.J.m.p.r.F Z w Z S D q.p.d.a.A.J.d.p.w.r.e.q.x.c.q.P.qXA.S.T.T.F.S.b.i.a.d.a.j.r.p.4.r.P.S.n.B.G.H.D.j.x.c.c.j.a.b.b.i.m.A.A.m.",
"s p a r r y c F c p a Z a s f g g 4.w.5.u.j.A.a.A.A.m.b.b.S.F.F.G.G.^.(.(.].].].^.].G.G.'.:Xg.u # % v F r.d.m.K.F.G.(.5X4X}./.|././.XX/.|.].'.^.!.XX X/.T.M.n.H.b.b.B.C.6X8X+X#X7X7X7X8X7X7X8X+X@XhXjXhXhXkXzX7XxXxXzXkXjXsX<X:Xj f P.T.2X|. X XXX}.6X7X8X@XkX@X+X@X#X9X9XxX9X9XxX9XxX+X X@X XkX8X6XsXN.B.[.|.}.}.`.|.3X6X@X@X8X7X%X@X X.XC.C.{.[.'.`.].].|.2X2X^.F.P.0 # A j.H.G.G.1XF.Y.L.x.l.0X0XE K M M C 7 6 8 7 5 , < 7 > 5 6 , < 6 5 4 4 , , 5 7 ~ O.] ~ ^ ^ ~ W ! #.[ ' ' %.] ` &.%.;.%.HXGXHX%.GXGX%.-.FX-.HXFXBX=.-.BX&.%.BX..] *.*./ + X o X @ @ # e # q 9 9 t s d f g g h >.d.A.m.a.5.g.y.d q.t.w.D l.H C / | R | / / ! / 6 , 6 4 B - 1 X @ H l.qXz.g.iXV / R ` ^ ] ~ ^ ~ ~ ^ ^ ^ 5 5 B C q w wXpX9.G.^.[.,XR.K.A.J.f.p.A.L.K.b.8.9.A.8.7.5.g S S p r r q # & @   O ^ ` 4 5 ' ' ` ` ) ) ` ] 5 ^ _ ) O.O.! ) ] ] O.] ] ! _ ) ~ _ W 4 6 ) W ) $.;.~ ` _ ! ^ O.O.&.' _ _ &.' 5 5 ] ' R ~ ` ' ( 7 7 B 1 * V V H rX .A G q.5.a.D.G./.`.Q.U.K.g.w # l Y._.!.+X+XoX@XXXOX`.XXXX@X#X@X+XoXaX3X].[..XdXG.dX<X<X].aX`.!.!.!.|.}./.].`.^.`./.`.|.).@X XXX/.`.`..X/..XQ.C.N.m.J.A.p.h.q.j J.T.]./.`.].[.R.L.I.G.5X^.G.U.F.C.^.|.[.U.I.L.i.n.6X#X X[.J.qXqXL.T._.'.T.T._.'.^.^.].|./.|./.Q._._.G.U.S.w.p.m.a.p.r.S c w S F D 4.5.d.m.A.A.d.p.r.r.t.r.x.s.>.z.qXJ.m.T.Y.S.b.i.8.p.J.p.u.5.j.h.w.P.S.9.B.G.F.b.k.x.c.t.s.p.a.i.7.m.S.S.A.",
"s s v r w u v Z a a w a Z s f m g q.r.5.5.p.a.p.J.a.a.m.b.b.S.F.T.G.H.^.(.(.`.`.]._.G._.'.:Xx.r # % u s p.d.K.S.F.G.(.5X4X}././.!.!././.|.3X^.Z.!.~. X|.n.K.S.S.8.7.V.2X6X@X@X#X+X8X7X8X@X7X7X@X7X@X3XXX6XhXkXzX8XxXxXkXjXsX<XY.j d d.T.|.|.}.}.|. X8X8X7X@X@X@X+X+X@X7X9X9X9X9XxX9XxX7X8X@XkXkX8X3X<Xn._.[./.XX.XaX.X3XXX8X+X8X7X+X+XXXaXQ.C._.[.'._.]..X|.|.2X].F.;Xw # F A.U.G.n.Y.S.;Xx.G U  .V M C V C 1 1 , 7 4 6 4 , 4 6 , , 4 6 4 4 4 , 5 , 5 ' O.] ~ 5 ^ 6 5 ' ' ! -.-.&.` ` ' -.-.%.HXNX-.HXGX=.%.FXHXFXFX-.=.=.tX-.&.%.%.*...| } 7   X X o @ # # & q i r w 0 d g g 4.g >.,.,.7.S.I.b.h.e.F d t.z.p.g.l.H V / { / / / B / ! P B 7 7 6 - - o @ A l.P.p.h.iXH B / ) ) ~ ) ) ~ ^ ^ ^ R 5 5 ^ M u s ;X,XF.^.^.'.pXS.m.z.z.P.f.d.Y.Y.M.F.M.S.S.u.5.t.g f p w y r e & @ @ X X 7 ! 5 5 ` ] ^ ~ _ 5 ~ ] ! ! ^ ~ ~ ) ) _ ~ ~ _ O.) ^ ) ] _ ) ] ) 4 ^ ) _ &.O.$.&.) ] &._ _ #.' _ ' ;.O.^ 5 _ ' ~ W ~ ] ( / B M M M M { { {  .H v F D r.b.B.G.C.F.D.-Xp # p K._.!.oX+XoX XXXQ.0.Q.3X@X+X#XoX~.XX.X.X.X.X2X].].sX].2X`.`.Q.0.!./.|.].^._.'.`.`.!.!.oX+X+X X!./.^./..X.X_.V.M.m.P.p.u.x.g h J.T.^._.`.].'.R.L.I.'.].^.F.I.V.0.^.].[.R.J.z.c.u..XoX~.XXK.qX:XY.T.G.'.T.F.{.{.G.^./.|./././.Q.^.G.C.'.n.u.z.m.i.a.w.D c w Z S b 6.u.i.m.A.d.a.u.u.s.h.s.h.s.w.s.z.j.m.Y.Y.K.m.7.a.a.j.u.j.p.j.p.p.A.S.N.n.n.n.A.d.x.t.e.h.p.7.p.a.d.m.b.b.",
"b b S y u y v c c a r a Z c b n n 4.w.w.p.p.a.k.A.p.a.d.b.b.n.n.F.B.G.H.^.^.^./.]._.G._.'.:Xx.u # % y b s.d.K.m.M.H.(.].]./.^.Q./.!./.].2X5XG.C./.).@X|.V.Y.F.F.a.a.F.[.XX@X@X#X+X#X8X8X@X@X7X@X7X6XXX X3X6XkXzXxXxXzXkXjXsX1X:Xd f a.Y.].}./.XX|. X@X8X8X+X+X@X@X@X@X@X7X9X7X7X7X7XzX7X8X@XhXkX8X3XdXB.U.[.`. X|..X`..X X@X X8X7X+X+XXXhX`.Q.'._.C.^._.].|.|.].`.I.qXw # G A.D.:XA.A.z.x.G U V C B C B 7 1 1 B 7 , 7 7 4 6 , 2 4 6 4 , 7 7 4 5 5 ~ ` ^ ! ^ ^ ! ! ' &.! ' FX' %.~ %.-.-.BXFXFX%.HXGXBXNX..FXFXBXtX=.-.BX=.&.&.&.' ....../ o X o o @ @ # # # q q i t s j f e.4.5.u.7.,.<.8.n.S.S.J.q.D h c.z.s.h.0XJ H R | / / / / / B ! B 7 B 7 $ 1 o o H l.j.A.eX-XH } ^ ^ ] ^ ) ) ^ ! R ^ ^ R 6 B M u d P.pXT.C.G.{.pXm.a.j.P.J.J.A.Y.K.M.F.n.b.K.a.,.r.q.e.f d p t u q # @ @ X X $ B ! ! ) ] ~ _ ] ^ ~ ] ! ! ! ^ ` ) ^ _ ] ~ ! _ ` ^ Y ! ~ ) _ ! ^ ! ! ^ ^ &.] $.~ ~ _ ) _ ~ _ _ _ ;.' _ ! 5 W ~ ! 6 ] *./ V 1 1 B 1 C  .{ {  .A A S j.S.9.T.F.D.-Xp # p L._./. X+X+X+XoXQ.W.Q.XX+X+X#X+X}.XX3X3X|.XX3X|.].aX2X<X_.Q.Q.Q.`./.].`._.C.U._._./. XoXoXoXXX/._.Z.^.]._.C.V.M.m.J.a.p.x.g h J.T.'._._.`.].T.Y.I.{.(.G.S.L.M.N./.|.'.Y.z.x.c.w.[.oX~.oXn.Y.Y.I.I.F.U.U.U.T.U.N.C.`././.}.`.^.G.G.B.'.n.u.z.b.i.m.s.F Z t S S S q.p.b.M.m.m.d.u.u.d.d.p.k.j.s.J.P.d.d.R.P.A.f.u.j.s.j.u.j.a.j.8.p.A.S.N.n.n.M.A.p.t.y.e.s.r.w.d.d.d.m.n.b.",
"b S F A u y t v Z a i t Z c m n 4.h >.p.s.u.p.j.j.p.d.A.m.m.S.F.F.G.^.'.'.(.].].]._.^._.'.:Xx.t # & t f p.d.S.M.b.H.(.`.(./.^.!.}./.].|.5X'.C.C./. X X|.n.R.F.S.a.A.I.'.3X8X+X#X#X#X8X8X@X@X@X@X7X6XXX XXX6XhXzX8X7X7X6XsXdX<XwXd f k.I.`.}.}.3X|.|.XX@X8X@X+X@X@X@X@X7X9X9X9X7X#X7XxX8XkX@X6X6X8X XdXV.U.[.}. X|..X`..X X@XXX6X+X+X+X XhX}.`.`.`.[.[.[.].|.|.].].F.;Xw # A z.:X;Xz.qXl.0XU C I 7 7 7 6 6 7 7 B < 6 7 B 6 , 5 4 4 , , 4 6 5 5 5 6 Y 5 ! _ ! 6 ^ ' ;.#.` -.' ` ..-.GX-.%.BX-.FXFXHX-.&.=.HX=.*.-.=.=.BXtX&.*.&.( &...=.B X X o @ @ @ # # 9 q w w 0 d l d g r.w.u.a.7.7.i.b.b.n.F.;Xw.g n z.z.j.P.0X0X{ M / B B / ( B B / B 1 7 $ $ 7 X X J l.a.:X;X-X{ / B [ ] ~ _ ) ^ ! R R R B B B M r d P.:XF.G.^.'.T.i.u.z.P.J.P.P.L.S.m.I.m.b.R.m.7.,.s.r.h f d s a r 9 # % & @   + 6 B 4 5 ^ [ 5 ` ' ! [ ~ Y ~ ^ ^ _ ) ^ ] O.] _ _ ) ~ ~ ~ 6 ` ^ 6 ~ ^ Y ' ] 5 ~ ` ^ ) ` ` Y ~ _ ^ ~ ^ &.' 4 5 ) ] B B | | ] B < B M 1 { { U { N A y.w.J.b.S.p.l.z # p R._.`.XX+X+XXXoXQ.0.Q.XXoX+X+X+X}.XX3XXX XXX6X3X2XsXdX[.'.G.^.].^.^._.'.'._.U._.`.`. XoX).oX6X|.[.C._.'.U.C.I.Y.L.K.j.p.h.g h z.T._.U._.`.'.T.I.F.'._.F.J.L.K.F.].].U.Y.P.x.l.t.{.oX%XoXN.T.:XI.F.F.U.'.U.{.V.N.Q.`.}./.|.].^.C.F.C.'.D.i.z.b.i.A.h.F c w S S D r.d.S.S.A.A.A.u.u.d.d.a.d.A.j.P.J.u.j.wXJ.d.p.u.j.p.k.5.k.a.j.7.7.S.M.n.F.S.S.A.p.t.y.y.c.t.r.z.z.A.A.D.b.",
"b c Z v y y t v c a i t Z c m D 4.h >.u.p.5.7.j.p.5.7.a.a.m.S.n.V.C.G.(.(.(.`.|.].]._.'.'.:Xx.a # % t f w.a.S.M.9.H.'.`.(././.Q.|./.|.].[._.B.V./.}. X|.n.Y.S.S.a.A.K.{.aX6X+X+X7X8X7X7X8X+X+X@X8X6XXXXX4X6XkXkXzX7X7XhX4X<X,X:Xd s z.Y.[./.}.|.`.`.).@X8X8X@X@X@X@X8X7X9X9X9X9X7X7XxX7XkX@X@X X8X XdXC.U.[.XXXX.X3X|.XX X8X X8X+X+X@XoXhXXX|.`..X.X.X].].^.^.^.'.S.;Xt # A g.P.-XG G  . .I I * 5 7 , , 6 B 6 1 1 1 ! B 4 4 < 5 , < 4 5 6 5 5 6 ! ` ` ! W ! ~ ' ] ' ] %.[ %.' %.HXtXtX-.=.-.tXFXNX:.%.HX%.=.-...*.tX=.&.=.&.` &.&.( o   @ o @ @ # # # q q w w p 0 d g h h w.u.d.7.<.8.b.n.n.n.I.J.q.n q.z.d.K.;X0X0X .{ X.&.| ] =.&.| | / 7 - + $ 7 X X K l.A.:XqXeX .I B ] [ [ ^ ^ ^ ^ ^ ^ ^ ! R B e q p ;XpXT.G.'.'.R.b.i.j.R.L.R.Y.Y.S.m.K.K.m.:XA.i.5.d.u.>.q.h D l d w 9 i e @ @ o X $ 7 1 7 P ^ ! ^ [ [ ~ ` Y ! ~ Y Y ^ ^ ) ] &.;.#._ ~ ~ ) Y ! ^ 6 Y _ Y W ` Y ` ] W #.ZX;.) W _ _ _ _ #.! ! 5 ` ` 6 P | ' ] ! 1 1 M 1 C C {  .K Z y.y.s.s.e.l.t # p R.U.}.oXoX).oXoXOXQ.`.XX+X+X+X+XoX}.XXXXXXXX3XXX2XdX[.G.U.V.F.U.G.'.G.G.V.V.E.C._.Q.}.oX+X+X6X`.[.U.T.T.U.F.R.:XY.L.D.p.h.g h j.I.G.U._.(.(.Y.K.S.U.,XI.A.L.L.F.].(.T.R.;X-Xx.s.{.|.+XoXZ.,X,XH.F.I._.'.U.T.U.V.Q.`.XX}.}.`.^.C.U.G.'.n.i.j.m.b.A.h.F c w c b m r.d.S.n.b.A.A.u.u.d.a.i.d.A.j.J.z.w.J.wXJ.d.f.p.j.5.s.5.p.j.A.5.a.L.n.N.I.M.b.a.s.z.t.t.c.t.w.z.z.d.A.b.b.",
"c s Z y y y y v v v r t Z c D e.q.g 4.w.w.5.7.p.a.5.5.p.a.m.A.b.F.C.G.^.G.^.`.|.].]._.'.(.:Xx.t # & y m p.a.S.M.9.H.'.`.(.].`.^././.].].'.'.V.N./. X8X|.B.Y.S.S.d.f.v.U.aX6XoX#X8X8X8X8X8X+X+X@X6X6X6X3X6X6XhXzXzXxXkXkXjXdX,X:Xw s z.I.[././.`.]././. X8X8X@X@X@X@X@X7X9X9X9X9X9X7XzX7XzX6X@X).+X}.dXC.U..XXXXX}.XX|.3X@X+XoX+X@X+X@XoX8X@XXX}.2X.X[..X[.^.(.].'.I.qXw # K G F J U rX{ { B * P 7 7 , 7 6 6 6 7 B 5 1 6 6 8 , < < 5 6 , 6 4 2 ~ _ ! 5 Y W ~ _ ~ _ ` #.:.' %.FX&...-.BX*.=.-.*.-.NX-.-.-.*.&.&.=.=.| *.=.( &.=.] 7   X o X @ @ % # # 9 i w w d d d j g 4.5.7.u.A.,.<.i.b.M.M.V.M.u.q.y.y.d.m.Y.:XeXG e 1 1 B 6 , > , 1 $ 1 + + O $ > . X K -X;XL.;X-XH / B ^ ~ ` ~ ~ ^ ^ ^ ^ R R R B x 9 0 z.Y.I.G.'.'.,XY.K.A.L.I.R.Y.Y.K.b.S.L.m.L.A.m.a.J.a.p.5.g q.D f d 0 u i e # @ @ X o 1 < 7 ! B B ! ^ ! ~ ' ~ 5 R R 6 Y ) _ ] ' $.;.%._ ) ) _ &.O.Y Y _ ! ` ] ! ^ ` ' FXLX$._ ) ~ ' _ &.-.] ` ! ~ ' 4 L ~ 5 ^ ^ B M 1 % 1 C / { J G l y.e.S J z # a R.{.`.}.}.~.oX|.`.`.}.XX+X+X+X+XoX}.|.XXXXXX}.`.].[.pXM.m.v.v.v.9.F.T.F.n.N.n.U._.`.}.+X8X8X6X`.{.V.I.R.Y.I.R.:X:XL.;Xa.h.m h h.K.F.G.^.^._.Y.J.S.Y.,XF.a.J.K.F.T.F.Y.R.qX;X-Xj.U.}.oX~.0.1X1XF.F.F.C.^.U.U.U.V.Q./.@XoX}.`._.U.U.U.'.B.i.J.S.M.S.p.D c w b b m r.j.n.b.b.m.d.u.,.a.a.i.a.A.d.J.P.d.J.gXA.j.d.d.h.>.h.6.p.j.j.,.a.L.n.N.V.M.m.m.d.z.t.t.t.q.q.s.d.f.A.m.a.",
"b p v u u y t y a a r u Z c D e.q.q.w.w.5.5.7.p.j.p.p.a.d.A.S.b.F.G.G.^.G.^.`.|.].]._.'.(.:Xx.w # % v D j.A.S.b.b.F.(.(.(./._.^.!./.].].'.,XF.B./. X8X4XV.L.S.S.z.u.i.U.2X XoX@X+X+X8X8X@X+X+X+X@X@X3X3X3X6X6X8X7X7X8XlXvXdXpXwXj d z.A.'.^./.|.|.|.}. X8X8X@X+X@X@X@X@X7X7X7X7X7X7X9X7XzXkX6XoX+X XaXV._..X X X}.XX X6X+X#X+X+X@X+X+XoX8X@XXX XaX.X.X2X2X].[.4X1XS.;Xy @ x A 0XrX} / / R 7 B < , 7 7 6 6 6 B B ^ 7 7 , , , > 6 5 > 4 Y , 5 ` Y ^ 6 ~ O.~ 5 ~ $.] _ ` %.$.-.*.=.*.=.=.=.%.=.FX=.-.BXFX` ..&.-.| | *.&.| *.=.( 1   o X @ % % % # # 9 9 w w d d f f j g w.u.7.7.8.,.8.b.M.M.F.M.b.,.q.t.s.A.m.:X:XeXG C X.| | [ ~ ' &.' ! ^ O o + O O   X N l.;XA.x.0XE V B / / ] @.' ` ( ( / ~ ~ ^ ^ V e w x.L.T.'.'.G.{.T.R.L.:XY.T.T.R.I.b.A.Y.A.J.A.m.m.A.i.d.,.>.w.w.q.f d d F i 9 e # @ o   $ > > ^ ! 7 ^ R [ ^ ) _ ^ ^ ) ! ! ^ ] ] ) ' ;.-.&.^ ! ' O._ W 4 5 ! Y ` ^ Y O.' _ _ -.' _ ] _ ) ] &.` ' ~ 5 ' , > [ 5 6 P B V M 1 M * V  .K K a Z A K x # Z P.U._.OX~.oXXXoXOXOXoXoX+X#X+X+XXX|.`.}.XXXX}.`.[.{.T.v.i.b.A.m.i.n.F.F.M.E.R.R._.Q.}.+X+X+X6X|.{.M.L.Y.Y.L.R.:XY.L.L.8.g.g f h.K.T.G.^.^.T.Y.J.K.R.'.H.b.A.K.K.T.F.M.P.;XP.;XA._.oX~.~.0.[.<XU.F.F.Z./._._.V.N.Q.). X).}.|._.U.G.G.].B.i.J.S.S.S.p.e.b w b m D w.A.D.n.b.m.d.u.u.f.a.i.b.m.a.j.P.d.m.gXm.J.d.j.h.4.h.r.p.k.j.,.f.J.V.N.n.n.K.K.a.p.h.e.t.e.e.s.d.d.j.d.a.",
"m p t u u y u t t t r u Z Z D n q.w.w.w.5.5.u.j.u.5.u.p.i.a.b.8.n.n.B.G.G.G.^./.].]._.'.(.,Xx.0 # % v D j.A.S.b.M.F.G.^.(.^.^.^././.|.].'.'.F.C./. X+X|.n.L.S.S.z.u.b.{..X X+X+X+X8X8X8X@X+X+XoX@X@XXXXX3X6X6X8X7XzXkXjXsXpX:XP.w d z.m.'.^.].|.|.|. X3X8X8X@X@X@X@X@X@X8X8X7X7X7X8X9X8XkX8X6X X7X+X3XZ.`..X}. X X6X X@X+X#X+X7X@X+X+X+X7X+X+X X X|.|.[.[.'.'.'.[.M.;Xy @ 1 H rXI P ! , 6 6 < 7 6 7 B B P P P P 5 5 , , , , 6 6 , 5 2 4 ` _ 5 ~ ~ ~ ! 6 6 ! ~ ^ W ] [ ..-...FX=.tX*.*.=.FXtX*.=.=.-.] $.=.&.` %.%.$.| &.&.^ $ X X   @ & @ # # 9 9 9 w t p d h g D h g w.u.a.8.8.8.b.M.S.S.I.F.b.w.q.t.c.J.M.pX:XqXA N { / ^ ^ [ 6 6 5 6 ^ + + O O +   o K l.P.J.w.eXH % 1 B R R , < > < 1 1 7 4 O $ % # 9 g.J.Y.{.{.V.T.'.,XY.:XU.1XT.T.Y.S.L.:X:XL.L.a.m.A.i.b.7.u.w.p.q.g g h w d u q e & @ @ X X < * 1 R R B ^ ! ! ~ ` ^ ! _ Y 2 Y ] ' _ ] _ %.ZXFXO.~ ) ) ' 6 5 6 L ` W 4 ` ] ` ~ $.~ ` ~ ) 4 6 ~ 6 ~ $.! ] ^ < 6 B P P B / M 1 1 * C U N N A A N e # Z j.G.Q.Q./.oX@XoXOXOX}.oX+X+X+X+X X}.OX`.XXXX}.|.[.U.<.u.u.J.L.P.:XL.9.N.m.K.Y.I.V.Z.}.oXoXoX6X.X[.E.L.R.L.S.Y.:XL.D.D.7.r.m h t.S.T.^./.^.T.L.z.J.Y.'.U.m.A.S.S.Y.K.m.J.:XD.;XS.^.oXoX).W.[.2X1XT.F.Q.}.'._.U.Z.`. XoX).|.|.G.B.V.G.].B.b.J.M.b.S.p.q.f w m m D w.j.D.S.A.A.d.u.u.d.d.a.m.a.u.d.j.u.m.gXb.J.A.j.j.w.s.r.r.s.s.,.d.m.V.N.N.n.S.K.a.p.j.r.t.t.t.s.d.d.k.a.p.",
"m d p t y A y y t y r t Z S D n 4.4.5.r.w.5.u.j.5.5.p.a.a.a.m.v.M.V.F.G.U.G.(.`.].'.'.'.5X,Xz.0 # % a m p.a.S.M.S.F.G.(.(.^.C.^././.].'.T.F.b.V.]. X@X|.B.I.S.S.d.a.Y.pX2XXX+X%X+X7X7X8X+X@X X).XXXXXX X4X3XhXkX6XhXkX6XsXfXpX;X0 p x.S.,X^.].].|.|. X3X6X8X6X8X8X@X@X@X7X7X7X9X#X7XzX8X7X6X6X X8X8XaXZ.`.3X).oXXX6XXX@X%X+X%X#X+XoX+X+XkX+X X X|..X.X[.[.<X<X'.T.P.qXq @ {  .I B 1 6 4 6 6 B B B B B ^ P 6 5 P 6 7 , > 7 P 6 < 4 6 ^ ~ 5 Y ^ ^ ! ! 5 Y _ ` _ ] ' ! =.;.%.&.$.FXtX` tX-.=.tX] &.tX' ..$.=.| &.] $.$.%.] 1 + X X o @ @ # % 9 q q 9 q r p s f g g w.h >.5.u.K.S.b.b.n.M.S.I.I.K.A.s.y.y.z.L.K.pX:X;XA % 1 ^ ( ~ ~ ^ 7 4 5 P + + O O +   + H G z.;X;X-XK V 1 ! -.&.@.' ] ' | | ] ] O + & # r -XL.T.G.'.U.<XpX<XF.H.U.dX1XR.R.Y.R.:XwX:X:Xb.S.F.n.n.i.m.u.a.u.,.>.h D d w u r q % & @ X   $ < < B B R ! ! Y 5 Y Y 6 ) Y Y ^ ^ _ O.' _ ) ZX;.~ #.$.! ) ^ 5 5 6 6 ) ) $.' ~ ] ' ~ &.^ ~ ! , < 5 ] $.P P ~ 5 6 P B B B C V 1 $ % M V V N N C % % A h.S.C.Q.!.}.XXoX).oX}.oX+X+XoXoX}.`.}.}.XXXX`.`._.n.N.Y.J.A.p.u.P.A.S.S.K.K.I.R._./.~. X+XoX X`.{.Y.R.R.A.m.L.Y.L.D.D.7.g.b d t.S.U./.`./.T.P.x.j.I.T.T.A.J.b.b.K.K.K.Y.:XD.:XF.^.oXoXOX2._.2X<X'.G.|.|._._._._.|. XoXoX|.`.V.N.B.G.(.B.m.m.v.i.A.s.D b j m n n w.m.b.S.S.d.f.u.u.d.a.i.b.m.a.d.j.w.K.gXa.J.j.k.h.r.r.r.q.r.s.,.d.m.V.B.V.n.b.a.d.P.h.q.y.t.t.s.p.p.k.s.p.",
"f s p s Z Z a a v a p Z S f m 4.4.>.>.4.w.w.r.r.5.a.a.a.a.b.b.b.M.n.U.G.H.'.'.^.(.'._.1X5X,Xx.0 # # v b 5.m.S.i.n.I.U.H.(.'.T.^.`.`._.T.F.M.M.T.5X|.}.4XG.C.n.n.S.n.T.dX3X X+X+X#X#X7X8X8X@XXX XXX3X3XXX3X6XhXlXXX6X@X6XsXdX:Xz.w r x.P.T.^.].2X].].4X3X3X6X3X X8X8X@X X}.@XzX7X7X9X7X#X8X@XXXXX@XlX[.C.[.C.Q.XX}. XkX@XoX+X#X+X+X~.8X@XXX/.3X.X].dX[.<X'.[.G.T.x.0XK H { V C 1 1 6 P B 6 B B 1 B ! ! B 6 6 6 7 , > < 4 4 , , 6 P ! ! 5 ~ ! ~ ~ 5 ^ O.] #.&._ &.$.:.;.:.%.%.-.=.&.-.=.-.-.%.&.' %...$.$.$.` ] | @.| P O   X @ @ @ # # 9 r i 9 i w r t d S f h >.7.a.1.,.m.M.V.9.n.I.<.<.F.K.p.t.s.w.s.J.P.wXL.P.d A & 7 ( , ! ~ ~ 4 O < 5 + + = O +   X H iXqXP.r.-XN M < ` [ 5 6 2 4 6 7 > ; O $ O $ % 9 t.S.G._._.'.dX[.<X,X,XpXR.Y.M.Y.pX:X:XpXT.I.F.U.'.C.B.M.i.b.m.8.8.a.7.w.j d c a i i 9 & @ @ o o $ 1 R ^ 4 ~ ~ ^ ^ 7 6 4 5 ^ Y 4 ! ' ' O.&.' #.&._ _ O.` ! ~ W 5 , 6 Y ! ] ] ] #.` ~ ] ~ _ ! 4 , , Y ` ] ^ [ ^ 6 5 R ^ R 1 7 C M % 1 { { 1 M % e K G j.M.C._.`.~.oX+X%X%X+X+X XXX|.`.`.}. X). X}.`.C.'.pXY.m.m.J.d.f.m.F.F.S.I.n.N._./.~.~.).oX|.5XR.L.Y.L.A.Y.F.T.Y.Y.L.5.e.c p t.F.|./.}.].Y.*X*XP.:X>X:Xz.t.A.n.F.S.M.I.I.Y.I.U.C.|. X}.N.V.[.|.`.}.!.|.<X'.^.^././.|./.|.[.M.v.n.F.T.F.n.m.<.i.s.c.F s p m n r.p.b.n.n.S.A.f.w.r.p.u.A.b.b.A.A.p.p.A.pXf.j.d.r.g.y.h.z.r.r.p.7.d.S.N.M.M.m.m.a.p.z.t.e.g.-Xt.h.h.p.h.h.r.",
"S s s c Z Z a t a a p S F g q.q.>.4.w.q.q.q.r.t.p.A.A.a.a.m.m.b.m.n.T.F.D.U.(.^._._._.1X].:Xx.0 # # Z m p.A.S.b.b.F.G.B.G.(.G.G.^.^.U.I.I.M.S.T.5X5X}.|.C.C.N.n.F.B._.sX3XXX@X+X+X#X#X+X8X6XXX|..X.X|.|.3X3X3XhXhXlX8X6X3X1XY.h.r r x.A.F.'.].].'.^.|.|.|.3X X}.@X8X8X X}.XXkX7X7X9X9X#X#X+XoXXX X8X`.C.[._.`..X}.}.XXXXoX+X#X#X+X!.XX}.XX`..X^.[._.,XdXF.{.<XP.-XH H  ./ 1 1 7 ` B 6 / / 1 1 ( P 6 6 P B 4 , , < O < 5 5 < , ! 5 L ' ^ 4 W ~ 5 ' ) _ _ _ ~ ~ ;.%.' &.] -.=.%.-.tX=.tXFX| ' ;.' ' ' ] ~ ` ' | ( R 7 O     o @ # # 9 9 9 t w 9 w w t w d l f f >.8.b.<.<.M.F.C.C.U.U.9.n.T.m.f.x.t.s.d.L.P.z.J.p.m A M B 6 - ^ | ` ! < O 7 O + O > +   o H 0Xx.j.x.0XN M < ~ ! 4 Y 3 > < 7 2 < > 1 $ $ % 9 g.F.G.5X[._.[.'.<X1X<XpXY.Y.I.wXgXpXpXpX,X{._.G.^.C.G.M.N.M.M.9.9.b.i.p.h h f b w w r i # # @ o o $ < 7 5 4 5 5 5 ~ 5 3 6 2 4 ^ Y 6 ^ ] ;.%.#.$.&.#._ $.#.4 6 ` W < 2 Y 6 $.] ~ ;.$.^ ` ~ ~ ^ ! 6 < 4 4 ` 5 ~ ] 4 6 ~ ( / * 1 C % % M / / C & q N G l.p.v.V.`.~.~.~.~.%X#XoX}.`.`.`.`.}.oX}.|.`.'.C._.F.N.v.S.Y.K.m.m.F.F.F.F.n.N._./.~.~.oXoX|.<X:XL.Y.I.K.L.n.D.v.m.A.w.F c t y.F.}.).|.`.I.*X*XL.>X>X:Xx.c.S.n.H.F.n.I.I.I.I.U.C./.|.`.N.E..XXX}.}./.].{.U.C.^.].|././.`.'.N.8.D.H.U.V.n.M.i.d.s.t.F s p m n r.p.D.n.n.M.m.d.p.r.p.u.a.b.b.S.A.p.u.A.wXj.j.s.w.y.F x.z.t.t.a.a.A.K.n.M.M.b.a.a.p.h.t.e.g.-Xr.h.h.r.h.h.r.",
"S s p a Z Z y r t t p S D f n 4.4.w.w.e.q.q.q.6.r.j.A.p.7.d.d.i.m.m.I.F.n.H.G.^._._.U.'.1X:Xx.w # q c m d.a.v.b.n.F.G.G.G.G.G.G.^.(.U.F.K.m.m.F.1X(.(.|.C.C.B.V.M.N.G.2X3X3X6X8X#X#X+X+X6X6X3X|..X|./.}.4X4X3XaX3XhX@X6X3X1X:Xx.r r c.j.F.[.[.^.^.^.|.|. X3X X X@X@X8XXX XXXhX8X7X9X$X#X#X+XoXXXXX3X`.C.[._..X|.oX~.XXXXoX+X+X#X8X~.XX.XaX.X[.C.].[.1X,XS.L.P.l.K { rX{ 1 7 P 7 , P ( P 7 ^ / 7 P ! P 6 < > < , > 4 5 5 6 5 Y 5 ~ ~ , , ^ W ^ ^ _ _ ] _ ' %.] ~ ' ..%.-.-...BX=.*.=.^ 5 ..%.&.%...] ] _ ] ~ ( / $ o     o @ # % 9 q 9 i t t 0 t p d d d f g g w.i.n.b.<.n.^.^.^._.U.B.U.T.m.d.z.w.j.a.L.J.d.:Xj.eXA % B 6 ! ` / B , + O 4 + + O O .   o H 0Xx.z.x.0XM B , ~ ! 2 ; 2 5 5 5 , O O 1 $ $ % 9 h.S.G.<X<XG.G.].5X'.<X,XpXgXpXM.M.Y.,XdX,X,X_._.'.^._.V.n.F.F.n.v.b.a.p.4.n f D s d p u q 9 # @ @ o @ $ $ B 4 , 6 6 ! 5 6 6 6 Y ^ R 4 ^ ! ) %.;.] ] O.) ] ` ^ 5 ` 6 4 6 6 5 ] ] O.-.$.] 5 ~ ] O.O.6 2 ! < 6 W 4 ~ ` , 6 ( ( 1 % C 1 @ M $ I V N K z S y.f.K.G./. X+X~.~.+XoX!.Q.`.`./.`.`._._.C.U.U.U.F.n.V.U.F.F.F.N.n.T.F.M.n.B.Q./.~.~.).).|.[.R.Y.I.T.L.L.D.A.i.m.d.r.g.S t t.M.|.).}.`.I.*XqX;X:X>X:Xx.c.L.n.U.F.C.T.T.T.V.U.C.^.).`.n.V.=XXX}.}./.^.T.I.B.C.]./.Q.Q.`.^.<.<.F.U.I.K.n.M.i.d.s.t.F s p b n r.a.b.n.n.b.m.d.s.u.u.u.a.b.b.A.A.f.p.d.J.z.s.s.4.e.D x.z.t.r.p.8.m.S.m.m.m.i.7.7.p.p.r.r.h.z.r.s.p.5.p.p.r.",
"S s p a Z Z y r t t t b D f g g w.q.4.q.e.t.e.4.4.u.a.p.u.a.d.u.m.b.F.S.b.F.H.G.T.U.U._.'.:Xc.t # q v m d.i.<.N.n.F.G.G.G.G.C.G.^.(.U.F.S.m.b.F.'.(./.].C.G.V.V.V.n.C.].2XXX6X8X7X#X+X XXX3X3XXX3X|.|.4X3X4X3XhXXX@XXX6XsXdXpXqXt r g.j.F.'.]._.(.^.|.|. X6XXXXX@X@X@XXX}.XX6X8X@X9X$X#X7X@X+X6X8X6X.X_._.Q..X}.XX}. XXXXXXX+X+X).!..X[.[.'.U.Z.[.2XG.D.;XqXy.K { C V C 1 B P 7 P ! 6 B ! 6 , ^ ^ P 7 - < 4 7 > 4 6 P ! 5 6 5 ! ! < 5 L L ^ ! ] ` ~ ' ' ' :.] :.` $.*.$.BX-...] ..^ ..FX%.' ' ^ ' ....^ [ [ B o X X X o & # # q q r i w d d p d s l s f D D q.w.i.S.F.2.0.^.Q./.C.^._.U.V.M.L.f.u.j.m.L.J.A.wXwXeXA & B B B R 7 > + . O 6 + . $ + .   o H 0Xx.P.h.l.M B 6 ~ W 2 2 ' ;.%.] 6 = > 1 $ o & 9 h.Y.G.].2X^.^.<X<X'.<XpXR.:XR.M.I.T.T.pX'._._.[.<X^.G.F.V.F.F.n.n.b.a.u.w.4.f e.f d d t r r q q & @ @ X $ > R 5 < 6 , 6 6 5 6 2 Y ~ Y , 4 Y ) ) ) O.O.6 #.] ] ^ ! ~ W 6 Y ~ 5 W ' ' $.' W W 4 5 ] ) ^ ! Y W W ` ~ 4 ' 5 5 ( / 1 % % M o 1 * 1 V H K K F S q.m.G.|. X).~.XX}.Q.!.`.}./.`._._.U.V.V.R.V.T.F.U.'.G.G.G.9.n.T.F.M.V.B.Q.OX!.~.oXoX].'.R.I.'.{.Y.;X;XJ.d.J.a.p.g.F w c.S.|.oXoX/.I.*X*XP.:X>X:Xx.c.L.n.G.G.U.,XU.U.n.V.V._.}.|.V.E..XXX}./.^.C.Y.R.B.G.(.Q.Q.!.}.Q.2.9.G.G.Y.M.v.b.u.d.s.g.F s p S 6.s.a.b.n.n.b.b.f.u.r.u.p.a.i.i.m.A.d.d.a.p.z.s.s.4.e.D h.z.t.r.p.7.d.A.i.i.a.i.<.u.d.u.5.h.h.j.5.a.a.5.p.w.w.",
"F Z p y Z A z u u a p S D g q.g q.n g n e.h.s.w.w.5.5.p.u.u.s.f.a.i.S.S.S.F.H.B.G.F.G.G.'.:Xt.p q q c n A.b.i.n.n.F.G.C.G.G.B.C.C.G.G.F.K.M.S.Y._.(.`.2X^.G.C.F.U.F.C._.2XXX X+X@X8X8X X X X X|.aX.X4X6X4X|.aXaXaXhX6X6XsXpXpXqXt w g.j.I._._.].^.G.`.|.|.XX X X@XXXXXXX}.|.6X6X8X9X9X7X7X7X@XhX7X8X3X`.Q.C.XX}. X/.}.XXXXXXoXoX/.Q.].'.[._.C.N.T.,X:Xx.g.J U { { M B P B 6 7 P ! 4 4 6 7 5 P P 6 , > , 4 4 7 7 4 6 6 6 6 6 6 6 7 P P [ ! ! ' ] ' ' $.$.' ] ' ..| tXFXHX-...BX| ] ..&.$.' ] ] $.` ^ ~ ~ L O   X X @ @ & & & q q w r w w s s d d f l D D D D q.4.a.S.U.0.0./.!./.!.`.[.T.n.M.R.S.m.A.I.K.b.S.:XwX-XA % / B $ * - + + . + < + + O + + . X N 0XP.P.h.l.M B 6 ^ 5 2 6 ' ' ! 6 < O O 1 $ o & 9 x.:X1X5XdX[.].sX2X<XdXgXT.I.,X,XgXdXT.pX'.'.'.<XdX_.C.G.C.C.C.F.n.v.b.u.u.5.h q.g f s b p p w r q # & @ o X 1 B 4 5 > 4 6 4 4 5 6 6 ` ^ 5 6 R Y 6 ~ ] %.5 ] O.) ) ~ ^ 5 2 ! Y 6 ^ ^ ~ ' ] ` ! 4 Y ) ~ ~ ~ 4 2 4 ! ' W ~ [ 6 ^ / $ $ 1 1 $ * % % V N { H y s j.Y.G.^./.Q.|.[.C.Q.}.}.}.}.Q._.U.V.V.R.E.M.N.F.T.F.H.G.9.n.T.I.B.F.C._.OX!.).oX X[.{.Y.I.<X<XY.K.;Xz.f.d.u.p.g.F w g.M.].oX)./.U.P.x.L.Y.:X;Xx.x.I.n.G.G.'.[.U.U.n.B.N.C.`..XV.E..X|.}./.G.M.L.wXI.G.'.Q./.!.}.^.N.n.H.H.F.m.i.a.u.j.s.y.F s p m e.s.a.b.n.n.m.d.s.r.r.p.u.p.a.b.m.A.j.s.p.r.c.t.s.q.y.D h.z.t.r.u.p.d.A.u.u.b.i.7.a.j.u.w.j.j.k.7.d.a.7.p.r.r.",
"S Z a t y N y u u a p S D n q.q.q.q.e.q.q.r.r.w.h.4.5.u.5.5.p.d.i.u.A.S.S.L.V.V.F.F.U.T.1X,Xt.Z q q s >.A.M.m.M.v.V.G.G.G.G.G._.G.G.F.S.K.S.M.F.G.(.`.2X^.G.C.U.F.V.B.G.2XXX X+X+X@X8X8XXX X|.}..X.X3X3X`.].2X2XaXjX6X3X4X<XwX;Xy i g.A.Y.G.^.].^.C./.}.}. X XXXXXXXXX X/.}.XX6X8X7X7X7X7X7X6XhX8X8X6X`.Q.Q.XX XoX!.}..X.XXXoX X.X`.[.'.[.pXU.M.Y.:X;Xg.J H I } B / ] ^ P 5 4 6 < 6 7 6 [ ! , 6 , 7 4 , < , 5 ^ , 5 5 4 6 ! ! 4 ~ ~ ^ ! ] &.~ $.[ $.%.$.$.%.$.[ %.=.=.&.*.&.( | &.$.' ^ ^ ` ^ 6 [ / ! O .   X o @ # & # # q r w w w p d f f f d h f D D g g 4.>.7.S.^.0.!.).~. XXX|._.U.n.v.T.T.S.S.T.I.m.K.L.;XqXG % V V $ @ o   . . O 7 + + O O O + X N -XP.P.x.J M 1 , W Y 3 6 W 5 , > > O + 1 $ @ & 9 x.:X4X2X4X2X].4X2XsXfX<XpXpXgX<X,XdX,XdX<XdX<X2X2X]._.G.G.G.C.F.n.v.b.m.u.5.h q.g D m f d s t w u q % & X o X $ P 6 4 , , 4 6 5 5 5 R ^ _ ~ R R R ! 6 ] ' ! ^ &.~ ` $.^ 5 < Y ^ 2 6 ! ^ ^ ! ^ 5 2 6 4 ^ ^ ~ ~ 6 , ^ $.~ [ P B / B 1 @ $ 1 $ * M % M V U H K F s.Y.,XG.V.U.U.C._.}.oX).OXOX`.C.C.V.U.E.R.M.m.b.8.9.V.B.B.U.F.F.U.U._.Q.~.oX+X X'.U.S.M.2X<XY.A.;Xj.w.p.p.p.g.F p g.S.|.). X|._.P.P.J.L.:X;Xx.z.Y.B.G.^._.].G.'.U.B.W.Z./..XV.E.`.|.`.Q.V.m.P.R.I.F._._././././.C.F.H.H.D.d.a.A.a.j.s.y.F p p D e.s.a.a.b.b.m.d.p.r.r.p.5.7.d.A.A.j.d.p.h.s.y.t.h.q.y.e.h.x.e.q.u.p.a.f.u.d.J.a.a.A.A.p.p.J.j.k.7.d.8.7.d.p.p.",
"c v a t y y u r t a p l D n q.q.q.y.t.q.w.w.w.6.k.6.5.u.>.5.p.u.u.7.A.A.A.D.n.n.F.V.T.T.1X,Xt.Z i q s g a.M.M.N.v.V.B.G.G.G.G.'.G.T.U.S.S.m.b.M.G.^.(.].C.G.C.U.n.n.n.G.aX3X XoX@X@X8X@XXXXX X|.|.|.3X X/./.2X]..XaXXX|.|.<XwXP.y r g.A.Y.(.^.'._.C./.|.|. X XXXXXXX3XXX/./.|.6X@X8X7X#X7X6X@X6X8X7X6X`.`.Q.XX X X/.}..X.X.XXX3XdX{._.C.U.T.F.A.qXx.G K rX ./ P / ^ 6 B ! 5 4 < B ! ! P P P 5 6 ! P 7 > , ! ~ ! 5 6 B ~ ~ 5 5 ^ ^ ^ ] -.| ( | ] ` ..&.$.$.] | =.| &.&.&.` / ' ' $.! ~ ' [ ^ ! [ ] 1 .   .   o & # & % # 9 r t w p p d f g n g h h h q.e.g 4.w.,.7.S.Q.!.).).oX X@X|._.V.N.v.G.'.Y.R.T.I.M.K.R.;XqXK M B C * % @ + + + , B + . $ O + o X N -XP.P.l.J M 1 , W Y 4 , < < > O + + + 1 $ o & 9 x.:X1X<X].].^.2X4XsX4X'.<X<XdXpX,XdXpXfXdX<X1X1X2X[.].^._._.G.F.N.9.m.S.7.7.5.w.>.w.q.h h s p p p r e # & @ o . O 7 7 < O < , < 4 5 < R Y 5 _ O.^ 6 6 5 Y ` ^ ^ ] O.$.' ` ] 6 Y ~ < 6 ^ ! ! Y 5 5 5 ! 2 5 ~ 5 ! ~ 4 6 :.L ^ B 7 B 1 1 $ $ M % @ M C M V { H A c x.;Xa.b.E.E.V._.`.).).~.OX}.Q._.C.I.I.wXL.b.i.8.9.n.G.C.C.V.U._.Q.'.Q.~.oX+X}._.F.S.V.].[.T.A.:Xj.w.f.j.r.g.F p y.S.|.oX+X X'.L.P.K.I.:XP.x.z.Y.B.G.^.`.^.C.[.{.V.W.V.^.[.V.V.|.|.`.Z.n.m.z.P.Y.F.G._.^././.^.U.F.B.H.D.k.a.j.p.s.t.e.D p w S q.s.p.a.a.i.a.p.t.w.e.r.6.w.k.j.p.a.k.p.x.x.D y.t.q.e.e.h.h.q.n w.p.p.p.u.j.J.f.d.J.A.a.p.z.j.k.u.d.p.p.j.s.p.",
"a Z v y y u r q A Z p l n g q.>.g n 4.4.w.s.p.4.s.5.p.s.5.w.p.,.u.7.A.A.a.b.n.n.n.n.F.G.1X:Xw.Z u q s g i.M.E.v.N.n.B.B.B.B.B.G.G.U.I.S.S.m.m.M.F.G.^.].Z.C.C.'.V.F.C._.sX6X).).7X@X+X+X@X6X6XXX|.|.3X|.!.].2X'.[.aXXX}.].1X:Xx.a u g.j.Y.'.'._._.C.^.`./. X|.XXXX3X6X.XQ.Q.}.XX@X8X+X+X@X@X XXX+X8X3X`.`._.XX}. X/.`._.'.[..X2XpXpX{.V.n.K.A.P.e.Z 0XrX} / | ` ^ [ ! 5 , 7 ! 6 7 5 B 5 ^ L 5 [ ^ 6 7 7 5 ! ~ ~ 6 ^ ` ~ ! R B B P *.=.*.( ( [ ..] *.| ` ..&.&...( | &.] ] &.` [ ] ' @.^ R [ ^ ! + . .     X @ # # q r i i i w d d d f g >.w.4.h g g w.r.>.w.p.u.5.F.Z.).oX).oXoXoXXX`.B.b.M.'.U.:X,XF.F.M.M.wXP.eXA C V / } / 7 6 5 6 4 B O + + O + . X N l.z.P.x.J N 1 7 W Y , W ; + + .   . O 1 $ o & 9 g.H.U.].^._.^.2X4XsX5X<XfXdXdX<X,XdXfXfX<X'.G.'.2X1X[.^.].'.U.F.v.9.S.m.<.i.a.a.5.w.>.>.g f d d p r e e @ % @   .   $ 7 < O > , , , Y 2 ! 4 4 _ ] ) 6 6 6 5 ) ! ] ' ! ] ^ ] $.^ ! ~ 6 < Y ' ^ 5 5 , 5 ^ ! 4 6 5 6 ! 5 6 :.~ 7 B B B * M $ @ M M @ 1 { C B { { J G y.y.t.d.m.M.U.`.}.oX!.oX|.Q.`.C.V.I.m.i.i.m.F.n.B.^.C.Z.Z._.^.Q.[.Q.}.+X+X}.U.I.U.T.]..XT.A.:Xd.u.f.P.e.g.c a e.S.`.).+X X[.R.J.S.I.Y.J.z.z.Y.0.Z.Q.].Q.Z.]._.V.W.V.^.].V.B.|.|.Q.2.M.J.P.qX:XF.F.^.^./.Q.Q.T.n.9.H.D.k.p.k.w.p.r.e.D p w D q.s.p.u.u.u.w.r.r.e.q.q.q.w.s.s.5.w.h.h.-XqXf y.t.4.D q.x.j.q.4.u.p.s.p.,.j.d.u.a.J.j.d.p.j.s.s.r.h.s.j.z.d.s.",
"v Z t y z y u r u Z Z S f g w.q.g >.4.5.u.p.u.5.p.5.5.w.p.k.a.p.,.u.d.A.A.A.b.9.v.F.F.G.'.Y.t.F y 9 f >.u.M.M.M.v.n.F.G.G.B.n.G.F.U.F.S.K.a.8.n.F.'.G.'.].N.'.{.'.'.G.^.4XXXoX+X%X+X7X8X8X8X8X6XhX3X3X4X3X|.<XC.[.2X|.4X2XpXpXz.t t g.P.S._.U.'.G.^.].|.|. X|.|.3X6XXX/.Z.`.3X3X6X@X8X8X6X6X}. XoX6XhX`.].[.4X/.}.!.^.{.V._.[.'.{.I.R.v.m.J.t.F K rXrXI B | &.P | ! ^ ` W 5 ! R 6 B / B 7 ^ [ 4 5 ! 5 5 5 ^ ` 6 5 ~ ! , ! 5 B ` ] | ^ 6 ..*.] =.*.*.` ] -.FX=...&.&.| $.` ^ ` ~ ~ ~ ! P [ ] 5 o X X . .   o # % q i r r w t d d d f g >.5.5.,.,.,.>.s.s.,.u.u.d.d.M.^.!.oXoX+X). X/.].U.v.I.2X(.Y.R.F.I.R.i.K.;X-XA M ( | C *.X . ~ R 6 5 O . O + O o X N J x.j.y.G M * 4 5 ! , ^ 4 O + . . O , 7 $ o & i x.I.(.G.^.^.].].].2X2X<XsXdXdX<X'.nXfXfXdX1X{._.dX<X[.^.(.^.{.M.b.v.Y.Y.<.<.b.i.7.u.,.h g f f f f a u e # # # X   X   + < 7 < O > , , 4 5 5 Y ! ! ^ Y 4 6 5 ! ` ) ` ^ ^ ` 5 ^ ~ $.^ 4 W Y ) ~ ` ' ] 2 5 ) ] ~ 5 4 5 W W , ! ] B M C 1 % 1 % @ % M 1 & C V C V  .{ A Z G c.d.i.B.'.|./.OXOXZ.C.Z.C.T.v.R.K.M.I.'._.^.`.Q.Z.^..X|.Q.Q.Q.~.+X+X}.V.T.T.1X].'.T.n.S.L.a.d.z.x.F A w y.R.|.).). X|.U.K.K.K.K.A.j.J.Y.n.^.^.|.Q.^.^.'.V.W.N.[..XU.V..X`.U.2.m.L.P.qXY.I.9.'.`.Q.Q._.I.b.9.F.a.r.h.s.r.h.t.D F p c b D s.w.u.p.w.r.t.y.q.D m D t.t.r.4.4.h.t.eX0XS y.t.q.y.D h.P.q.g s.p.5.4.s.>.s.u.j.J.J.w.p.z.c.e.e.s.c.w.z.d.p.",
"Z Z y y z u u r u Z c S f g q.>.q.w.w.u.u.p.7.5.w.r.r.p.p.a.a.7.u.u.a.a.d.a.n.n.b.S.F.G.'.Y.h.G y q b >.i.M.M.M.v.M.F.F.B.B.F.T.F.V.M.M.m.b.v.b.F.U.C.^.[.Z._._._._.G./.4XXXoX+X+X#X#X#X+X8X@XXX3X3X6X4X4X].<XG._.2XhXjX4X1X:Xz.r r g.;XI.T.G.'._._.(.].|.|.}./. X X X`.Q.`..X.XhXXX8XXX XXX}.}.XX6XaXC.^._..X|.3X|._.U.N.I.,X,X{.S.m.u.x.F S U rX .V I ..^ 6 ` 6 ] ..^ 4 5 ~ ! ^ B 1 6 ' ` 6 5 ~ ! , P 5 ^ L 6 ^ ~ ! ^ B ] | | &., 7 | ..*.tX=.tX( ] -.=.*.=.=.$.&.$.~ ^ ~ [ ] ~ ! ^ ( P $ . X o o X o   @ & q i w t t w p d d h h h >.5.5.<.,.,.,.u.d.7.a.f.P.d.b.G./.6XoX+XoX@X!.Q.U.V.R.<XU.S.Y.F.M.Y.m.:XP.-XK C / | B | 1 - B R ! ^ > + O + O o X N l.x.j.g.J M 1 7 5 ! 4 R ` ~ B 7 7 5 4 7 $ o @ 9 x.Y.G.'._.'.'.].`.2X4X2XsX4XdXdX'.nXdXfXdXdX<X_.pX'._.[.<X'.U.b.v.m.K.K.v.v.M.b.i.i.u.5.q.l f h h s t r q q % X X @ o     + * - O 8 4 4 2 5 6 5 ^ Y ^ 5 6 6 ! 5 ` W ^ ) _ ^ 6 ] _ ~ ~ ! W ^ ~ ! ) _ Y Y Y ! ' ' 4 5 6 W 6 R ^ | 1 * 1 % % M M @ @ M M & C { V V }  .K y G c.f.m.V.G._._._.Z.C.C.C.U.n.M.m.m.F.{._.!.!./.Q.Q.!.!./.`.C.!.~.oX}.V.R.G.'.'.{.I.n.H.Y.m.d.h.g.Z v r F R.|.).oXXX|.U.F.I.K.Y.P.J.A.I.n.G.G./.Q././._.V.W.N._.2XU.B.4X].V.v.S.L.z.P.A.S.B.[.^.Q.Q.G.K.m.n.D.s.6.h.r.5.t.t.D S p c b D g.w.p.s.w.t.t.y.D D D f F e.y.e.q.t.e.eXG s F c.q.q.y.j.P.r.q.j.k.r.w.r.g w.4.p.d.j.w.>.q.e.q.q.y.y.t.s.p.r.",
"c Z a t y u y y u a p s m g e.>.4.w.p.p.7.7.7.5.g.g.r.r.5.p.a.a.,.u.a.A.A.A.n.n.b.S.F.G.1X>Xh.F y i S 4.i.M.M.m.N.M.U.G.B.B.F.V.V.n.n.m.m.M.S.b.F.F.B.^.].0.^.^.'.^.^.].3X6X+X+X#X7X7X#X+X+X8X@XXX3X6X3X3X].pXU.'.2X3XjXsXdXpXz.r w g.P.Y.T.G._.U.G.^./.|. X|.}.3X X|..X`.[..X.X3X XXX X XXX`.}. X3X.XZ.C.^.].].].].T.I.i.K.:X:XY.Y.J.q.F U 0XU C C X.X.P / ..~ ( / 6 6 ^ 5 5 | ^ 4 R ( 6 6 ~ ~ ` _ ~ ! 6 6 6 ~ ^ ^ ^ ] ` ' ` / 1 1 B ..( ^ *.*.( ....] ..%.%.$.] ^ ] ~ ^ ` ~ ^ [ / ! 7 $     o @ @ o o X @ q r w w d d d d f f h h >.5.7.u.i.i.,.<.u.a.i.m.i.L.m.8.N.!. X).oX+X@X!.!._.{.,X,XT.S.Y.F.F.Y.K.pX;X-XK C / &.( ( ] ] ~ ! ^ Y = . + + O . X N l.x.j.e.F M 1 , L ^ 6 ~ &.&.] ^ ^ ! 7 B $ @ @ 9 t.L.G.G.C.<X[.<X].2X].4XaX2XdXsX<XnXdXdXdXdX<XG.pX1X'.(.1X'.M.b.v.m.m.m.v.n.n.9.8.i.7.,.4.n h >.4.D Z t i u e X X & & @ o X o $ * * > 4 6 6 6 6 5 5 6 ^ ! 4 , 5 4 ` ~ ^ ^ _ 5 ~ ! ` ~ ] 5 5 ' ^ 6 2 W ) O.5 6 ! $.4 6 4 ^ Y ! B / M 1 1 % @ & M % & M N % % B / I I { H J F t.J.m.m.F.C.Q.C.^.^.Z.C.F.v.i.i.M.T.G.B.0.Q.Q.Q.!.!.|.'.W.!.).oX/.E.R.G.^.{._.I.n.T.T.m.J.h.y.A z q S I.|.~.).XX|.^.F.F.K.Y.L.J.m.K.F.'.G.C.Q.].`._.C.W.N.^.4XU.N.4X'.v.i.S.L.x.qXJ.b.F.'.G.^.C.C.K.m.D.D.h.4.r.w.>.w.e.D F p Z S D t.w.s.t.q.e.t.e.D m b s S S F e.F y.F 0XF S S x.e.D e.p.j.5.4.p.u.w.4.e.D q.4.w.w.p.4.>.g g q.D D F t.t.r.s.",
"s Z a a a t y y r t t s b g e.4.>.5.w.u.7.u.w.r.e.y.y.e.6.p.m.D.,.7.m.S.D.D.n.n.n.S.F.U.1X>Xh.S y w m 4.u.m.m.v.m.M.U.T.G.U.G.9.V.n.M.M.b.K.Y.M.F.n.Z.^.].0.^.^.].^.^.|.3X6X@X+X#X7X7X#X+X+X8X6XXXXX6X3X3X2XdX'.[.2X3X3X4X2XpXz.w r g.z.S.T.T.T.G.G.^.`.|. X X|.6X|.|.2X[.[.dXaX`.}.XXXXXXXX`.`.|.3X[.V.U.U.].].[.1XT.I.u.A.K.L.D.J.4.F 0XU C M { } C M { | ` | ^ P / B , [ &.! R 6 B ^ ^ 5 ! ' ` ^ [ 5 ' ' ] ` ` ~ =.=.( ~ &./ 1 / ] ( ] ] ..*...*.&.| &...( ( / 5 ^ [ ~ ` [ ^ [ P < X   o @ @ @ & @ @ X & i w w j d d d f f g g >.5.5.7.i.i.v.u.i.u.a.b.m.8.K.K.v.0.Z./.~.oX+X+XoX/._.[.<X'.T.R.K.I.Y.R.S.wX:X-XK V / *.$.` $.` 5 R ^ ~ 2 . O O O . X N J x.j.D A M 1 < W ^ 5 [ ' | | ( / ^ B B $ o & r q.S._.B.N.<X'.<X'.2X[.sXsX2XsXvX2XnXfXdXdXdX{.F.pX<X<X^._.'.M.m.i.m.a.S.F.F.V.n.n.b.i.<.,.g g 7.p.e.l a w t y o X % e @ & @ X o * 1 $ , 4 4 6 5 6 5 4 5 4 Y 5 5 ~ 5 ~ ) Y ! _ ! 6 ! ] ~ ^ ! ^ 5 W 6 , ~ ] ' ` ~ Y $.6 ! 4 Y ! R B B M % % % & & M 1 @ e N M $ $ B / I { H G g.x.t.q.P.B.^.G.^.^.B.n.F.b.a.i.a.M.n.B.Z.C.Q.`.`. X|._.N.OXoX X`.E.R.G.^._.U.I.S.T.T.M.K.j.t.G u q F K.C./. X X|.].U.F.S.Y.K.J.m.K.n.T._.Z.Q..X]._.C.W.N.^.].U.B.2X_.f.3.A.P.x.qXL.b.T.G.^.^.C.B.m.m.b.D.r.n r.r.4.q.q.D F p Z S S e.n r.r.>.q.t.e.m b s s S S S D F y.F l.Z G s x.g.q.4.d.j.w.w.s.p.s.e.D S m q.r.5.w.4.r.q.q.y.q.D D y.t.s.h.",
"s Z p a v u y y t y t s f f g h w.w.w.u.u.5.6.n j s D y.h.k.a.8.i.i.b.b.A.D.D.F.b.n.F.T.1X:Xh.s z i D 4.u.b.v.i.i.b.I.T.G.T.T.n.n.n.F.S.m.S.Y.S.F.n.G.'.].Z././.'.G.^.].|. X X X+X#X#X+X+X+X8X6XXXXX6X3X4X5X<XG.^.4X3X3X].'.,X;Xw r l.h.S.T.T.F.U.T.].|.|. X|.|.3X|.].2X<X[.<X<X`.`.3XXX.X2X`._.].dX[.n.T.U.'.[.1X,XI.A.u.z.P.P.P.h.l.0XA & I o.I M C  .X.( / ! P B 6 / ..' ~ L 4 R ! R ^ ` ` 5 5 5 ` L ' ` ^ ^ P *.-.[ ! P ( &.^ B ( ] ( ..=.*.&.( ..=.&.] ` / ~ | ~ ^ ` ~ [ ' 7 $ X X @ @ @ # # & @ @ X # r t j j h h f f g g 4.4.5.7.7.i.i.i.v.v.i.v.b.m.<.M.R.V.V.Z.}.}.+X+X+X+X}.OX|.2X'.S.:XK.I.Y.I.M.:X:XqXJ V ( | @.] ` Y 7 5 5 ~ 6 . O O O .   M G x.z.x.J C B > ~ ^ B ] $.*.*.X./ / B B $ @ & y e.L.,XG.N.{.G.'._.<X2XsXsX2XsXsX[.nXnXfXfXdX'.V.<X,X'.<X'.,XK.J.u.i.b.S.I.F.B.B.B.M.b.v.i.3.,.8.i.w.g f w d v o o % e # # # @ @ @ % B $ 1 , 6 5 6 ! Y 2 Y 4 ! 5 6 ^ ^ 5 &._ 5 6 ` ^ ) Y ! ! 4 6 W ^ 5 < 4 ` 6 5 5 W ! ^ Y 5 Y [ 6 7 B 1 & % M x # & x % @ M C $ $ V V C  .0XJ Z F y.c.b.G.G.G.G.G.n.S.A.m.f.u.i.v.N.C.C._._.Q./.].U.V./.|. X`.J.P.F.(.]._.I.S.:X:XS.K.d.t.G u r G J.N./.|. X|.2X[.G.F.Y.m.m.m.M.<.V.U.N.C.].`.`.C.N.N.].Q.G.C.5XT.j.g z.P.x.x.A.8.T.T.^.C.Z.C.M.i.9.D.w.n g.t.4.4.m S F p c Z S F m q.r.q.r.c.g.D D b S F S s S F D y.F a G s x.g.q.4.j.a.w.s.k.k.h.q.s Z s F g.r.w.5.s.t.t.e.q.q.e.e.t.s.s.",
"s S s a Z t t u t a p c b f n g w.w.5.w.p.r.e.D w w d D t.p.a.8.a.i.b.A.S.D.D.V.b.v.V.T.1X:Xh.p z w D 4.u.b.v.i.<.b.Y.F.n.B.H.T.n.M.F.S.M.M.F.F.F.9.G.[.].Z././.'.G.^.].|.|. XoX+X+X+X+X+X@X6X6X6X3X6X3X3X5X<XC._.2X3X3X2X1X,XP.9 q l.h.Y.T.G.B.U._.].2X4X3X4X4X X|.|.dXdX[.{.'.]..X3X.X|..X'.'.[.dXT.v.M.M.G.{.T.T.A.j.p.z.j.x.m g.A y H C M M 1 I X.} V I / / B / ( ( P 5 L ~ 6 ' ) 6 ^ ` ! 5 ) ! 5 ! ^ ~ ! ^ %.$.' | ^ ( | *.] P | *.*.tX-.*.( ..&.| ] ' ] ^ ] ~ ` $.^ [ ' $ o X X @ @ @ # % # % & @ o % u p j h h h f f g g q.4.5.7.i.i.v.8.n.N.v.m.b.M.9.n.T.V.V.C..XoX+X%X+X+X).!.|.sX'.b.K.K.Y.n.M.I.:XY.qXG V ( ] @.&.) ~ ! W 6 ! 4 . + + O +   M G x.z.x.G M 1 O [ ~ ! | tXBXtX| / I B B $ @ @ u y.Y.T.G.B.{.G.'.'.'.<X4X3X2XjXsX].nXnXsXdXpX{.F.<X'.U.dX'.R.L.J.3.u.J.m.M.n.9.B.V.n.n.V.b.u.,.9.9.u.q.D d d v @ o & e % q e e # @ & 1 1 $ B 1 , ^ , ! ! 2 W < 4 4 5 _ ] 4 ~ &.^ Y ) ! ! Y ~ ! ! , 6 ! 6 5 2 ) O 6 ' _ ~ ^ 6 ^ W ` 5 < $ 1 % @ % M % e % e & & C C * M V V H  . .K A G r.b.S.n.V.H.n.m.m.A.d.f.i.v.N.C.2._._.0.&X/.I.N.C.}.|._.d.P.T.[.`._.I.S.:XY.b.K.a.w.l.u r J P.v.Q.}././.4X.XG.V.K.b.b.S.K.<.M.T.W.Z.`.|.[._.n.V.].0.C.C._.T.z.h t.x.l.x.P.a.Y.T.C.Z.0.C.S.i.9.L.r.m g.h.q.g f f F t v Z S F n e.r.w.r.h.g.y.e.S S F F s S F m F F a Z S x.e.g w.a.7.5.p.u.u.s.f a Z t F l.g.r.5.w.s.t.w.e.t.t.e.h.t.t.",
"f S s s Z a y t t v a S m f q.r.>.>.5.w.w.e.e.F c w 0 d D p.a.D.i.i.b.S.Y.L.D.n.M.b.V.T.'.>Xh.d y q S 4.u.b.i.i.i.M.F.F.B.9.D.T.F.V.n.n.M.M.S.Y.I.9.G.[.].Q././.'.C.G.].`.}. XoX@X8X8X+X XXX6XXXXXXX6X3X4X5X<XG.'.2X4X4X4X2X,Xj.9 9 g.k.Y.F.F.B.F.G.'.2X4X3X3X3X X|..X2X<X{.{.G.[..XaX.X].[.'._.[.pXI.<.m.b.V.'.T.T.A.P.h.s.w.y.0XJ K N N k M M } } I C / / B M B } / 7 ! ! L _ #.Y 5 _ ^ ! ~ ^ ^ _ ~ ` ! ` %.-.%.] B ` | ` P | / | | ..BXtX..| =.-.&.] | ( ! [ ! ` ~ [ | ^ +   X @ @ @ @ # 9 q 9 q & @ @ e y d h h >.g g g n n q.5.w.u.a.m.b.v.n.n.n.M.N.I.n.n.T.n.n.U.aX}.oX%X@X#XoX).3XsX,Xm.P.K.F.9.S.T.,X:X;XF { | @.;.-.&.) ^ ~ ~ ~ 6 + . + O .   M K g.h.x.F e 1 O ] / ^ / =.FXtXX.} } / V $ @ @ u y.Y.F.V.C.{.U.<X<XF.'..X.X2XvXvX`.nXnXdXpXpX,XU.,XT.T.,XT.I.L.d.3.w.J.m.F.B.B.G.G.B.V.B.n.i.<.9.B.b.r.q.f h c @ X & M q r i 9 # @ @ X $ B $ 7 7 $ ^ , 6 5 2 ! 4 6 6 5 5 ^ ~ ~ $.~ 5 ! ! ` ' ) ! 2 , 2 6 , 6 ! ! = , O.#.Y W ^ _ L ! 6 1 % 1 1 @ % M x M % e e # % C x M C V V H  . .y F >.s.d.b.S.b.A.a.m.d.b.M.C.Z.Q.2._._.Z.!.(.M.i.C.`./.G.f.*XY.'.`._.I.S.Y.K.v.S.b.5.l.p u G x.M.C.`./.!. X|.C.V.M.b.m.K.K.i.S.T.N.V.`..X[.^.N.U.].0.C.N.(.I.t.l q.t.l.l.;XA.S.T.B.Z.Z.C.M.b.n.Y.r.n h.h.q.g f f F t v Z F G n e.r.w.w.r.e.y.y.F S G G s S F f F G A a F x.q.n s.D.8.5.h.p.p.s.h t u 9 Z g.g.r.r.w.p.p.r.p.h.h.5.s.t.e.",
"f S d s Z v v v t v c S b f n q.>.4.w.w.6.n D F S w 0 d e.p.a.b.A.i.8.n.S.S.F.F.I.M.F.T.U.Y.p.j w 9 b 4.u.a.i.i.b.S.S.H.>XU.F.R.I.F.b.b.S.S.S.R.Y.8.F.[.].^./.^.T.n.V.U._.`. XoX8X8X8X X X X X X/.}. X X4X].<XG.^.2X4X4X].'.T.z.w 9 F h.Y.D.F.F.F.F.G.(.].|.|.].4X|.].[._.U.U.V._.[.aX.X.X.X'._.{.pXI.<.m.m.M.:XS.A.p.x.l.x.x.0XJ K K N N e k { { C C I V C C V * 7 / ( ( :.] ! 5 _ ~ 6 ~ ' ` ' ) _ ^ ~ ] %.-.$.' ` ] ( ` ( | ] ^ -.tXtXtX| | BX-.&...] ( ` ' [ ~ 4 / ` 7 +   X o @ @ # # q i 9 q r & @ @ e a d h h >.>.>.4.4.w.w.5.u.b.S.S.M.n.V.n.V.M.v.I.M.N.1XN.B.`.jXoX%X$X#X+X+X@X3X4X<XY.:XK.M.v.R.T.T.>XqXF  .*.-.ZXZXZX&.) ~ ~ 5 , O . O O .   M K e.r.x.G k B * ..[ ! ( -.HXHXBX*.*.} ( $ @ @ u e.L.T.B.C.I.n.T.pXV.<X]..X2XvXfX'.nXnXdXdXdXpXT.,XT.T.'.T.Y.R.p.>.>.f.m.F.V.n.F.B.N.B.C.B.v.9.0.B.v.w.n f f Z @ o # N i w t u q q & # o X 1 1 1 B , 6 5 6 5 5 ! 6 6 5 ^ ! ) ~ W _ ] W ) ~ ^ ] ^ 4 < Y 5 4 O 2 ` Y 2 3 ' ;._ Y ~ ~ 6 ! B 7 % % * % % e e C e % % & % C M 1 V { C C {  .K t F g.h.j.a.A.m.m.b.n.F.^.^.^.V.U.U.C./.^.n.m.G._.`.U.z.qXI._.`._.I.A.L.A.i.A.A.6.g.p u A x.Y.C.|./.!.|.|.^.U.M.M.M.m.S.i.M.n.N.B.`.[.`.Z.N.G.|./.^.B.'.Y.q.S F G y.D z.A.S.'.Z.^.^.G.C.B.B.Y.p.q.h.z.w.g f S G p c b S F c D q.q.e.q.n y.g.F S G F a S F s G K K t S l.r.r.j.L.8.7.j.p.p.p.d 9 # @ w F g.h.j.r.p.s.k.j.h.r.4.r.e.q.",
"m D s s p c a a t p s s f f g q.4.4.5.6.4.n b b p 0 j h r.s.a.a.A.b.9.n.S.S.M.M.F.I.H.G.T.Y.p.f G 9 S n w.u.a.<.i.b.b.9.n.n.B.F.M.A.S.b.S.b.m.i.S.M.T.'.].^.^.C.b.A.J.K.T.1X|.oX7X7X8X X|.|.|./.`._.|.4X|./.^.^.<X2X3X3X].1XpX;Xw 9 F j.m.9.9.v.b.b.B.(.[.[.`.'._.G._.G.B.I.I.N.U.dX3X|.XXhX.X'.U.{.I.i.J.<.J.P.r.x.l.S 0XrX .rXe M M % k U U V C V M C V M x M 1 I ( ^ *.[ 6 _ ] ` ) O.` ] &.` ~ ~ ] ] -.;.%.[ ~ &.' ~ ' ] [ [ =.=.tX=...FXtXtX/ ` ] ' ` ~ ~ ` 4 ] B + X X X o @ # % # 9 q i i w t e @ @ u c g g >.>.>.5.,.,.7.7.i.n.N.n.V.V.N.Z.Z.F.U.v.b.F.n.].Q.!.~.@X$X#X#X+XXXoX}.2X2X1XT.L.L.a.m.R.pX'.:X;XJ yXJXAXZXZX&._ ^ W Y 3 > O . + O .   M N F x.l.a N M 1 *.^ ! ( $.BXtX*.*.} B / $ o & q D A.'.].B.T.I.Y.R.F.<X[.dX'.dXnXT.nXMXgXpXgXpXI.:XI.T.{.{.I.d.r.n q.s.m.M.8.N.n.N.B.Q./.C.n.n.W.W.m.w.D f f Z @ @ i s w d p p t w 9 q # @ o @ $ 1 , 7 7 6 6 7 5 ! 5 2 6 ^ W W ~ ^ W W ] ^ _ ~ W ^ 6 4 R ^ 5 5 7 ! ^ ) ) ) #.) ) ^ ! Y B 7 1 $ $ % % % & M M e e e % # M % % C V V C V  .H N K l.g.x.a.M.n.B.V.C.C.C.V.N.U.U._.Z._.n.N.G.G.U.F.J.L.T.U.^._.R.A.j.h.r.j.p.k.e.p A S x.L.C.}./.|.[.`.Q./.G.B.m.A.M.M.M.V.B.U.[.Q.C.Z.N.Z.^.].^.B.F.A.t.S A A F D J.I._./.&X!.&X/.^.0.Q.F.s.n h.j.p.h s Z S s 6.6.6.F v A l.g.b S F g.l.F F F Z a Z y u J K A a S g.h.h.w.a.b.b.D.8.5.5.F q o & # b g.5.u.w.q.r.w.s.h.q.n q.4.4.",
"n n f s d c a a p p s s s f m q.6.5.w.5.q.q.D F d j d g w.u.p.a.m.b.9.n.M.F.S.M.F.I.U.G.T.I.a.g g.0 F D r.p.d.u.b.A.D.n.S.F.B.n.b.a.n.9.b.v.b.i.A.b.G.(.].^.G.B.b.m.d.d.Y.{.|.oX#X7X8XXXXXXX X|._._.[.2X|.|.2X[.2X4X3X4X2X,X:XP.w 9 e.x.L.S.S.S.I.F.F.'.1X[.].'.{.U.'.{.U.'.{.I._.dX3X XXX6X.X_.{.pXM.<.d.f.x.x.x.-XJ 0XrX{  .% M M M C V U H k C k C C k M C M B B / ] ! B ~ ` 5 ' $.` ] ] ^ ! ~ $.&.-.] &.] _ _ [ ~ ] %.] ^ -.-...=.&.FX=.&.| | $.%.' ~ [ ~ 4 ! 7 +   X X @ @ # # 9 9 q r r w j p e @ @ u b m >.>.>.3.7.<.7.8.8.v.N.N.B.C.B.N.C.C.G.U.b.v.F.n.`./.~.%X#X#X%X#X+X@X|.`.[.[.(.U.:XR.m.K.R.pXT.T.;XJ JXKXAXZX-.#.) Y T T 2 ; O . + O .   M N A G J A N M B -.( ~ | &.-.-.=.=.| / R % o & q S a.G.(.C.T.E.K.pXT.'.1X<X,X,XfXI.gXnXgXwXgXgXI.Y.S.:X_.{.Y.m.t.q.q.s.A.S.b.M.E.N.Z.!.!./.n.N.N.v.f.s.F f m F @ @ t S j f f d s t w r q # @ @ @ $ < 1 * < , B 7 5 5 5 Y > ^ _ 5 5 W ! Y _ ) ! ! ) ~ 4 $ ! R 7 5 ^ R ) ^ _ W ) ^ ~ Y ! 4 7 1 1 $ & % % e % & e M M % % % % M M M V R / / X. .V N G t.j.K.M.n.B.Z.C.G.U.V.U.C.Q.V.U.n.v.F.U.T.I.J.K.I.G.G.G.K.f.t.q.n r.k.-Xg.t A Z g.A.C.|.}..X[.'.!././.C.m.A.S.S.F.F.N.G.[._.Q.Z.0.Z.G.].(.B.Y.j.D a i N Z f d.I._.C.^.^.!.C.C.C.C.n.s.g k.j.h.g s Z F c e.p.e.F z A F F c F F G F S c S A A A y N { y N v F e.w.s.d.d.a.F.b.A.k.g G # @ @ @ p h.j.5.p.w.u.u.p.r.4.r.w.q.6.",
"e.e.f b p c a a p a s s s f m q.4.6.6.4.4.4.e.y.f f m q.5.5.p.j.a.a.b.n.n.F.F.F.F.F.G.U.T.Y.a.g l.0 F q.r.p.m.i.8.n.n.F.U.U.G.F.M.m.S.n.F.S.K.S.m.9.B.(.2X^.C.B.M.A.f.a.K.'.|.oX+X#X@XXX3X3XXX|.'.[.2X2X|.|.<X].2X4X4X3XsX<XR.;Xw 9 g.;X:XT.T.R.Y.I.U.'.5X5X]._.'._.[.2X].[.[._.[.3X6X6X8X6X.X'.T.R.m.J.h.q.y.-XS l.iX0XrX .M I M M V { } { I N M V { C M V C V B P 6 ( ~ ~ ^ 5 ] ^ O.' &.` ! ^ ' &.$.` $.' ` ` ` ` ' [ 5 &.HX&.$.` &.BX..*.} | =...^ ! ~ ! 6 P <     X X o @ # # q i w w t t p j p y @ @ y b 4.4.w.w.3.7.7.8.b.v.N.N.B.C.V.B.B.C.C.G.U.b.i.F.B.^.}.oX+X#X%X%X#X+XoX}.`.<XdX<X<X:XL.a.L.R.pXT.:X;X-XPXKXHXAXZX;.O.Y T T 3 ; + . + + + X % e y F F A M M / BX| ] &.;.BXFXHXBX| I V $ o & e S p.n.U.B.I.J.L.pX'._.1X1X1X,XdXT.gXgXgXR.wXgXR.Y.S.R.F.T.R.A.t.y.e.s.S.I.M.M.I.n.C.!./..XB.9.V.i.,.w.e.f n G @ @ v D h >.>.h h f d p r q # @ @ @ $ $ * < 1 - B 6 5 ! 2 ~ 2 4 ` ^ 5 ! ~ Y ~ W 6 ! ^ ~ ~ 6 6 4 7 7 Y R W 6 ' _ W ~ ! ^ ! B 7 1 % % % % & % % & % M M % & & % C M M C { { C {  .H A a y.x.d.i.8.N.F.G.G.C.C.Z.C.M.K.b.a.n.M.I.I.J.m.K.Y.F.M.a.w.D D f 4.h.x.G t A A g.a.B.|.|..X'._.Q.`.].C.v.d.M.S.F.F.0.C..X`.Q.C.N.Z.C._.^.n.Y.j.l r e N a d 5.M.T.G.F.F.I.b.b.S.M.m.r.f s.j.r.f a a Z s n e.g.b r N S S S F F S F F c c v t u u N K y z c D 6.>.w.p.u.1.i.A.u.r.D A @ X X & A n j.J.f.u.i.i.i.7.,.p.u.w.5.",
"g.y.b b s c a a a a s s d f D q.6.5.6.4.>.g 4.e.q.D q.e.e.5.p.j.p.d.b.n.n.F.F.F.F.G.^.(.'.Y.a.4.l.0 D n w.p.b.i.8.b.D.F.T._.G.G.n.b.F.n.G.F.Y.I.M.9.C.].2XG.G.F.Y.K.b.a.I.'.|.).+X+XXX XXXXXXX|.[.[.2X|.^.`.'.G.(.'.`.].<XT.m.z.0 9 x.;X:XT.,X:XF.F.G.'.<X2X]._.G._.|.|.].2XdX_.].2X3XXX3X4X].T.K.L.z.s.g.y.G G 0XiX . .{ C V M M U X. .C M C C C V V C { { C B P ..( ( ! 5 ` %.` $.%.~ ' ) ` =.$.` ' ] [ ' $.' ' ! ! %.-.%.*.&.%.=.-...&.| / ` ` ! ^ ^ B ! 6 +     o @ @ @ # # q q r w p p p d d s z @ @ A D 6.5.w.w.w.u.8.8.b.b.N.0.Z.G.C.V.Z.C.C.G.F.M.b.I.F.Q.}. X#X#X%X%X@X+XoX`._.[.1X'.T.Y.A.i.P.R.R.I.Y.-XJ PXKXHXHXHXDX#.^ 3 3 3 ; + . . + + X % e v F Z y M M ..BX&.$.*.tXHXHXHX-.( / V 1 o & e S p.b.T.n.b.J.R.wXT._.1X'.pX<XdX{.pXgXgXR.Y.pX:X:XS.S.M.R.R.d.t.y.t.p.S.T.F.V.E.B.Q.!.!./.B.N.V.N.i.s.g.f n y.@ @ S q.>.7.5.1.>.5.g h d t r 9 # @ @ @ * $ $ 7 $ B ! 6 R 2 ^ R , ^ ^ R 4 ) 3 ~ #.4 6 ! ~ , 5 ~ ! 4 ^ R 5 _ 3 _ :.;.^ 6 B B B 1 1 x e e % % % % % % % M M % & & M V N % M { { M U  .K u F F q.w.a.M.M.B.Z.Z.Z.C.m.f.s.d.a.b.S.L.J.d.m.S.S.m.p.>.F F b q.6.g.F u A F g.u.9.^.]._.C.C.Z.].].B.i.a.M.M.V.C.Z.Q.}.`./.Q.N.Z.C._.G.9.J.s.S u e x v D d.M.n.M.v.a.J.s.r.p.u.d.q.f h.j.r.d p y Z p b e.g.b r A S D b F F b F F G S Z a y A K N A A S e.r.w.r.4.1.f.1.u.z.g S y @ @ $ @ q s h.d.p.i.n.n.b.8.,.u.p.7.5.",
"y.e.f b p a p t a c c s d f D q.e.r.w.6.4.4.6.e.q.n g n 4.6.r.p.p.f.m.b.n.B.H.G.U.(.(.(.'.H.a.4.l.0 n n w.7.i.8.b.D.V.H.U.^.G.C.n.n.F.C.'.^.'.T.F.B.^.].].C.G.U.T.F.b.m.I.'.]. X8X+X X X X X X|.[.[.[.`.^.].[.U.T.'.'.2XdX,XK.P.0 0 x.;XY.T.'.{.F.F.G.'.].2X]._.C._.2X|.].dXdX_.'.2X4X|.|.[.T.Y.P.h.x.F G v J 0XiX0X .V C % % C { { { V M C V C V V I | I 1 I } | ( B ^ ] ] %.' %.~ ` ~ ` ] -.| [ ` ` [ &.$.[ ] ^ ^ %.=.=.=.' -.%.] ] ' ] =.%.~ 6 [ [ ! ! 7 o   X o @ @ # & % 9 w r t p p s s d h b y @ # Z D 6.5.u.u.7.i.i.b.n.n.N.Z.Q.^.C.C.C.^.C.G.F.I.m.Y.G./. X+X+X#X%X%X#X+XoXQ._.<X<X_.H.:XK.a.L.L.L.S.L.-XJ JXJXHXJXLXHXO.Y 3 2 2 > O . . + +   % e A G p r k % tX=.&.&.=.tXFXFXFX=./ / V M o @ q Z r.a.Y.b.i.d.L.:XT.'._.U.<X<XdX,XY.pXgXwXR.wX:XpXK.b.K.R.L.d.t.t.t.p.S.'.G.V.V.C.`./.!.Q.B.C.Z.E.K.d.h.n g y.# # G w.7.v.8.,.<.<.,.1.h d d w i # # @ X $ 1 $ 7 1 7 4 5 ^ 7 R ^ 7 B R Y Y W W ~ _ ! 5 ^ ^ ^ 5 R 6 ~ ' ! 2 #.! _ ' ] W , 1 7 M M % e e % % % % % % % % % M M % & % M N V M M V V V { V N A S e.r.p.b.n.B.0.G.F.d.w.e.t.d.b.S.K.J.a.u.7.K.d.f.D F S f m r.x.F u A A g.5.<.G._.G.v.N.0.5X^.n.i.v.M.B.B.Z.Z.!./.!././.Z.Z.V.U.G.v.j.t.Z y M N A e.j.S.n.M.u.>.t.q.n g >.s.g f x.x.r.d t y A t m F e.Z u A Z D f D D b F F F S Z v A A J K A G F e.r.h.h.w.s.s.5.z.t.g y.r N 1 1 @ q c 4.p.u.v.B.B.M.b.,.5.u.7.6.",
"D D f b s s p a a c c s d f D D q.q.6.5.6.5.5.r.r.g h g 4.6.6.w.r.r.a.b.n.V.F.G.(.^.(.(.'.H.m.w.x.0 n 4.w.7.i.9.9.n.V.B.G.^.Q.G.V.B.G.^.2X].[.'._.G.`.`.`.Z.G.U.G.G.V.F.{.[.|. X8X@X+X X X|.|.|.<X[.[.].'.[.<X{.F.G.(.5X<X{.K.z.0 0 x.P.H.T.'.'.T.T.(.^.`.].].`.Z._.2X.X].dXdXG.'.<X4X].'.T.Y.L.;Xy.l.Z J H 0XyXU I U C % C { { V C M V { { / / } } I / ( / ( / ! / ! ^ $.] ' ` ~ ~ ~ ' ' ! ..$.` 5 ` ] ' ..' [ ' =.$.-.$.` FX-.=.%.=.] &.[ ~ ^ [ P ! B O   X o @ & @ @ % # # r t t p d s f h h g b y @ # A e.5.7.i.i.u.i.v.b.n.n.Z.C.^.^.^.C.C.^.C.G.V.R.v.I.C.]. X+X+X#X%X%X#X+X}.Q._.pXdX<X,X:XL.A.L.J.J.S.P.-XJ AXtXtXJXLXFXO.^ 6 3 2 > O . . + +   & e A G p r k % BX*.=.%.-.-.AXFXFX-.] / B B o @ % Z y.u.A.A.d.d.J.wX,X,XU.T.,XpXdX,XI.I.pXpXwX:XR.wXL.b.L.R.L.d.t.t.r.a.n.'.C.B.V.C.`.!./.Q.G.U.Z.N.K.u.h.4.h e.# # F 5.8.n.9.<.<.<.<.,.,.h h d t r q # @ o @ 1 $ 1 1 1 5 7 6 6 R / 7 B ! ^ Y W 4 W &.` ! ! ~ [ ) 5 5 5 Y _ 5 6 ^ _ ) ! 5 7 1 * M M e e & M M & & x x % M e % M x % % e e V M M V B I I V C N A y.g.s.i.9.B.H.n.s.q.D y.p.b.A.S.A.f.u.<.m.f.w.g D F f D h.x.F u N A G r.8.T.'.U.v.v.B.<X^.n.i.b.F.C.B.C.Q.!./.!././.Z.B.N.F.I.i.z.y.l y N H F n 7.Y.H.F.A.4.g g D g >.w.g f x.h.e.d t y A w S F m c u A S D D e.e.D y.F p c S a a u J K u A F F 4.r.t.r.w.s.s.u.j.h.f A E M C M H G n h.a.v.n.9.m.d.>.4.w.5.4.",
"D D f b s s p p a c Z p p f b m n 4.6.5.5.5.5.4.w.4.h g q.e.e.q.e.>.7.b.S.n.F.G.(.^.^.(.'.T.m.p.x.0 n 4.w.7.i.v.9.n.n.B.G.^.^.^.V.B.C.Q.`.^.^.^.^.C././.^.Z.G.G.G.^.G.'.<X.X|.|.XX X@X3X X|.}.|.2X[.[.].[.[.{.T.U.'.<X2X2X<X:XP.0 0 x.L.H.'.'._.F.G._.`.`.].].`.V.C.[.[.'.'.T.n.T.pXpXT.S.K.z.x.-Xl.J N  .yXrXI I } M * I } { I 1 I } } { I I ( I ..( P ( ( ! ^ ( | ` ^ ] ` ] $.~ ~ ] ` ` ..$.P ^ ` ` ' ! ' ~ -.=.&.%.' -.GX$.$.&.%.%.tX~ [ ~ ] 7 P 7 + X X o @ @ # & % q 9 9 w v s s f h g g g 4.n y @ # A e.5.7.b.i.i.v.b.b.n.B.C././.Q.^.C.C.C.C.U.V.Y.<.M.B.`. X@X#X$X#X+X+X@X}.Q.C.{.T.T.T.:XL.A.L.f.j.L.;Xx.J X.X.X.tXAX%.` ^ 6 2 < ; + . . + +   & e A G a z M 1 tX-.-.%.;.%.;.-.-.*.( B M C o @ % y F w.a.A.z.h.z.:X,X,XT.'.'.pXfXpX{.T.pXdXwXR.R.wXY.m.J.P.z.h.c.t.s.a.B.].C.N.B.C.!.0.!.Q.Z.V.C.Z.I.A.r.e.g F # @ m u.8.N.9.8.8.8.2.<.<.,.,.h d d t r q # @ o % $ $ 1 $ 7 B B 6 B / R 6 ^ ~ 5 ~ ! 4 $.` 5 5 ~ R R R 5 R 6 _ 6 2 6 W ~ ` P 1 % % M N k e % e k e % % M e M N N M e e % e % M C B B ^ B / V N N K G y.r.b.9.D.a.h.e.y.w.a.b.S.S.m.m.M.M.v.i.u.3.q.y.q.r.r.g.Z y N N G r.7.T.T.Y.m.M.B.1X_.n.i.m.F.F.G.G.Q.Q./.!./.`.Z.B.9.F.F.a.J.c.S y z K G g.D.:XF.9.S.a.5.w.s.u.8.5.e.f t.t.n d t y A w S G s s a Z D y.y.y.t.y.g.S c F F v Z t J K e N A F m g q.r.4.h d.a.p.j.e.G v z C M K G F g d.i.9.v.a.y.f D r.5.4.",
"D D f b s p w w a v Z a p s m m n 4.6.w.p.7.5.,.w.4.h g q.e.e.e.D g ,.a.S.n.n.G.G.^.^.(.'.T.A.s.x.0 S D w.u.a.v.b.D.V.B.G.^.C.C.U.C.^./.}./.].].C.Z.^.!.^.C.G.F.^.^.(.].2X]././.). XXX6XXX|.|.4X[.U.^.[.1X{.{.I.U.U.1X<X1X,XR.j.0 0 h.D.F.'.'.G.0.C.'.5X2X2X|.].U.V.[.dX'.G.V.N.S.pXpXS.a.s.g.l.l.A J iXyX .C C } 1 B / / I C M / X.| / | X.( / | ( ....' ( ! [ $.^ ~ ] ! ] ` Y ~ ` ' [ ] ' ! ` ..~ ..~ ] ] $.-.' ] $.-.=.$.=...%.' ` ^ [ ! ^ 6 6 8 .   X @ & @ # # 9 q q r w t c s f h m g >.>.5.4.v @ # A e.5.8.b.b.v.v.n.n.n.B.^././.Q.^.C.V.C.Q.'.V.R.<.M.C.Q.oX@X7X9X$X#X@XXX}.Q.C.T.T.{.,XY.L.J.J.w.p.J.;Xl.H { R V X.@./ 6 2 < ; O O + . . . +   & e A G v A k 1 tXBX-.&.%.| $.' ` [ B 7 1 M o @ e y F 4.p.s.s.z.z.A.:X,XT.'.G.pXfXdXdXpXpXpXR.R.wXpXR.m.z.z.h.h.l.g.s.b.B.].Q.N.B.C.Q.0.!.`.C.B._.Z.N.m.w.r.4.g.# @ D p.<.v.9.8.9.9.9.0.<.<.<.,.h f d p q q # # @ & & $ 1 < 1 7 B 6 B ^ ` , 5 ~ 5 5 L 6 ^ ' ^ Y ! ~ 5 Y 5 Y 6 ! 6 5 4 W 4 ! P 1 % e N N M e % e e k e e N M M C C N N H x % M 1 B P B / B / { V N y Z l.p.u.a.7.h.t.h.p.m.F.U.F.M.V.U.U.n.n.m.u.p.t.w.s.5.y.Z N V N Z n ,.S.I.K.m.m.n._.T.n.i.a.S.V.F._.C.Q.}././.^.N.N.v.M.M.i.P.x.G Z Z S n j.S.R.n.9.n.S.m.D.L.A.S.p.h.D s.r.n s c Z y w F g.s c Z S q.t.e.e.t.g.g.S S F Z p F y J A y z a G e.g e.h.h 5.a.m.D.a.r.y.J A z x z w c e.s.8.9.b.d.D d l t.w.4.",
"m D D b c a t t a v c c p s S m g n w.w.u.7.7.w.w.6.g g n q.q.q.f h >.a.M.n.M.G.U.^.(.(.'.F.m.r.l.0 b D r.,.b.b.8.n.n.B.G.'.^.C.C.Q.Q.!.)././.].^.^././.|.C.G.B.^./.].]..X.X|./.}. X X X X|.4X2X<XF._.C.G.<XT.R.U.'.[.'.<X,XS.x.p 0 h.L.,X[.<XG.C.G.(.(.].3X|.'._._.'.'.{.'.I.L.L.Y.S.A.s.x.G Z J E iXrXM C | B M M I I M V B | | / / } } | ..| ] ....! ! ~ [ P ~ ( [ ! ^ ^ W ! ) ' ' ~ ~ ~ ' ] $.' ~ ~ ..&.$.&.` $.-.%.$.%.&.=.' 5 ! ~ ^ ! P ^ o   X o & @ # # 9 9 i i y r t s s f f n h 4.>.5.7.w.Z # # F r.7.i.v.v.N.N.n.n.V.C.!.!./.`.C.V.V._.`.U.N.Y.E.M.C.^.}. X+X9X+X7X@XXX|.'.U.T.V.T.:X:X:XK.d.,.j.J.z.l.N } | V } X.R < ; = O O + .   . . .   M M A A v u % C tX&.=.@.] ` ' ] ~ 4 B 1 1 1 @ % e N s n r.s.z.z.P.j.Y.:XH.T.T.,X{.dXdXdXpXfXpXI.K.gXR.u.w.r.t.c.c.e.p.b.^.Q.Q._.U.C.Z.Z.`._.B.G.Z.C.N.a.h.g g F # # l.p.,.i.i.<.8.9.0.2.2.2.9.<.>.h h f p r q 9 # @ @ @ $ $ $ 1 6 B 5 6 6 ^ 5 5 ` ~ 6 2 W W ` ) 5 ~ ] 6 4 ^ 5 4 4 2 6 W < 6 B M 1 e e e N N e e e e e e % N V M N { V e M C 1 1 B 6 6 B / B C R { H N A G e.4.>.h.z.u.u.S.F.G.{._.C.Q./._.G.T.Y.a.u.m.A.A.x.p N H k F m 5.S.:XA.d.d.b.T.T.b.<.A.I.n.B.G.Z.C.`.Z.Z._.V.N.N.n.I.<.J.P.l.S e.t.r.A.Y.T.G.9.n.n.9.n.Y.a.a.d.t.t.t.t.e.b c A A w s F m s s y.t.h.t.r.t.e.D y.b G F v v y J J y y Z F y.e.r.h.4.,.7.8.8.a.u.n G E { e K A Z e.5.A.9.b.h.l.Z F t.5.4.",
"f b b f c a t t v v Z c p s b m D 4.w.r.p.u.w.w.w.6.n 4.q.4.n g f g w.d.A.M.S.I.G.G.(.(.'.T.A.t.g.0 b e.s.,.a.m.b.S.n.9.B.^.^.^.C.^.Q./.)././.`.C.^./.`.|.C.G.B.^./.}.}.|.|.|.|.|. XXX X X}.].1X,XT.T.B.G.{.I.F.F.U.].(.<X<XL.x.w 0 h.D.T.G.'.G.U.G.'.].5X4X].].U.{.2X<X_.G.I.Y.d.J.J.P.r.e.G J 0X .N N } { C B / / } C I / ( X.} X./ / *.*.( ] ` 5 7 ' ` ( ! ( ' ! ` ^ 5 ] ' ] #.` [ _ ] ` ! ..~ P ' -.-.$.' ` -.FX=.%.=.%.&.^ ~ ' ' ^ ^ / 1   X X o @ & # # q 9 i t r a w d s d f h g h 4.4.5.7.w.S # # F r.7.S.n.9.N.B.C.n.n.Z.Q././.OX_.C.W._._.U.N.Y.M.M.B.Q.XX@X8X+X+X7X@X3X]._.U.pXT.,XH.F.Y.S.u.,.z.P.z.l.K } / V | *.B > = O + + + + .   . .   * M A A y u % C tX&.%.] ' ` ` ) ^ 4 B 7 1 1 o & e N a n e.r.x.h.P.A.:X,XR.F.F.,X<X,X'.dXpXpX{.R.I.pXR.b.s.t.h.x.g.t.p.m.G.Q.Q.Q.C.C.!.!.`.U.B.G.Z.C.N.m.h.h h F # @ l.s.,.7.i.i.9.9.0.Z.0.2.9.8.5.5.>.n d p 0 w 9 # # @ & $ $ $ * 1 6 5 5 6 5 ! ! ~ ) Y 6 5 5 ~ O.! 6 | ( ~ 5 ^ W , 4 4 ' 7 $ B C M M M N N N x e e N C M & M V M M V C B B B B 1 1 7 4 7 / / V V { { H z K s D g.h.d.<.F.G.C._._.C.!.}.].^._.T.n.b.M.b.S.x.p N U k G F w.A.L.A.j.a.8.F.T.b.w.f.A.M.n.n.V.C.^.Z.Z._.B.v.b.M.I.<.S.P.z.q.s.j.d.m.I.I.F.N.G.G.D.b.K.u.p.s.w.t.r.r.r.D b Z Z w c F m f D t.t.h.t.r.t.e.D F F G S Z A y J K N A G F h e.x.h.h ,.m.i.8.j.u.m v 0X .H J G G S 5.a.8.a.c.l.Z Z e.6.4.",
"f f s s c a p v r t a a t p b m F q.q.w.r.w.w.w.r.q.q.e.e.q.n g g D r.d.A.S.F.I.G.G.^.(.'.T.A.s.G 9 b e.s.w.a.b.v.M.n.9.B._.^.C.G.^././.)./.^.^.Z.C./.|.4XC.G.Z.^./.}.|.|.|.|.|.|.}. X X X}.].1XR.R.T.G.G.{.T.I.'.[.2X].2XpXI.z.w 0 h.L.T.C._.'.U.G.'.'.1X<X'.[.'.'.].[.'.T.S.A.P.;XP.r.n l.0X .N N H C % M V } | V / V I / | =./ B } tX| / ] ( B ^ ..' ' 5 ~ &.` ^ B ( ] ! ! ^ ^ ~ ` %.~ ] &.! ~ -.FX$.[ ..=.=.=.| =.*.&...! ] ` ^ B B B 1 X   X X @ & # # q u w w p w s d s f f n g >.h 5.5.5.7.w.S # # S 5.<.n.V.B.B.N.N.n.B.0.OX}.~./.'.C.N.G.C.G.n.K.M.S.n.Q.XX@X7X~.+X8X6X|.[.{.{.,XF.T.:X>X:XY.a.f.j.J.h.-XN { } C V / 6 > = + + + + + .   . .   1 M A y r e % B =.&.| [ [ ~ ^ Y 5 , 4 1 * 1 o & e A v b m q.s.r.j.j.:XwX:XT.F.<XpX<X{.fXdX{.{.T.T.pXY.m.j.t.x.c.t.t.w.b.'.`._._.C.C./.`._.U.B.G.Z.Q.B.S.h.h g G # @ G r.w.3.u.v.N.0.Z.C.0.0.B.9.8.7.5.6.g d j w t r 9 # @ @ & $ $ * 1 7 7 B B B ~ [ ~ ~ 5 5 Y Y ! ) ` R ~ ` ` 6 ^ ] , , , ^ ( 1 $ M % x N N N x e M N N M C % % C M & C B P P B 6 7 7 6 B B B R / / / { C N K Z F c.w.i.F.G.Z.Q.Q.!./.~./.Q.^._.C.V.F.n.D.h.p N { e A F >.d.L.J.s.5.7.Y.:Xa.r.>.a.K.b.b.I.V.C.0.Z._.V.v.M.S.Y.8.S.L.J.p.b.S.M.n.N.v.n.N.V.F.i.,.w.g D n n y.q.4.g.e.c c c w s m f n q.t.r.p.p.r.t.r.q.e.F S Z A A u K A t s l.x.n 6.h.4.h 5.A.a.<.p.q.s G iX{ N u z A c w.a.8.a.g.l.Z F S S s ",
"f f d s c p t Z w w w t w p c m D n 4.6.6.6.r.r.r.4.g n q.4.g h q.r.p.a.m.S.I.F.G.G.G.^.(.F.m.r.g.9 b q.s.u.i.b.9.S.n.9.F.'.^.Z.G.^././.}./.^.G.Z.Z./.`.|.C.C.Z.Q./.). X X X|.}.3XXXXX6X X/.G.T.S.Y.Y.T.'.'.{.{.{.[.2X].1X1XS.s.w w x.P.T.G.G.'.G.F.T.'.'.'._.1X'._.^.'.'.T.A.p.h.x.h.e.g.-XK e N e e % C  .{ U C I } { I X...( / ..} / | ( P P ~ %.' ^ [ ../ P ..[ &.^ 4 ^ L 5 ^ ^ ' ' ~ ^ 5 ] =.%.[ ~ &.=.&.&.` *.=.| [ [ [ ! ! 7 ^ B     o X @ @ @ & q 9 q t w d s d f d f f h q.w.>.,.5.u.7.8.u.F # # S w.<.v.B.C.B.0.9.n.F.C.Q.}.}.`.U.V.B.C.Z.F.M.K.S.Y.B.Q.XX X@XoX+X8X6X|.[.{.T.T.n.T.,X<XY.Y.K.J.u.a.h.-XN / ( M M B 7 < ; O O O + + . . . . . M M u t r e % B &.$.] ^ R R R 5 6 < < $ $ * o & e A a s m q.s.r.k.j.;X:X:XpXT.{.<XdXdXfXsX[.{.{.T.pXY.S.J.s.x.t.y.y.>.i.G.Q.C.C.B.Z.Q.]._.U.B.C.Z._.C.S.h.h g l.# @ F 4.5.u.i.N.N.Z.C.!.Z.0.B.9.9.8.5.5.4.h h j d d w w # # @ & & $ < < 1 B B B / [ ! ~ ) 5 5 5 5 ! ~ R ] ^ ! ^ 5 Y ) ^ 5 4 5 | B $ 1 1 M N N M M M M M % C B 1 * 1 M B ! ! ! R R R B B 7 1 1 B ^ / / ^ | I e A J G c.,.m.V.Z.C.^.Q.!.!.!.!.Q.^.Z.C.F.n.S.s.p N  .e A F h d.:XJ.s.,.7.Y.Y.7.w.g w.J.p.A.I.V.C.Z.Z.C.n.v.M.M.I.<.S.S.A.a.n.F.B.n.v.<.v.N.v.M.7.h g d s d h y.>.g y.D d s c t c b f 4.w.p.u.p.u.p.s.t.e.e.F G G A v u J J F S y.g.e.r.h.h.p.h.P.d.u.s.t.S y  .K e r z A Z r.7.i.u.y.0XF l.S s s ",
"f f d s c p t Z t w t t t p c b m g 4.4.4.4.6.r.n h d h h h g >.r.s.d.b.n.F.F.F.G.G.G.^._.G.M.p.x.0 f q.s.f.i.v.n.F.n.9.B.'.^.C.^.(././.`.`.G.G.C.N.^./.].C.V.C.^./.).oX+X@X X}. X XXX6X4X].'.R.A.K.Y.,X'.G.'.[.[.[.4X|.1X<XY.z.w w l.P.Y.F.B.F.T.F.'.'.'.'.G.'.G.T.'.,XR.L.j.g.qXl.y.G l.K N V k x C V {  .N M U { I { } } B ..../ / ( ( / ] | ` &.| | | / P ....%.! P ( 6 6 _ _ &.^ W ] ^ ' -.' ! ] -.&.` ] &.-.-.&.( ^ [ ^ 4 5 ^ ,   X X X & @ @ # q q w w p d h g j g h g g h 4.r.5.7.u.u.7.i.p.F 9 9 F r.8.n.B.B.N.N.Z.B.B.^./././._.C.V.V.U.C.F.n.S.S.R.G.`.}.oX X8X).6X6X3X[.G.U.T.F.T.T.,XF.Y.K.J.u.a.p.l.N V B C R B , 2 < = O O O + . . . .   M k u u u e % 1 | | ` ^ R ~ ^ Y 5 < 1 $ $ * @ % e A c s n e.h.h.z.j.;X:XI.,XT.U._.dXdXsXdX[.'.{.U.pXT.Y.A.s.x.t.F y.>.i.C.C.C.C.B.B.^.`.Q.C.B.C.Q.OXC.S.j.h g g.% # y.w.,.i.b.N.N.!.!.!.!.0.Z.0.9.i.,.,.>.>.h h h h d w w i # @ @ & $ $ 1 $ 1 B B ^ ` ^ ! ^ ~ Y 2 5 ~ ^ 5 ~ $.5 R ' R _ ! Y 5 7 / | 7 1 % M C V C M M 1 1 M B B 1 7 B ^ ~ 6 ~ ` 6 B ( B 7 7 B B B B ! ! ^ / X.N e K F t.a.M.n.C.G.Q./.!.Z.Z.Q.^.B.N.F.n.S.s.a N  .e A S w.A.L.d.s.p.7.a.L.>.D f 4.p.5.A.S.G.G.^.G.Z.N.v.v.v.S.<.S.S.A.i.n.F.F.V.N.2.N.n.b.K.a.>.e.l l s h t.D f D b p s Z p Z b f q.p.p.u.u.p.p.p.t.e.D F G G A z u H K A G F e.r.6.4.t.x.h.k.k.d.z.t.F u K K N A F Z S e.5.a.w.G 0XG g.n n m ",
"m f d s s p t a y t t t p c S b f g n 4.4.4.4.e.D f f f n n 6.u.p.d.m.b.n.F.F.F.T.G.(.(.]._.I.J.-X0 D q.d.b.i.v.n.F.V.B.G.'.^.Z.^.(.^./.].].G.G.V.9.G.^.`.C.Z.C.].}.).).oX@X X|.}. X X3X4X[.{.R.A.J.Y.:X'.U.'.2X2X].4X4X5X,XY.P.i u l.P.S.F.n.M.F.F.:X,X1X,XT.,XF.F.Y.Y.L.z.t.F s Z Z K J N e M C C V N N H K H  .K U V M I ..B P ( ..( ( ..&.| ( ] =.( / ..tX/ ( ..*.P 4 ~ ^ ] ~ ! ~ 3 _ &.#.] ' &.%...] &.*.&.-.( ] / ! ! 4 [ ~ o     X @ # # & # # q r w w d h h >.h >.h >.>.>.>.p.u.a.u.i.<.9.p.F 9 # F w.7.B.C.C.Z.N.N.V.B._.`././.^.U.I.M.'.G.F.b.S.S.T.T.[.`.}.oX8X~.@X3X|.[.U.{.T.F.U.T.U.F.Y.S.m.d.A.5.l.N B 6 M B B 7 < > = O O O + . . . .   * k N u y x 1 1 ] ] ) ^ R ~ ^ 5 5 , , * * * @ & q A c b n 6.h.k.z.k.P.;XR.R.I.T.U.dXdXsXsX[.'._.U.dX,XY.d.p.z.t.y.t.q.d.V.C.U.C.V.V.^.`.Q.Q.Z.^.!./.C.F.J.4.4.G # # y.w.,.v.n.B.Z.!.~.~.!.&X!.Z.N.b.<.,.,.,.,.,.>.h h j j w i 9 # @ & & % $ 1 1 7 B [ ~ ` 5 ! ` ! 2 6 ~ ~ 7 6 ' ] ^ [ ^ ) ^ Y ^ Y 5 ~ 6 1 1 B B B B B B B $ 7 B 1 B ( 5 5 ) Y 5 ] [ B / ! B B B B 5 5 ! ] / V X.{ k N S t.m.b.n.B.C.]./.Z.C._._.N.N.V.n.m.s.t N  .e A b 4.d.A.u.w.r.7.a.P.4.f f g 4.g p.b.F.G.].^.B.N.N.i.<.b.<.n.n.A.b.b.V.V.G.V.N.n.M.m.A.k.r.x.q.D n g y.q.m D b p s S a Z S m q.p.p.a.a.a.a.p.r.e.m b S v y N u N y y J l.F e.n d f x.r.p.a.d.z.t.D S F G Z G G Z F 4.5.p.r.F J Z S e.q.n ",
"m b s d s a y y t t t t t c S b m f g q.e.q.n m D m D y.t.r.p.j.a.b.b.n.n.F.F.F.G.U./.`.(.(.F.J.;X0 q.w.d.m.v.n.n.B.B.G.'._.C.Z.^.^.^.(.(.'.G.I.n.2.C.C.`.C.Z.^.|.|.oX).oX+X X}.XX6X8XXX|.'.I.m.z.z.Y.I.T.[.'.[.].Q.|.4X`.G.b.h.0 u l.j.S.T.F.I.b.S.T.T.:X,XT.Y.A.A.D.A.j.g.F A N K K N H V C C C } U U rX .N K N K N V o.I B / ( | ( | *.] ^ ^ ( *.^ ( *.X.I tXBX..6 6 ( ] ` _ _ O.~ ' DX#.~ ' &.%.' ( &...] | P ( ! P B 6 P 6 .   . @ o @ & # e 9 9 r w t p f >.,.5.>.5.>.5.w.5.,.u.u.A.i.i.8.9.7.F # # F q.7.n.G._.C.0.N.C.G.^.Q.!./.^.U.V.n.T.T.F.v.K.S.H.T.].`./.|. X~. X|./.[._.pXT.G.G.'.'.T.I.S.m.L.D.p.-XN M 1 - $ $ , O O O + O + + . . + .   % x N z u x M 1 ( ^ ! Y 5 R 5 2 4 < < - $ 1 @ # q Z c n n 4.p.s.j.p.J.;X:XY.T.,XU.2XsXsXsX].^._.'.dX{.R.a.d.c.t.y.y.r.f.M.V.V.B.N.N.Z.Q.OXQ.C./.~.}.Q.F.A.5.w.g.# @ y.5.i.N.V.C.!.!.~.~.!.&X!.Z.B.N.<.<.,.<.u.,.,.,.1.h h d p w q # # @ & % $ 1 1 7 B ~ ! ] ! 4 ^ ! 2 6 ~ P 4 7 R ( _ _ _ _ _ ~ ) ^ 5 ~ 6 7 1 7 B ! B B $ B 7 1 6 B B [ ) 4 Y ~ ! ~ ] P ! [ ^ 4 4 ^ ~ 5 R / | / I / C e D p.i.9.n.V.(.^.V.V.U.U.N.N.V.n.m.t.r N U e A c h a.A.u.4.4.7.J.J.t.S l m n 4.5.9.B.H.].`.Z.V.M.m.i.v.<.n.b.m.a.i.b.n.G.G.N.B.n.b.a.w.r.x.4.4.q.q.y.y.F F b p v Z a Z S f q.u.a.b.i.a.d.u.r.e.m S G Z N K u K H  .rX0XS s f S y.g.w.a.a.b.A.f.w.d S b F g.g.F F 4.6.6.e.A K A a b f f ",
"b S s s s Z a y v v v v t p c c m g g D r.e.n f f f D g.h.r.w.a.d.b.9.n.D.F.F.F.G.G.^./.^.G.V.m.x.0 q.w.d.m.v.F.V.B.B.C.^.^.C.Q.H.H.C.!.(.'.G.F.m.<.V.C./.Q.Z.Q.`.}. X+XoXoX}.}./. XXX).|.].T.E.P.J.:XM.V.,XC.C._.Z.}.3X].G.A.x.9 u g.p.b.T.Y.:Xm.S.T.H.H.Y.m.a.w.x.x.x.y.A A H N V U I  .I C I X.I { rX .N K J A A K  .U } | ..| | ..| ( ( ` ] =.| ....| X.BXtX..^ ( ( 5 ! ~ ^ ! ^ _ ' ~ ` ' %...( ] ....| ] P ] P P P ^ ^ O       o @ & % # q q q q t t p p m 4.,.5.,.u.,.5.p.u.,.u.a.K.a.b.v.i.u.F 9 9 F w.8.F.G.V.N.Z.G.G.G.^.0.0.^.'.n.N.M.I.T.F.9.I.K.Y.T.G.`.Q.}././.|.|.'.'.F.:XR.T.T.U.,XY.b.K.A.R.L.A.-XK 1 + + $ O + + + + + + . . . + + .   * e y A r x C 1 / 5 5 4 4 5 4 2 6 , < 8 $ 1 @ & q Z c m e.4.p.k.A.p.z.:XY.F.Y.'.B.2XsX2XdX^.Z._.'.sX<X{.i.d.p.p.y.q.w.u.I.U.U.V.M.n.G.^.Q.C.Z.Q.!./.Z.n.7.>.r.l.# # g.w.i.N.V.Q.!.!.~.oX~.!.~.!.Z.N.<.,.,.,.,.,.,.,.,.,.>.h j p t r q # @ @ % 1 $ < B 5 ~ 4 Y ~ 4 4 R 4 6 ~ ~ ^ 4 4 ] ~ ^ ^ ^ ^ W W ^ ! 5 5 6 7 7 6 B ! B 5 7 1 4 5 6 7 ! _ Y 6 ! ! L [ [ ~ ^ ^ 5 7 5 ` R 7 7 / ` / I N A F r.p.a.n.G.B.B.V.T.I.v.N.E.m.A.y.r N V e K b h.A.A.p.t.r.7.D.P.z.D S D r.r.5.8.B.0.].|.!.G.F.I.b.n.<.M.b.m.b.i.b.b.F.^.Z.B.n.i.7.4.r.j.>.,.w.q.q.y.y.y.S a p Z a F F n w.p.m.b.8.i.d.p.t.t.q.b F c Z A i K rXyXrX0XF d d b m n 4.7.,.,.p.w.>.f l.d y.n e.F D 4.r.n S u N A t a p p ",
"S s c Z t t a A t a v a w t Z c b f n e.4.r.t.q.g g g g >.4.w.p.8.9.9.b.n.n.M.G.G.G.^.^.G.G.F.A.F 0 D w.u.b.m.S.n.F.G.^.]._.C.C.C.^.^.^.(.(.T.I.m.i.n.^.).~.!.Q.`./.}.).oX X|.|.|. XXX X X X.X{.R.R.R.U.F.U.'.'._.2X4X|.1X,XP.g.9 v g.j.S.T.R.K.b.m.Y.Y.:XP.f s F l.J A K  .U C I | X.I C I } X./ | X.{ U  .J A J  .K H V X.} ( *.| / P ( ( ....} ..=.=.=.BX*./ P [ ( ( P ! ! 5 ' ~ ..` ! ....^ ( ] ' ] ' ` ~ $.B P ~ ( 6 +     o @ @ & % q 9 r r t w w p w p b 5.,.7.7.u.7.,.7.7.,.a.m.b.8.b.7.u.s.l.0 9 F 4.7.n.V.V.C.G.C.C.C.[.C.B.M.m.m.K.Y.Y.Y.Y.8.S.S.A.K.C.[.Q.aX`..X[.[.pXY.Y.L.m.K.:XS.I.K.P.i.S.S.Y.j.-XH @ + + + + + . . . . . . . . . .     % N A A u e M $ ( B 4 4 7 , 2 2 < < > O O $ X & q Z b 4.e.6.h.A.J.A.d.z.wX:XI.I.B.'.fX'.dXC._.'.].jX4X[.b.A.m.m.u.j.w.A.I.I.I.I.M.M.V.C.B.B.C._.^.G.V.M.p.q.g l.# # g.6.p.b.I.Z.!.~.!.~.~.~.~.!.Z.N.<.,.,.u.7.,.<.,.,.,.,.,.h h d w r q # @ @ @ % 1 , , 5 ~ Y 4 ^ R 6 R , 4 ^ ^ ` ` 5 ~ ` ^ Y ^ ^ W W _ ! 6 6 , 7 7 , [ ^ 5 7 , 4 5 5 5 2 6 ~ ~ 6 ! ` ! ^ ' ] ~ ) ! 5 5 ' | / 6 B / / } H y A F r.A.S.n.b.n.F.F.N.i.a.d.x.F i N I M A b w.m.J.u.j.u.8.T.S.A.f D t.r.j.i.S.9.B.].|./.!.Q.C.2.n.v.n.b.M.S.n.v.n.U.].(.B.F.b.5.h q.j.u.g 6.q.4.t.r.l.f p a Z p m t.p.a.i.a.m.b.S.<.p.r.p.j.e.q.e.D F A N N uXiXl.F x.g.g.h.h.5.p.k.j.t.g f S S S D q.q.e.e.q.e.S s A A y t v v t ",
"b s s Z t t t a a v c a w t v Z b g n 4.4.w.q.4.g h g 4.>.>.5.a.b.n.b.b.M.n.n.G.G.G.(.(.U.G.V.d.S 9 D r.u.b.m.M.F.G.G.^.`.^.C.C.C.Q.G.^.`.(.'.I.u.u.n.^.}.).!./.`./.}.).).oX}.|.|.|.XXXXoXoX}.`._.T.{.U.F.G.'.'.^.].4X|.'.Y.z.F 9 Z x.L.F.'.R.K.K.Y.Y.b.j.x.a N J K z  .rXC C } | | P P =.yX} { } ( } X. .H H J J H H M M I | X.^ [ ] X.( ( ( } BXyX..} *.X./ | ^ [ [ ! ( 5 P ] &.] ^ ..-.' ^ ..&.` ( ' ` ' ' < ^ ] ~ $     o o @ @ # # 9 r 9 t w p w d p w p b 5.,.u.u.u.7.<.i.7.,.i.m.b.i.m.u.w.t.g.0 0 F r.p.S.S.F.V.V.C.G.^.C.U.T.I.b.J.P.J.Y.b.S.b.S.m.A.L.U.[._._.2X2XdX,X:XwX:XL.:XL.L.L.Y.Y.J.m.m.S.D.j.-XH o .   . . . . . . . . . . . . + . X e N A A z N C & B B 1 - < > > < ; > 8 O $ < o & q s h 6.r.6.p.j.A.J.z.P.:X:X:XF.N.'.vX{.<XU.U.[.2X3X6X`.M.m.m.b.u.d.f.d.Y.I.S.M.m.b.n.V.N.N.V.C.G.F.V.I.p.4.g l.# # l.g.p.i.n.0.!.oX~.oX~.~.~.~.!.C.n.u.,.u.i.u.<.<.<.<.<.,.,.>.g d d w q 9 # @ @ $ * < , 4 ! ^ 4 R Y ^ 5 4 5 ! 6 ! ` , ! ^ ] ! Y Y ) Y ! R B 5 6 4 4 2 Y ! ! 5 4 4 5 5 6 Y 2 3 ~ ^ 5 ! ! 6 ! ~ ` ) ^ ] ! ` ] ^ B 7 7 / / V V A s h.P.L.7.i.S.F.N.<.u.s.t.Z 9 N { e z S 5.d.A.,.s.7.8.U.H.S.h D t.u.M.b.M.N.C.].}.~.!.!.Q.2.n.v.n.b.n.n.F.n.M.F.`.`.G.F.m.w.f q.A.a.4.4.4.4.p.r.g.b a v Z p n p.p.a.i.b.m.b.M.7.r.t.a.z.r.e.e.e.F A N K H iXiXG l.x.h.6.r.5.u.p.p.e.S F l.S f D e.e.q.e.D S s Z K A z z K z u ",
"s d s c a t t t v a a a w w a Z m m g n 4.4.4.4.g h g q.4.h 5.d.i.b.b.b.S.M.S.U.U.U.(.'.'.T.F.j.Z 9 D t.u.b.b.m.F.G.G.G.^.^.C.G.^.^.^.^.(.(.U.S.,.,.m.C././.Z._.Q./.).).oXoX}.|.}.|.@X+XoX X}.`.'._._.G.G.G.'._.^.|.4X].T.L.s.S # v g.A.n.G.I.M.Y.L.D.D.;XG i N A N rXrX} X.| I ..P ( =.=.} } | | ..| { { { { H { K N C | | ../ ( | ( ( ( ..X.BX| ( tX=.} ( I P ~ ^ ^ ] L ] :.` ` P &.&.( :.( [ ] ] [ ! ] ^ , ` ] 1 X X o X o @ # # % q 9 r 0 a p d w p p w p b w.5.p.p.w.u.w.d.u.,.a.A.J.d.m.u.w.t.l.0 9 G e.p.A.S.S.M.n.B.C.G.C.F.T.I.E.J.J.b.S.<.S.S.m.A.J.a.N.{.{._.dXdXpX{.T.pXwXY.:XY.Y.I.Y.Y.J.P.m.S.D.j.0XN o     . . . . . .     . . . . + . X e N N A N N M @ 1 1 $ + + + + + + O + . + $ X @ q a m h.r.6.p.j.A.L.J.P.P.:X:XF.9.'.fX'.{.<X'.<X<X2XsX'.K.a.K.b.a.J.J.u.K.M.M.m.b.v.n.I.N.N.Z.C.C.B.B.E.p.4.g l.# # l.g.d.b.n.0.!.oX~.%X%X~.~.~.!.C.N.<.<.i.b.i.i.<.<.<.<.<.,.,.>.f d p t i q # @ @ $ $ $ B 6 2 _ 4 6 5 4 5 5 4 B ! 5 [ ! 5 5 _ Y ^ ! ^ R 6 7 5 6 4 R < 4 ! ~ ^ 5 5 6 6 ! 6 ^ ! , ^ ' 6 6 _ 6 5 ] ' O.` ^ ~ / ^ B B 6 6 7 B { H K G e.r.t.w.a.S.v.i.i.d.t.s q C { e z F w.d.j.>.w.,.<.U.H.A.h g s.i.M.n.9.9.C.].}.).~.!.Q.W.B.N.n.b.D.F.F.n.M.V.^.`.G.F.m.u.>.w.A.d.6.4.>.4.r.r.g.s a Z Z p n s.p.i.i.a.m.m.A.7.r.t.k.P.e.e.g.e.Z N A K N  .0XG l.l.g.e.t.r.p.u.6.h w d G S b D m f g e.D s p v A y r u N e # ",
"s d s s a t t t a t t p w w t c f g g n w.q.>.q.g g 4.q.5.4.u.j.8.b.b.b.M.M.F.G.G.G.G.U.T.T.F.A.s 9 D t.u.i.b.m.n.B.H.Z.(.^.G.^.^.^.^.^.(.].G.b.,.u.b.n.^.Q.Z._.Q./.}.).oXoX}.|.`.|.@X+XoX). X|.`.'.].].(.'.1X1X[.|.|.(.T.L.t.Z 9 Z x.A.n.G.T.I.i.:X:XJ.-XF e C C rXo.} X.| ( ..^ | ' ( ( ( / I | ` / / }  . .{ M V } | | | ( P ( P / ] ....=...X.....P P ( P [ ^ ~ ] ! ] ~ ~ ^ [ :.' :.( P ] ' [ ~ ~ [ 6 6 ] B $ o   X @ & & # # 9 q i i t 0 s s s p d p w p m g q.p.s.q.r.w.s.s.>.u.d.J.f.f.,.w.e.g.9 9 F D w.A.M.S.M.N.N.B.C._.B.M.I.K.J.m.b.i.i.S.b.A.Y.A.,.v.,XpXfXdXdXT.U.R.R.pX:XA.I.,XH.F.K.J.J.m.S.D.x.0XN $ + + O 8 O O + . . . . . . . +   X % e y A N e & $ * $ . + + . . . . . . .   O X @ q c n h.r.6.h.j.J.L.z.P.P.L.:XF.N.'.dX_.{.pX,X{.'.{.2X'.A.i.L.A.A.J.J.,.M.b.b.S.m.v.n.I.C.V.Z.Z.B.F.V.M.k.4.g l.# # g.g.d.S.F.Z.!.~.~.%X%X~.~.~.!.Z.N.<.<.b.M.b.v.9.8.9.9.<.<.<.>.h h d p t r q # @ @ o $ $ 7 B 6 ) 2 4 Y 5 6 5 4 , 6 R 5 ` ) 7 ] ! 6 Y ~ ! ! [ ^ 4 5 6 5 6 6 5 ! ! 5 5 6 W 6 6 ! 4 , ) W 2 ~ ^ 6 ! ~ ' ] ` ~ R R ~ ~ 5 5 B B V H A A G F D s.J.d.i.a.d.s.D u K { e z S r.j.j.>.e.>.7.T.H.A.g g u.i.n.9.9.0.G./.).).).!.!.2.n.n.n.n.n.H.B.N.n.n.C.^.G.B.n.i.,.u.D.A.7.g g q.r.e.D s p Z Z p D r.u.i.i.d.A.m.A.,.r.r.h.x.y.F G G A z A K N K K A J G Z F F 4.r.w.6.m s Z S S F F m f m e.S c a Z A u q q e & # ",
"f s s s a t a y y w t p r w t a d g g 6.t.w.4.w.4.q.q.q.w.u.p.a.b.b.b.b.m.n.n.F.F.B.B.F.G.I.S.j.p 9 S r.u.a.b.m.b.V.G.G.^.^.C.G.Q.Q.Q.^.].].F.i.u.u.b.n.^.^.N.U.^.OX/.).oX X|.}./. X@X+XoX X X.X`._.].].].].1X'.<X].].^.R.P.t.Z # Z x.A.n.G.I.M.L.J.p.g.-XK V { yX/ / *.| / | [ ......&.&.' ] &.' ] ` ] } } / I V | X.} P P ( ..^ / / / =.*.X.*...( ( / ( ` P ] ^ [ [ %.' ~ ^ %.&.' ] 5 L ' ] ] ` ^ ^ 5 ~ [ > +   o @ X o # % # 9 q i r w p w s s s p s p w c F g q.w.e.g y.q.y.w.g q.r.j.s.p.>.4.D F 9 9 F F h.a.b.b.N.v.N.B.G.G.V.I.Y.m.a.m.K.i.S.L.m.S.L.d.f.m.m.I.,XF.V.9.<.F.I.,X:Xn.H.,XT.F.M.J.m.K.m.A.x.0XV 1 > > > > ; ; O O + + + + + . + . X % e y A N e & $ 1 $   o . + + + . . + + . + X @ r c n 6.r.5.s.k.A.P.z.x.qXP.R.I.B.[.dX[.pXpXpXS.M.T.T.T.A.a.I.S.A.J.d.,.m.b.M.K.P.b.n.F.U.C.0.Z.G.T.U.V.j.6.g l.# # l.h.4.a.n.C./.~.).+X~.~.~.~./.Q.V.v.9.n.n.n.B.N.9.2.9.9.9.8.7.>.h g d d t r q # @ @ X $ - 7 ! 4 ) 5 6 4 [ Y ! ] 4 7 R 6 ^ @.6 ^ ~ 6 5 ! ` ] ` R 7 R ^ 6 , 4 4 6 Y ~ Y W 5 2 , Y ! 2 ^ ~ , 6 ~ ^ ~ ^ ] ' $.] ^ ! ^ ^ L 4 7 P } { V K y Z g.x.s.u.p.p.s.g.v K H e z c r.j.h.g q.>.7.T.I.A.>.q.u.i.9.9.B.B.^././.~.~.!.Q.N.n.n.b.n.n.V.B.0.n.n.G.^.B.n.n.8.7.a.n.n.p.>.g q.e.e.D s t A K p D p.p.i.a.m.m.d.A.5.w.q.s.x.G G F J A N A A N K  .K K A y a F m 6.4.m n c A a s c b F F b d p c Z y y q 9 q # % % ",
"D f b s p t a a v t a a w w t p d h n r.t.w.4.q.4.r.r.4.4.u.p.7.a.b.b.b.M.n.n.F.G.F.B.F.F.F.S.d.p 9 S w.u.a.b.m.n.F.G.H.^.^.C.C.^.Q.Q.^.`.(.n.<.,.u.b.n._.^.N.C.^.Q.!.~.oX X}././. X+X+X). X|..X`.^.^.].(.^.U.G.1X[.[.'.:X;Xg.v # a l.j.b.F.S.u.h.x.l.l.J V { *./ / -.*.! / ( ..$.[ ( ] ] %.=.[ $.%.$.[ P P B B *.| ( P ( ( ..] P ( -.GXBXtXX.| / P / / P ~ ' ] ` P ' ..' ~ %.;.] ' 4 ^ &.( ( ] ~ [ ! [ P + .   o X o @ & # # q i r w t w p w s f s d s p t S F g q.q.D d y.n y.q.g >.q.z.s.s.w.w.D G 9 9 F F s.d.b.v.9.N.n.G.'.V.V.I.M.m.M.M.i.b.K.Y.L.K.A.a.wXwXA.L.m.T.V.G.F.B.'.,XT.R.R.T.R.F.S.P.m.K.m.A.h.0XM 1 < < < < > ; O O O + + + + . + o X % N N A N k % $ < > X X . + O = + . + + . + X & r c 4.4.w.5.p.u.d.J.z.x.eXP.Y.F.B.[.dX[.fXpXpXm.b.L.S.:XL.A.Y.S.m.m.a.<.S.M.S.Y.P.m.n.C.'.C.0.Z.G.'.U.n.a.5.g l.# # l.g.h ,.<.B.^./.).).~.!.~.)./.^.V.N.n.B.B.B.C.B.0.0.B.0.9.9.8.5.,.>.g h d p w i # # o @ @ $ , ^ 2 ^ ~ 4 ! 5 4 ) ` [ ^ 6 4 6 ] R ^ ( 6 6 5 5 [ ` 6 5 5 5 5 6 , > 2 ! _ Y 6 5 Y 5 6 Y 5 5 ] ! , ~ ` ~ ` ~ [ O.O.~ Y W ^ ! 6 6 B B / V V N A F F c.h.r.r.e.v K H e z c t.j.s.h D n 7.I.I.A.y.q.u.i.9.n.B.B.C.^.!.!./.!.Q.N.N.n.v.M.b.n.B.0.n.M.G.^.V.B.B.9.8.b.n.D.p.>.f D D D b s t y A p m r.u.i.i.d.d.f.A.7.r.q.t.x.J K A J K A G F A J 0XK K K N A G F 6.6.n f r r w a c s c S p 0 w a v y u e q e e e % ",
"n m D s p t a y v v c a t t p p d h n r.w.4.4.4.>.q.q.4.4.5.p.a.i.i.i.i.b.b.n.F.U.F.V.F.T.Y.M.p.a 9 S r.u.a.i.b.S.H.G.H.^.G.C.G.^.^.^.^.(.G.b.<.,.a.M.B._.^.N.U.C.C.^././.}.}.`./.|. XoX).).|.|.[.'.].[.(.(.'.T.'.'.].'.R.P.y.Z # v l.h.A.L.J.w.g.l.G K  .yX*.P ] %.~ [ ....&.' ] ] ] ' :.[ ` %.:.[ ^ ^ P P / ..| ^ ! ( &...` ~ | -.BXHX=...P I / ] P P ` ` ^ P _ #.~ ^ ~ ` ! ~ ^ ~ ' ' ` ....P P ~ ` ,     X o o @ & # # 9 i i w w p p w p w S s d d c p w Z S m e.D D d y.D q.y.q.q.q.x.s.s.t.s.e.G 9 # Z D r.m.b.n.N.n.V.G.T.F.F.M.M.M.Y.S.8.K.S.K.Y.A.A.d.wXL.J.L.<.:XI.F.'.F.'.,XT.:XR.I.Y.Y.Y.L.J.K.K.A.h.0Xe 1 < , < < < = O + + + + + + . O + X % N A A N x % $ * < o   . + O = O + + o + X X & r s r.5.u.5.w.7.a.A.z.x.eXP.Y.M.9.[.dX[.fXgX:XA.j.j.j.L.K.S.T.I.M.m.i.m.F.F.F.S.M.n.V.G._.Q.Q.C.(.'.G.n.m.w.>.g.# # l.g.h >.<.n.G.Q.Q.Q.OX!.!./.Q.Z.n.N.C.G.B.Z.C.C.Z.0.0.B.B.0.9.8.7.5.5.>.h h d p r 9 q @ o o + 8 W < < ` , ^ ' 2 5 6 ) ` 5 2 4 [ ^ R [ ^ 5 6 ^ ~ ! 5 6 5 Y 5 4 , , , , ^ W 4 5 6 4 5 6 5 6 ! Y 4 Y ! ~ ! 5 ~ $.O.~ ^ 5 W ^ ~ P 6 P B / V N N Z l.g.m n b t K H e z c s.k.r.h D n ,.K.S.d.y.q.w.7.8.B.0.0.Z.Q.Q.!.^.^.C.9.<.v.8.m.b.n.n.9.b.M.G.U.M.V.B.9.9.n.n.b.u.>.f D f D s a u y Z w m r.p.i.i.i.f.p.A.7.p.w.s.x.l.K A J K v l.g.l.F l.J J H K J G G g.g.g.G A y u Z G A v v v v t Z A A N x x N N x e ",
"4.n D b p t y t a a c a t p a d f h n r.4.>.4.g g g 4.w.5.5.u.m.i.i.i.i.b.v.v.n.F.B.B.F.Y.I.m.r.a 9 S r.p.a.i.i.b.F.B.G.^.^.C.^.Z.Z.C.^.'._.n.8.i.S.F.B._.^.B.{.C.G.^./././.`.`.`.|. X)././.].[.{.U.G.G.G.F.G.G.G._.G.F.S.h.F Z # a g.y.t.x.x.F K A H yXX./ ` ..$.` %.%.] &.%.[ %.' ' ] [ ' :.~ ! ~ ^ 5 P :...( ` [ [ -.*.&.] &.=.X.*.' ( P I P ] / P ' ] ! ] ] ` ~ ] ] ` ~ ) ^ ~ $.[ ` ' P 6 B ] P +     X o o & & # # 9 i r w w d s s w p p F s d d b p p S F f e.q.y.f c.g n t.e.q.q.h.t.r.r.r.q.F 9 # A D s.b.n.n.V.V.F.F.F.T.F.I.R.K.M.K.K.R.m.A.Y.m.Y.A.a.,.R.R.m.,XT.<.G.'.H.,XpXI.Y.R.S.Y.R.L.L.A.Y.J.h.0Xx 1 , , < < < O + + + + + + + . O +   % N A A N % & + * < $ + + + O = O O O + + . o & q s k.7.u.5.u.u.a.j.s.s.;Xz.Y.M.N.<XsX{.dXpXA.j.j.p.j.J.i.n.F.T.M.M.i.K.F.F.V.n.b.n.G._.Z.C._._.'.'._.U.L.k.w.l.# # l.g.d y.u.M.C.Z.C.Q.Z.Z.Q./.Q.C.n.N.G.^.C.Z.G.C.Z.B.Z.0.B.B.n.9.8.8.7.,.,.>.g f p w w q @ X X $ < 6 ^ , ~ 6 6 ' Y Y ! ^ _ ^ 4 7 B R 5 Y ! [ 5 , ~ ` ~ ! 6 2 5 ! 6 ; = 2 5 ! Y 4 4 Y 5 5 ^ ! 5 ^ ~ 5 ! ~ ! 6 ~ ] ] ' ~ 5 4 ^ ! 5 ^ B B / { H N A Z w S v e H { e z S p.a.w.h D n ,.S.b.i.q.g >.,.8.n.n.0.B.G.C.C.C.C.B.<.<.i.7.m.a.m.n.8.i.m.F.F.m.M.F.9.9.S.n.8.u.>.f F b D Z Z u y A t m s.a.b.i.i.a.u.A.a.d.p.h.x.l.J Z l.S s x.h.y.e.qXG J U H J J G g.e.D G K K A A A A N A A A v v v A N e q x x % # ",
"4.n D f p w r t v t a c a a s s f h q.r.w.4.h >.g g 4.w.w.5.u.d.i.i.b.b.b.b.n.S.F.n.B.F.F.K.m.j.a 9 D t.p.i.u.i.S.D.B.G.H.^.C.Z.B.G.^.^.(.U.b.i.8.F.U.H.^.G.B.n.v.V.0.C..X`._.^.Q.`./././.^.G.G.I.I.F.M.M.F.F.V.F.'.G.T.L.s.S Z 9 Z G S D l.J N N X.yXX.| ..$.&.` &.#.] &.$.` ' $.&.) ` O.` ~ W ^ ` ` ' $.] [ [ ~ ^ ] ' ( [ :.&.*.*...P B / ] ] ^ / &.^ ~ ] ] _ ` ' ' ` ~ ^ ! O.$.~ ~ ` ^ ^ ' ] , o     o o @ & & # 9 9 q w p w j w s d 0 p S S d d d b s 0 Z S f t.e.e.y.D e.g w.s.q.q.z.z.w.5.5.e.F 9 9 Z D w.8.F.V.G.F.n.I.I.F.M.K.S.M.M.M.Y.Y.S.K.K.S.Y.Y.m.Y.pXR.I.,Xv.n.,XT.T.,X:XY.J.J.L.Y.pXA.L.wXa.;Xg.J C $ 4 , O > + + + O O + + + . . O +   % N A K k & $ + $ , ^ - - > > 3 > + O O + + X & i D w.a.a.7.7.a.d.J.z.t.P.P.Y.I.C.'.<X'.gXpXA.j.r.h.x.J.m.U.G.C.U.M.v.I.C.C.U.B.<.N.'.G.0.Q.'._.T.U.U.{.L.j.,.c.9 # l.g.d t.A.n._.`._.[.C.Z.Q.Q.^.C.v.N.^.C.C.C.C.C.Z.C.0.Z.C.G.B.9.8.i.9.<.<.,.,.h h d p r q # @ X o $ 6 R 7 ! ) 5 ~ W W ! Y ^ ` ! 5 B 6 ! 5 5 ] ] 5 6 ! ~ 6 , 4 5 ^ Y < , , 5 ~ ^ 6 6 ! 4 6 ^ ^ ! ^ ` ! 5 ~ ` ! L ` ] | &.~ 4 ! ~ 5 6 6 B B I U C k N N N e V V % z b p.d.s.h f h ,.S.S.a.q.g >.,.u.b.b.<.B.n.G.B.9.N.v.i.u.u.u.f.p.a.m.8.i.i.Y.M.i.m.n.n.v.S.S.b.u.w.D l y.y.c p y u Z w e.p.a.a.a.i.d.a.A.i.u.u.A.z.l.G F l.D g.z.k.s.p.x.l.G K K H J F n g.F Z A N N K K N x N N u r z v t z N z # e % & ",
"4.>.g f a t t u t u p s p s s s f d n e.4.>.h g g g 4.r.w.5.7.a.i.i.a.b.b.b.b.S.F.n.F.n.S.S.b.r.a 9 D t.p.i.i.a.S.D.B.G.^.^.C.Z.B.G.^.^.(.F.b.8.b.T.5X^.(.^.B.B.m.K.9.C.].^.^.C.Q.`.}././.^.G.I.A.m.S.K.I.S.M.n.I.'._.T.L.h.G Z 9 r Z F A K H C yX*.( ] ] ] &.' :.' ] _ ` ] ' | [ [ ' $.] ^ W ! ~ ~ [ -.[ ` ^ 5 ~ ! ] [ ] P ^ P ( / ^ P ~ / ! B *.P ^ ;.] ~ ] ' $.~ ^ ^ _ O.' ` &.` ` ~ ^ ..( + .     X @ @ & % # 9 i i 0 w d d d d s p 0 p s l d d d b b 0 S S g s.w.r.t.e.t.e.t.r.>.5.z.h.5.w.5.r.F 9 # Z D u.9.F.G.G.F.n.F.S.S.b.b.m.S.I.M.M.Y.S.S.K.L.R.:XY.S.:XT.R.,XV.F.,XT.T.R.Y.J.j.z.J.I.R.A.R.L.S.:Xh.J e B $ 7 6 + O O + O 8 O + + O + 8 + X e N A K K % @ $ * 6 6 ^ , O < > O O O > + + o & r D k.S.b.8.8.8.i.A.z.s.z.;X:XM.B.<XsX'.pX:X7.k.s.r.h.P.m.B.C.'.{.M.M.R.C.U.U.B.v.V._.C.2.C.'._.G.F.U.V.L.a.>.g.# # l.y.g c.J.M.Z.Z.0.Z.Q.Q.`.`.Q.C.N.C.'.Q.^.^.^.^.C.Q.0.0.Z.C.B.9.9.v.9.2.<.<.<.,.h h f p w q % # @ o @ > ^ B 7 ~ 4 _ W 5 ^ 6 4 ` ` 6 ~ 6 5 ! 6 Y ~ 5 7 ! 5 > < 4 4 5 6 > , 6 4 5 ~ ! 4 5 6 4 ! ~ ^ ^ ~ 7 , P [ ! L [ | ] | | B B / ^ P 5 B P P P B 1 & N % M C % z c h.D.p.h D d ,.S.M.a.q.g >.w.u.m.m.<.n.N.M.v.<.<.i.f.u.w.r.w.w.u.d.i.u.i.K.b.3.A.M.9.<.i.m.a.u.>.D s D F S Z y u A 0 e.w.8.i.i.i.a.i.n.8.7.7.A.j.x.y.t.x.e.s.A.A.D.a.j.h.F G K K J S b F F v A K N N V N N N N e e z z z z z z e % % & ",
"q.g f b c a t u t u p c d d f f f h n e.q.g h g g g q.r.r.5.7.u.i.i.i.a.a.i.b.b.n.n.D.n.S.Y.A.r.c 9 F g.p.a.i.a.S.S.B.G.(.^.C.Z.V.U.^.^._.F.b.8.9.U.'.^.'.G.B.F.K.L.n.B.'.^.C.C._.].|.}.`._.U.Y.J.A.J.Y.:XY.K.S.F.U.G.T.L.s.F Z # i y N N N { tX( P &.;.' &.$.] _ ^ ] #.` ] &.$.| [ $.] Y ^ ) O.` ' ] 5 5 P ` 5 ! ~ 5 ! P P ! ~ P P ^ ^ 5 B ( =.6 [ %.[ ` &.&.` ~ ` ] ` ` [ ` %.' ` [ ' ] 7 o     X o @ @ # & # 9 q t w 0 w d d f s s t r p p s d s f D m j S S q.j.r.s.s.r.s.r.h.w.>.w.z.p.5.k.s.h.g.9 9 F e.p.b.F.G.G.B.n.F.S.K.a.b.b.S.Y.S.S.L.S.m.S.Y.Y.Y.T.V.T.T.{.T.F.I.T.,XR.R.A.J.s.x.j.R.Y.K.L.i.Y.:Xr.J M B > > + ! &.6 O + O 8 O + + + O +   e N N A K % & $ 7 [ , ] > ' 3 O < + . $ $ + o % 9 g j.L.A.b.b.a.i.A.z.s.z.L.Y.n.B.dXsX'.gXR.u.j.z.s.z.qXm.N.G.{.T.I.E.I.C._._.N.v.V.'.^.0.C._._.F.F.U.N.:Xa.,.c.# # 0Xe.g u.S.^./././.|./.OX}.}.!.!.Z.^.`.Q.^.Q.Q.Q.C.Q.0.0.!.^.C.0.9.N.2.2.2.8.<.<.,.1.>.h j t u i # @ X $ $ 7 ~ 7 ! 6 ) ^ 3 6 5 6 ! ^ Y ~ 6 6 ` 6 < ` ~ < 4 5 2 , , 7 6 5 , > 4 4 7 ^ ~ 6 5 ~ 5 2 6 5 P ` ^ 4 P [ ! 5 / | ( / | | ^ ^ ^ ! 7 , 7 5 P I C % @ B B & z c h.A.6.h F j ,.S.n.b.q.g q.>.r.d.i.<.i.i.m.i.<.,.u.p.u.w.q.>.>.q.5.7.5.a.L.A.,.f.M.9.1.,.a.p.u.>.D f b y.G s t u Z 0 e.u.7.8.i.b.b.b.S.8.7.u.K.J.h.t.s.P.p.k.S.D.D.8.A.p.e.G A A F S b F F Z K K N N N N C M M e z z z v z u e x % % % ",
"w.>.g S c a t u t t c c s d f f f d m e.q.4.g q.g g q.r.w.5.5.u.7.7.u.i.i.i.i.b.b.b.n.b.K.Y.A.h.s 9 F r.p.a.i.i.S.F.B.H.^.^.^.C.C.G.^.^.T.F.a.a.9.H.^.H.'.U.V.S.J.J.b.n.'._.C.C.^.].|.`.].^.G.Y.L.J.J.K.L.Y.R.R.V.U.G.F.L.r.F A 9 e N N V o.X.B [ ;._ ) :._ [ ] ~ ~ #.&.` ` ' [ [ ~ ] ~ ^ ] ] ~ ~ ^ 6 ~ P 5 6 ! 6 ! ~ P ] 5 ` ` ( L 7 P [ [ ! P ' =.^ -.$.] ) ~ ` P ' %.~ ^ ] ' ` [ ] / $ X X X o @ & # @ # q q q r p p j d f f m f d d p p w d f m 4.t.e.j D n r.J.u.p.d.p.d.r.z.w.>.w.z.p.u.k.k.k.g.9 9 S e.s.b.V.B.C.n.b.A.L.J.d.m.a.S.Y.I.Y.K.S.b.A.Y.I.F.T.G.'.'.T.M.M.I.Y.R.Y.I.a.P.z.x.z.:XI.K.m.i.R.Y.r.J C * 1 $ 6 GX' ~ O . + $ 8 + + . O +   % e y A K % % * ( ( , ~ < 5 O + + O $ 1 > + o % 9 g A.F.S.n.n.b.b.A.z.h.P.A.S.V.C.[.sX<XpXwXd.J.P.P.z.R.b.n.U.'.I.Y.Y.v.V.{._.N.N.E.U._.C.C.U.U.n.M.V.N.:Xa.5.c.# # 0Xy.>.<.V././.~.). X/./. X~.!.!.!././.Q.^.Q.Q.^.C.Q.!.!.^./.^.B.N.B.0.W.0.9.2.<.<.,.,.>.h d p w i 9 & X X $ 1 ( < ! W Y W 2 5 5 > 5 5 6 ^ ^ 6 Y ~ 4 Y ! Y 4 5 ! 7 < 6 2 7 7 < < , , 5 ^ 6 7 ^ ^ 5 6 P 6 ^ ~ 6 5 ~ ! P / ( } | ( / ! 5 5 , 7 6 , 4 P B / < * 7 % e v e.z.g f G j ,.S.F.M.r.D q.>.q.s.7.,.u.u.d.p.p.r.p.s.s.4.q.g q.e.w.s.5.u.Y.:X5.f.S.v.,.>.u.u.p.w.q.l D y.F t t A Z w t.p.7.8.b.m.m.M.F.8.7.i.I.S.p.u.m.Y.i.m.S.S.b.8.b.p.r.y.S Z Z F m F F Z K H N N N M M M x x z z z v z e e e % % % ",
"q.n D S c t u t y t c b s f g g f d g q.n g g q.h g q.r.w.5.7.p.u.7.7.u.u.7.i.b.n.b.b.b.K.J.u.t.a 9 D r.p.i.i.8.S.D.B.C.^.(.^.G.V.C.^.^.T.F.a.p.8.H.H.U.R.I.M.K.j.j.b.n.'.'.C.C.C.^./././.G.F.I.:XR.L.b.m.Y.R.R.F.'.G.U.L.g.G A # e M { X./ B ^ ..~ ' ' ] ' ! ~ ' &.%.%.%.*...( P ` ~ ~ ' ' ) 6 B 7 6 ../ ~ P , P ] ~ [ ^ ! ~ ` P P ! ~ ~ ( | &.*.] $.] ~ ` $.' ^ ] ..~ ~ ' ] ` ~ ] 7 X X X X & & & # # & q r r r t p d d h f f D d s p v a w p m 4.r.h.r.h q.>.u.m.u.f.d.u.d.u.J.u.,.>.j.s.p.u.a.k.F 9 # A D s.S.B.F.G.n.8.a.J.J.p.f.i.S.Y.Y.Y.I.S.A.L.:XY.F.,X_.'.,XU.N.b.K.Y.S.S.D.a.P.z.x.P.Y.K.J.7.S.:XY.s.-Xx % > O ) ;.6 5 O + . + O O + . O +   % e u A -Xr % B ^ 6 , L 6 O 3 3 ; , . - $ + + % i q.L.F.F.D.D.D.n.S.J.s.P.L.Y.F.C.<XsXpX,XR.a.J.P.P.a.L.m.i.F.I.M.K.K.<.F.{.T.n.v.N.C.G.U.n.V.I.m.b.M.n.Y.8.5.g.# # 0Xe.,.<.C./.~.~.).oX/.}.oX!.!.~./.!.!.!./././.`.Q.`.!./././.Q.Z.Z.0.0.0.Z.N.9.2.<.<.<.,.>.h h d w r % & @ X $ $ / ^ 6 6 2 ^ 5 4 B < 5 5 6 6 5 5 6 5 6 4 5 R , 4 ^ , , < , 4 , , , > > 2 ~ ^ , 4 ^ W 6 ~ 6 5 ' W , ] / ^ / ( | / ^ / ` 4 , 5 , , 6 > 7 B ! B $ @ e y F g.f l G j ,.F.U.S.p.>.>.>.>.p.u.7.w.w.f.r.s.w.t.s.s.>.e.q.t.g.g.x.p.7.D.:Xp.z.m.b.,.q.r.u.a.u.y.D f y.F w t A Z p r.p.8.8.b.M.b.n.F.<.<.i.S.n.i.i.M.T.9.M.F.S.b.8.b.a.p.g.S a Z G S F F S A J K N N C M M x x x z z z z e e % % % # ",
"q.n D S a r r y t u a b f f g n m d D D g g g n h g q.q.4.5.7.u.u.u.7.u.u.i.i.a.b.b.b.m.L.A.,.t.a 9 D r.a.A.b.b.S.D.B.H.^.(.(.^.C.G.^.^.'.S.p.u.8.F.H.H.Y.A.a.j.k.a.b.n.'.[.C.G.C././././.G.F.Y.:XwXY.A.n.Y.R.I.G.'.G.F.D.g.G K & M { } C B } ..~ ' ) _ _ ~ ' | ] ' ] ] $...^ 5 ] $.[ [ ] Y Y ^ 4 ! ~ ^ ] ` [ , [ ~ ` 6 ~ L [ [ 6 ! ` ] ` ~ ~ ~ ..&.! ] ! ^ ] ] ..P ` $.` ^ ` $./ $     X X @ @ & # # % q q w r t p d d d f g f m d s Z a t t s n r.s.A.p.h w.w.u.b.7.f.A.f.d.u.J.u.u.,.j.k.j.w.k.k.G 9 # A D s.S.F.'.T.M.8.7.j.z.r.u.i.S.:XY.S.S.S.A.Y.:XR.T.,X'._.pXT.I.M.Y.Y.b.A.b.b.P.j.t.P.:XI.J.u.R.:XY.k.-Xx % - O > ; 2 = . . . O > O + + O +   % e y A J J e C + 8 < , 6 W DXHX) ] B > O + + % w r.S.D.H.D.D.D.S.L.J.s.j.:X:XV.B.dXfX{.,XK.a.L.:XP.7.Y.A.,.b.I.A.f.d.a.m.F.I.m.i.v.F.'.U.n.E.I.S.m.M.M.L.a.u.t.# # 0Xy.>.i.C./.).oXoXXX`.`.}.!.!. X}.!./.!././.`.`./.}./.}././.!.!.Z.0.0.Z.Z.Z.N.2.9.8.8.<.,.,.>.h h w 9 e @ @ X o 1 B ~ 4 6 6 5 ^ 6 B ! 4 , 6 6 4 4 6 R 5 > 6 R > , R < 6 , < 4 , > 7 , < > 4 ~ ! 4 5 6 ! ! 5 5 _ _ L ` ! / / B ( ] 5 ^ ' 4 8 6 2 > 4 7 B 6 B ! 1 & z c D S S K d 5.F.F.n.u.>.>.>.>.p.w.w.,.>.t.q.t.w.t.t.t.g t.e.c.c.f t.j.a.b.L.j.z.i.a.w.y.w.w.i.7.t.D j q.g.d t a v w r.p.8.8.b.M.b.n.M.<.<.i.M.v.v.v.G.(.9.M.F.n.8.<.b.a.p.t.S p Z G S n F b Z G A A N N C M % % e x z z N N e % % % # ",
">.g g l p r r y t u p s f h g g D s D D g g f g g g g 4.4.5.5.7.u.7.u.i.a.i.i.i.8.b.b.b.L.J.u.s.c 9 D h.a.A.b.b.D.D.B.C.(.(.^.^.G.^././.T.S.p.u.8.S.F.L.P.z.t.s.j.a.b.n.'.1XC.^.Q./././.`.^.F.Y.L.R.Y.Y.F.I.Y.F.G._.G.F.A.r.G H { / / I / / / ( %.` O._ ^ :.../ %.&.| ' ' ~ 5 5 ..] ~ ~ ^ 5 5 ! 4 [ 5 ] ] ` 6 / B ! ` [ ! [ ! ! ~ ) _ ] ] ] ' $.[ ^ ~ 5 %.%.] ` ~ ..' P ` &.~ 7 + +     @ @ @ @ & # 9 q i q w w p s s f h g n g D d b S a t p F e.r.a.A.a.1.u.u.i.m.u.a.J.f.d.u.J.u.s.w.z.s.z.p.j.h.G 9 # A F s.S.I.,XI.b.u.5.s.h.s.p.a.K.:XY.S.S.m.A.Y.Y.R.:X1X[.U.pXE.R.K.L.L.K.I.b.L.A.k.r.P.:XK.A.J.Y.Y.Y.D.g.K * O > ; O . +   . . O < O + . O + X e N y A G -XM 1 . > < ; 3 HXDX%.~ 5 < + + O $ & w r.S.n.H.V.F.F.F.L.L.z.j.Y.R.n.N.2XfX'.,XY.A.Y.wXY.8.R.A.5.a.L.j.u.d.L.b.b.S.A.i.b.T.,XF.V.E.M.A.K.E.M.L.j.p.y.# # l.y.>.m.U.^.}.~./.`.OXQ.!.!.!.}.!.!.!.!././././.OX}./.}.}.}./.!.!.!.!.!.!.Z.0.9.2.9.9.8.<.<.<.,.>.h t 9 q # & X X O , [ 5 > 4 R ^ B 4 6 R 4 < Y ^ < R 5 6 7 7 6 5 , 6 , 6 6 > < 4 , > > < < 2 ! ~ Y 6 7 6 5 3 W ) ^ 4 ] ] ^ ^ ^ W ^ Y 6 ^ ^ < , W < 7 7 4 4 5 P C # t p Z Z Z d ,.F.B.N.u.3.,.,.,.p.5.w.>.>.q.g t.e.t.t.t.h t.e.g.y.d g j.D.D.D.j.d.8.i.w.y.w.5.i.7.q.D j e.g.d p a c w r.p.8.9.b.M.n.M.M.<.7.f.M.8.N.N.C.^.9.V.V.b.<.,.a.u.7.r.f p c G m b F D S F A A K C M M % & e x z N N M x % % % & ",
">.g f f p r r y t t p s f h g f f d f m f f f m D m f g 4.w.5.5.7.7.u.a.a.a.8.8.<.b.m.i.A.A.7.r.c 9 D r.p.a.i.8.S.D.B.H.(.(.^.G._._.^.^.T.S.u.5.a.D.Y.L.P.x.y.l.x.h.D.n.].2XC.^.C.Q./././.C.C.T.m.S.F.F.H.H.F.G.G.T.F.D.h.G H V 1 / | / B / *.tX( ` ^ ) &.$.%.FX&.| ' ' ^ L [ &.%.^ L 6 L ] ] ` 5 ~ ! ! ! P ^ ` ^ ! &.~ L P P ^ ] _ ] :.:.` ~ ^ ! ^ &...` ! ! ~ ~ [ ] ] ' [ > o     X @ o @ & % # q r i i i w p p s f f f g q.g q.d D F p w s e.r.p.m.S.b.,.a.b.b.M.i.m.J.a.d.u.d.5.s.r.z.r.z.k.j.h.G 9 # A F s.S.T.pXM.<.u.r.h.z.d.A.m.S.:XR.:XI.A.S.Y.I.T.,X'.1XB.T.v.R.m.J.J.K.R.b.:XL.j.w.wXY.m.b.wXF.F.:XP.-Xe 1 + = + + . . . . + + O O O + $ + X M N N F l.K e M 7 , ; , ) ;._ _ ) ~ , + + $ $ % w h.F.G.F.F.F.H.D.F.L.L.L.L.F.n.B.<XsX<X{.pXY.K.R.R.i.L.k.p.j.J.s.r.z.;XJ.a.m.S.i.i.F.T.n.I.J.7.p.L.I.M.L.A.s.e.# # J e.>.E.U.^.}.}.`..X_.0.Z.Z.Q.Q.!.!./.!.}././.`./.}./.~.).).~./.!.!.!.Q.Q.C.N.2.2.2.<.<.8.<.,.,.,.h p u r # # & X X o $ B R 4 7 6 5 5 , 7 5 6 , 4 ^ < 7 B 7 6 B 1 6 < 6 5 6 4 , , 4 4 , = ; < < 6 ~ ] ^ Y W W 5 5 W ~ 2 ! &.] ^ ! 5 ! ^ 6 6 L 4 , 4 7 B 6 4 , < 1 C q r K A y w >.A.b.b.u.r.w.5.5.p.u.p.,.>.4.h t.w.r.w.r.h g.e.g.D l.m p.a.D.D.k.p.7.i.w.q.w.w.i.7.>.e.h g.g.d a Z Z w t.p.i.b.n.M.n.M.M.<.u.a.M.<.n.n.Q.^.0.V.F.N.u.3.a.i.7.w.f p s G b b F D S F S G K N N M e % e e x x e e e % % % & ",
"g g f s a t w t w t p s f f f f f d d f f d d f D b b D D 4.4.5.u.5.7.u.a.8.8.8.A.i.b.A.L.A.a.w.t 9 n p.a.8.8.v.F.F.B.H.(.(.^.^._._.^.G.T.S.p.s.p.L.b.L.eX0XG J l.g.8.H.5X5X2XC.B.U.^._./.^.^.G.S.n.T.'.G.G._.B.n.S.P.y.J H M B | | ( ! ( ] ` ( P $.] $.-.-.-.%.$.' ~ 5 ~ &.%.:.` ! 6 6 ^ ' ` 6 ~ ~ 5 ! [ ! ~ ] P ` ' P [ ' ^ ~ ` ~ ' :.` ~ B P ( ( ^ / P ^ ` *.( ] $.] 4 +   X X @ @ @ & # # q r q 9 r t p d d s S y.f g w.h r.j D g f s d D q.r.u.9.F.Y.,.S.n.M.E.a.a.a.J.L.i.m.u.5.s.s.s.A.j.j.h.G # # A D p.b.,XU.<.M.A.g c.J.m.a.b.K.Y.Y.Y.R.K.M.I.:X,XT.T.G.T.Y.<.Y.m.Y.Y.S.I.Y.Y.:XD.D.;XR.R.V.'.G.T.Y.z.0XM $ - > O O + + + + + O 8 O + + $ + X x N A S g.l.e V , < 6 < [ ^ L ! 6 5 < + O O @ e p p.S.T.F.U.U.C.U.F.m.:XY.F.S.M.n.<XfX'.'.T.T.F.'.I.i.Y.L.D.;Xr.w.P.D.A.j.z.S.n.8.n.U.{.N.K.j.r.t.z.R.T.S.J.6.G @ & J g w.M.B.].`.}.`.[.C._.B.V.V.U.^./.|./.).}.}.`.|.}.).+XoX~./.!./.!.!.Q.^.Q.Z.Z.N.2.<.9.9.<.<.8.8.,.j w t r 9 e & @ X @ $ 1 6 6 2 < , B B 1 6 6 7 7 / 1 $ 1 7 7 7 7 B 1 1 6 6 < < 4 2 4 3 > = > < < , ~ ^ Y 4 _ W , ! ! 4 6 ` ) 5 5 ! 5 _ ^ 6 5 , 7 , , , 6 6 4 , * C e e z z t m g.5.w.w.q.w.>.,.u.i.7.a.7.,.,.<.u.a.p.4.n m g.S F G G k.a.8.A.h.w.,.7.7.u.w.4.w.w.>.r.w.h.y.f t A y i l.w.i.v.N.G.V.N.N.b.b.b.b.<.v.9.G.(.N.N.B.v.<.u.i.i.7.w.S p s y.S b D D D D D b Z K A y e % e e x N N e e e e % & ",
"n m f s s t w p t p s s s f b f d d f f f d d b S c c S n g g 4.w.7.p.a.a.7.8.b.b.8.i.i.K.A.d.w.t 9 n p.a.v.v.b.F.V.B.Z.(.^.^.^.Q.Q.C.G.U.m.w.w.u.L.n.L.qX0XJ l.0Xg.p.F.(.|.].C.V.U.U.'.`.^.]._.F.S.T.,XG.G.G.N.S.P.e.J H C / ] ~ [ ! [ ` ' ( ] $.%.&...] ` :.' [ 5 L ] :.~ ! ~ 6 ! [ ! ^ 4 7 4 5 5 6 ! ^ L ^ ` ] ] 4 ` ` ^ ` [ ~ $.^ P ^ B ^ ! ..( ( / 5 &.BX( P [ ! 8   . o X @ @ @ @ & # 9 q u r r p a d d d s b y.f g w.,.w.f D >.q.l s D w.w.i.n.F.L.<.F.n.S.K.i.u.b.K.Y.m.m.a.w.s.s.s.A.A.j.x.J # # Z g u.S.V.0.9.R.L.q.c.L.S.M.M.S.I.Y.R.R.S.M.Y.T.R.R.T.T.T.:Xv.:XK.Y.Y.R.R.T.H.:XL.D.L.Y.Y.F.'._.G.L.x.J x 1 8 O O = O $ O + + + O > - + $ + X x N y c l.J e C > ; 2 > 5 4 , , 8 > + + + $ $ e p r.S.U.U.B.U._.G.T.:X:XF.F.K.K.M.<XfX5X{.U.T.U.[.T.v.L.:XD.;Xh.t.P.S.b.J.J.m.v.8.B.'.].n.J.s.y.D s.Y.V.F.A.r.J @ e l.4.,.M.G.Q.!.`.C._._._.N.n.9.F.'.].`.!.}.~./.!.`.~.oX%X~.~.!./.!.!.!.C.Q.Q.Z.Z.N.2.8.N.n.9.9.9.9.<.h j d w w r q # @ o X o < 4 6 6 < 7 B B 1 7 B 1 1 B B 1 1 1 1 B 1 B B , < 4 6 , , 4 6 4 4 4 , < < 6 > ! 2 6 ~ 5 , , 4 4 , Y ] ^ ^ ^ 4 Y ~ W 5 4 6 4 , < < , 7 , $ C C e e A c c d f f g q.>.>.u.7.<.i.i.<.i.<.<.i.a.w.g b F S G A S k.b.8.a.s.w.7.a.i.i.w.q.r.q.>.w.>.p.6.f p v y 0 y.w.i.9.9.C.B.n.N.N.v.v.b.8.b.n.G.G.0.N.C.N.<.u.i.8.8.w.S p f e.S f D D D q.q.m S S v y e % % % e N e e r e e % & ",
"D m f f c w r a p p s c s f b f d s b b s d s S c p s b b f h 4.4.w.p.p.7.7.8.b.i.8.a.i.L.K.m.4.t 9 D s.a.b.b.b.F.V.B.H.(.^.G.G.Q.Q.^.^.U.b.5.w.u.L.S.D.-Xl.G 0X0Xc.p.F.'.].'.C.V.T.U._.^.^.].(.G.F.Y.Y.m.S.K.j.r.e.Z H rXX.^ P ^ [ ' ~ ] [ $.=.=.[ &.' ~ $.[ 4 5 ' &.] W L W 5 ^ ] [ [ 5 ^ ! ~ 6 6 L ~ ^ P ~ ` ` P ^ P ~ [ ' [ ..6 ~ ` ~ ~ ~ *.[ ( ~ ' BX&.! ( | P 8 .     o o @ # & # & % q r t t t d d d d s b f y.D 4.r.5.w.g n 4.t.F l q.w.w.a.n.F.L.<.H.n.M.I.u.u.m.K.Y.I.S.m.w.t.h.s.A.D.a.g.J # # Z q.d.pX'._.'.T.8.h s.K.F.F.F.S.S.F.T.T.F.S.Y.T.R.Y.T.'.1X{.F.R.I.I.T.,X,X<X<XgX,X:XL.K.K.U.'.'.F.L.y.K M 7 > 8 8 , > > > 8 O + + 8 > + > + X 1 M y S F F N B , 2 , > , , O O + + + + . $ $ e t r.S.T.G.V._.'._.T.L.I.F.F.I.K.F.1XsX2X<XF.'.'.<X'.m.K.:Xb.P.z.s.L.Y.n.A.m.M.n.C._.].^.V.E.s.q.n t.Y.B.n.A.r.G @ e G 4.,.m._.^.Q.[.C.[.G.G.n.M.9.M.^.^.`.!.).~.`.!.`.}.+XoX~.~.!././.!.!.!.Q.Q.Z.Z.Z.0.9.N.n.9.9.9.9.8.h d d p t u 9 % # @ X X X O < 5 , B , 1 ! 7 $ 6 B < 1 B 7 * M B B 7 7 B 4 O > 6 > < , , 4 5 5 5 2 = 4 , ) 6 , 6 ) ~ 6 4 ! 5 4 ~ ^ W ~ ~ 5 5 ! 5 , 4 4 , , 2 , > 1 $ 1 C M e u z t p s s f g >.r.7.,.i.b.v.m.i.<.7.a.s.g b F G G S D A.D.8.a.p.r.a.A.a.u.w.w.r.4.q.w.>.w.6.f p Z v i y.w.a.8.v.V.B.n.n.v.8.v.b.v.9.9.F.G.N.N.B.N.<.u.i.8.7.w.S t f e.b f D q.q.D q.D D S v y e e % % e x e e r q e % & ",
"D f s S Z w r a a a s c s f b b d f S S s p p Z v p p c b d h 4.4.w.p.p.7.7.8.b.8.i.m.b.L.L.A.>.t 9 n p.a.b.b.n.F.F.B.C.'.`.G.^.^.^.^.'.T.n.w.r.p.K.S.A.x.G G 0X-Xc.a.S.T.'.T.n.M.U.U.G.C.C.G.G.F.S.S.A.p.s.x.l.G K H yX} B ..' ~ ' ` &.&.-.' ~ P %.[ ' :., L ] [ ! 4 6 ! ~ ! 4 5 4 ! P ^ 6 P 6 P 5 ^ [ ! P ~ [ ! ! 5 ] ^ [ ~ ] ^ L [ ' ! ~ &.( ( ~ =.*.^ B &.=.B +   . . X @ & & % % # q q q w t p d s s s s f f d F D n r.r.w.q.g 4.h.F s g w.w.a.n.F.L.<.H.n.V.I.i.<.m.K.I.I.Y.J.p.t.h.s.A.A.p.g.K # # F t.K.T.U.].(.B.1.,.j.S.F.T.T.F.F.F.T.,XI.F.Y.R.Y.Y.,X1X<X'.U.{.U.'.pX2X<X2X1X<XT.n.8.A.m.T.T.'.F.J.g y % $ O 8 8 , 1 $ * < > O + O + + > O X 1 M y F F S N C 7 6 , < < 1 O + . . . + . $ $ e t h.S.T.B._._.G.<X'.8.S.T.I.Y.K.F.<XsXdXpXF.{.<X1X'.M.S.R.7.J.z.p.L.T.F.M.i.n.U.'.[.]._.I.m.s.y.g w.Y.n.v.S.p.F @ e S w.7.<.B.Q.C._.W.{.V.B.n.Y.b.M.^.Z.|./. X}.}.!.}.}.+XoXoX~.!././.!.!.!././.!.Z.C.Z.0.B.n.9.9.0.0.8.>.h d d p t 9 q e % @ X     + $ B - , 6 < , 6 > 1 7 1 1 B B 1 M B 7 1 7 6 4 < = , , > ; > , 4 4 6 ^ 5 5 > W ~ , , ~ ' ~ Y Y 5 4 6 ' 5 6 ! 5 ! 4 6 6 4 , < , , , < , * 1 C M e x z y t p s f f q.w.,.7.i.i.m.v.i.<.u.d.h n F y.G D e.A.n.b.i.u.u.a.A.a.p.r.w.r.4.w.w.h 5.6.g s Z v 0 e.w.a.8.v.n.B.n.n.N.8.v.b.v.9.9.B.F.n.n.B.v.<.u.i.8.7.w.S t d e.f f D q.q.g n m D S v N N e % e e e e e u q e % & ",
"D f s Z Z r r t v v s s c c c c s b m m c p p a a t t a s p f n 4.w.p.p.u.p.a.a.8.i.b.i.K.L.m.>.p 9 n p.a.v.b.n.F.B.B.C.(.^.G.^.^.^.^.'.U.b.r.s.p.A.S.D.x.G G -Xx.j.a.L.R.T.Y.N.M.T.G.G.C.B.F.F.n.S.L.z.y.F J K H  .yX/ / =...' $.( ..$.*.~ ` ..] $.' 4 , [ ` ! 6 4 5 ^ L , 2 ! 6 ! ~ ] B P B B P 5 ! ! 5 5 ! ! L ~ %.6 ~ ..^ ^ [ ] ^ ^ [ ] ` L $.:.( ~ =.*.B +           X & & # 9 q q q i w t c s d s l n D D f d f m g w.r.w.q.h 5.s.y.f g w.p.a.n.Y.Y.<.F.n.G.T.v.i.K.S.S.M.K.J.w.t.h.s.A.J.p.g.K # # Z e.A.F.(.`.^.C.B.D.b.T.U.U.T.U.U.U.U.,XI.F.I.I.F.Y.,X<X[.'.'.'.[.2XsXvXsXsX5X<X,X,XY.J.A.K.F.T.F.J.g v q @ o @ o @ & @ @ $ + o o o X o < +   M N A G F G K M < , < 7 1 1 $ + + . . + + $ $ e t z.F.G.B._.^.G.<X,Xn.Y.,XT.R.S.F.dXdXdXdXF.{.pX1X[.F.I.,Xi.J.z.u.L.'.G.T.v.N.U._._.].2XU.M.z.x.D r.K.n.9.S.k.e.@ u e.k.m.9.C.C.C.Q.2.V.G.B.b.F.i.n._.^.`.Q.}.).}.Q.}.|.oX~.oX}.!.`.|./.}./.}.}.!.!.!.Z.Z.Z.B.0.0.B.B.9.,.g f d f s w u e % @ X X o o X . 7 , O 7 , O 4 < $ 1 7 1 1 C 1 1 B ^ 6 1 , 2 , < < < > ; > > > 5 5 6 ! ` < 4 ~ 2 6 4 6 ~ ` ! 2 5 , ! 4 2 ^ 6 4 6 4 4 4 4 2 2 2 < ; , , - M C % x M y u a a s m w.,.u.u.i.b.v.i.7.i.d.h q.e.e.D e.u.b.n.n.i.,.w.a.p.7.p.s.q.5.>.q.3.h 5.5.g d c v w e.w.a.7.b.n.n.B.V.n.9.v.b.v.8.9.n.F.B.n.n.v.,.u.i.7.7.w.S w d e.f f q.q.q.g n m D S Z N z e % e e e q u y q e % # ",
"m f s l Z t w t v a p s c c c c s s b c c a p t t t t a a p s m n q.w.w.w.u.u.u.a.b.m.8.A.A.A.4.p 9 n p.b.b.n.M.n.V.B.C.^.Q.C.^.^.^.^.(.U.b.w.h.s.A.D.m.x.F F x.-Xj.p.J.L.Y.Y.m.M.U.G.G.B.n.S.A.A.J.z.g.G J {  . .| / | -.=.( ` [ &.&.&.' -.%.~ %.! , 6 [ _ L 5 6 W ~ ^ W 6 6 , ^ P 6 P -./ B | P 5 L 5 5 P L ! P ' 4 ` ] ^ ~ ` ] ` ;.:.^ [ ` -.:.] ` ( / 1     X @ $ X   X & # # q i i u u t p S f d h n y.q.D f d f m n e.r.w.q.>.5.s.t.D h s.f.i.b.Y.Y.,.S.n.U.U.N.v.I.Y.F.S.S.m.5.w.h.s.j.J.p.g.J 9 9 S e.a.T.2X2X`.5X1X:X9.{.U.G.G.G.U.U.U.{.T.Y.I.K.K.R.pX'.[.[.[.[.dXsXvX3X2X4X[.1X,XpXR.P.P.A.b.F.K.P.r.l.A e e e # # # # # @ @ @ @ & @ & 1 $ X M N Z l.F J K M 1 1 , 6 7 1 < $ $ + + + O $ @ e t z.S.B.G.B._._.G.'.:XK.,X,X:Xn.F.dXdXdXdXF.{.dX<X<X'.,X,Xv.A.d.f.R.[.].T.N.N.T.U.C.G.{.F.K.z.x.t.t.m.N.v.S.j.F # r x.P.K.T.'.^.C.[.B.B.G.V.b.S.i.b.G._.`.!.).}.}.!.}.}.oX~.oXoX!.OX|.!.}./.}.}.!.!.!.Z.Z.Z.B.0.0.B.0.9.,.h g h f f p v r e @ X @ & & o o   $ 6 - < 6 < , , > 7 B 1 $ C B 1 < 7 B 7 7 7 > > < < < < > < , , 6 ~ 6 ) 6 2 ~ , 2 ! 5 4 Y ~ 6 ! 4 4 ^ 5 , Y 2 2 6 5 Y 6 , , < < < , 6 < $ C 1 M M e u u t s 4.>.w.u.u.i.i.i.i.i.f.,.w.r.D g d.i.n.n.n.b.<.u.u.7.,.p.s.q.6.>.q.w.,.u.5.>.f S s 0 F w.p.,.i.b.n.B.V.n.8.v.b.8.8.n.n.F.F.M.N.i.,.u.u.7.5.r.S w d 6.f f q.4.4.g g m D S v y e q % e e e e u y q e % # ",
"f b f s a t w u a p p p s c c c s c c c c a p u t u y u t p c b g q.q.w.5.5.u.7.b.a.A.a.A.A.m.w.p 9 n p.i.b.n.M.n.B.G.G.^.C.C.^.^.^.^.'.Y.a.q.t.s.a.D.A.h.m F l.-Xh.w.k.J.J.L.m.n.F.G.F.b.i.j.h.h.x.y.G J { | ..| / =.%.^ [ :...&.] $.&.$.` $.%.5 > ' ` 6 L 4 L 6 2 3 5 W 5 6 5 6 7 ^ ` ( JXJXB ! L 5 4 P ~ ! ^ L ~ ~ ! ` [ ' ' ] ] ~ ` ] %.NX~ 6 ] ' P o   X @ @ @ o X   o & % 9 q r r t t p s D g h g q.y.q.g f f f m e.e.e.q.q.w.u.p.z.w.h h.a.a.b.S.L.,.S.n.G.F.N.M.I.Y.T.F.M.J.w.q.z.s.d.A.a.h.J 9 9 F s.D.n.5X].|.5X(.U.n.'._.G.U.U.U.I.I.R.R.R.Y.K.K.Y.R.U.'.[.[.[.dXsXsXvXsXvXdXdXpX,Xb.j.;Xd.a.S.I.A.j.x.g.G S G F F D Z v v N y N N e e C & X N A S l.S K N M 1 1 1 1 1 $ $ $ $ + O + + $ o e p P.S.B.T.N._.'.B.T.:XK.T.,X,Xn.B.sXdXdXfXU.{.<XdX2X_.,XT.v.A.d.d.wX1X[.T.M.n.I.F.V.F.I.n.A.z.x.l.t.d.b.v.A.k.D # i qXJ.b.T.G.C.C.[.T.n.F.F.b.K.m.b.n.G.`.!.).}.}./.}.oX+X~.oXoX!.OX|.!.}.!././.Q.!.Q.C.C.Z.0.0.0.B.N.9.,.h g h h g f s t y % o o & % & @ X X $ 1 1 8 , , , 7 < < 7 B 1 M 1 1 < 1 7 6 7 4 , , < < > > > , 6 > < ^ 4 ^ 4 < 5 , < ^ ~ 6 5 ) Y 5 6 ! ~ 6 6 6 6 2 2 7 4 4 4 2 < , , - - 1 $ 1 M M x e e r t f h 4.w.u.i.i.<.i.i.i.,.,.r.>.5.m.n.N.N.F.M.<.i.i.u.>.r.t.e.6.h q.p.<.m.p.4.g F s w D w.p.,.i.b.n.B.n.v.8.v.b.8.9.b.n.n.M.n.v.i.,.w.u.5.5.q.S w d 6.n g 6.4.>.g n f b Z a u e q e e e e e u y q e & # ",
"f b s s a t r r a p p p s s s s p s c c c v p t u y y u t p c s g q.t.r.w.p.p.u.7.a.A.a.S.b.i.4.p 9 m w.i.v.n.M.n.F.H.G.^.C.G.^.^.^.'.1XT.a.q.t.s.p.D.A.h.b b g.x.g.q.t.h.j.J.b.n.H.H.S.j.p.c.l.S F K H { } } ( ' -.] [ %...] ] ..$...] [ ..` 7 4 ^ 5 4 L 5 4 , 4 , , 4 4 2 6 ! 7 ! P P *.tXyXtX! L 6 4 ! ` ! ^ ^ ^ ] ] ~ ] ' %.] ] ] :.-.;.~ ^ ] ] 1 .   o X @ # # & o   X & q q r t r p p d f q.4.>.>.r.s.w.>.h f d m e.q.g g w.p.p.7.z.t.h z.u.b.b.m.J.,.F.N.'.G.n.M.I.I.T.n.I.L.u.r.x.s.a.A.S.P.l.9 9 y.j.:XT.dX|.4X4X^.G.B.'.'.'.{.,XT.I.I.K.R.R.L.J.J.J.L.T.T.<X'.{.<XfXdXdXpXdX,XpXpXpXm.5.;Xk.a.A.L.m.A.k.z.x.t.j.s.f.u.4.q.y.y.F S Z r x C & X N A D x.F J y % & & & @ @ o @ @ @ X @ o @ @ @ u d ;XS.G.F.V.T.T.T.,XR.Y.F.'.<X0.Z.sXdXsXfXU._.[.dX2X^.'.U.b.J.f.b.T.(.G.,XF.m.b.v.M.I.Y.i.a.p.x.x.g.d.b.m.A.k.n # i eXA.b.G.B.^.U.{.T.I.F.F.9.S.d.i.n.G.`.!.~.).oXOXOX~.+X~.oXoX!.`.|.!./.!./.`.Q.C.C.C.^.C.Z.Z.Z.Z.Z.n.,.>.w.g h >.4.f a N & X @ e e # % & @ X   $ 7 $ > > > < 1 < 1 B B 1 < $ 1 7 7 4 7 , < , 2 2 < > > , 5 < 4 6 ^ 5 4 4 6 , < 6 ^ ^ 2 ' ^ 6 5 5 ^ ! 4 4 4 , 7 6 4 , 6 , > O > - $ $ $ 1 1 % e e e y c d g g ,.u.7.<.u.i.<.7.,.p.4.p.M.N.N.N.C.n.<.i.f.p.w.w.t.r.e.h q.f.u.A.a.5.g D s j e.r.p.,.a.m.B.B.n.9.<.i.b.8.i.b.b.9.n.n.v.i.,.w.u.5.,.r.Z w d r.4.g 4.4.>.g n f s c a u r e e e e e e y u q q # # ",
"f f c s a t i r y a p p s b c p p p c c v v v t z u y r t a a c D g g q.w.w.u.u.7.m.7.a.K.A.A.p.p 9 m p.i.b.b.b.b.F.B.(.(.C.^.G.^.G.^.T.:Xp.y.D t.p.D.A.x.c c F l.D D f D x.A.A.F.F.b.D.g.D G A N N U { V ( ] ' ] ' ' %.$.` ] %.&.] [ ~ [ P 5 7 6 ! 4 , 5 6 , 6 < 3 3 < 4 W 4 < ` P , 6 ( ( } ....L 4 ! ^ ! ~ ` ` ' ~ ] %.&.] 5 ' &.%.%.:.5 L &.5 O     o @ @ & # # % o X o % e r w p d s d d D q.4.4.5.p.w.s.w.h e.D f m t.y.g >.w.i.i.A.p.>.u.m.b.R.<.m.<.F.B.G.[.N.M.{.T.U.n.S.K.u.r.h.s.j.L.S.A.x.w 0 g.s.Y.T.1X4X4X].^.G.T.{.U.U.{.,XR.I.M.Y.m.R.J.j.P.d.L.R.n.R.I.T.nX{.fXpX:X:XY.wX:X:XL.p.z.P.d.f.L.A.a.j.7.k.P.A.A.m.m.i.a.u.t.t.e.b c N N # @ N A F e.e.F J A i N y N N N u N N e e x e 9 i w h :XY.U.M.Y.Y.I.v.R.:XJ.b.,X<XG.G.dXdXfXdX{._.dX<X].].[.<Xv.a.f.K.T.1X(.,XS.a.d.a.A.d.L.<.,.h.g.x.c.p.A.J.j.h.F # r x.a.I.F.G.0.C.{.v.v.F.S.b.a.J.b.v.'.^.!.oX).}.!.OXXX~.%XoXoXZ.`..X!.Z.Q.]._.B.N.B.N.C.C.2.Z.0.C.Z.N.7.4.>.>.3.,.>.g b v e o @ e y r r 9 # @ o X + < $ < , , , 1 1 < 1 1 B 1 O 1 B 1 < 7 4 < > , , < O < 2 4 4 2 4 6 6 6 5 5 2 = , ! ~ 2 ! _ ! 5 6 ^ ^ 2 5 4 < 6 6 7 , 6 6 $ + $ 1 $ $ $ $ 1 M % e x Z d d f g >.,.i.<.<.u.,.,.p.p.a.N.2.N.V.N.B.<.m.a.s.h h t.n n g g p.u.8.7.5.4.F b 0 e.r.d.,.7.b.n.B.n.8.8.b.b.8.8.8.b.v.9.v.8.i.u.,.7.,.w.q.S w h 6.6.4.>.>.g g g h b S p u q q e e e e u y y r e # & ",
"f f s p v y i r y a p p s b b p s p c c v v v r z u y u y v a c D g g q.w.w.w.u.p.A.a.b.S.A.a.5.p 9 m p.i.b.b.n.M.F.B.G.G.Z.^.^.^.G._.T.Y.p.y.F q.w.m.j.x.c c G l.F F Z S x.j.D.D.D.a.h.l.K A N H V { I I | ' ` ;.@.~ [ $.%.%.%.` ^ ^ P ^ 5 4 < , , , 6 5 5 5 5 2 , 6 5 5 5 4 5 4 P B 6 B / | =.^ ! ! ^ ^ ^ [ [ &.L ] =.' ` ' ] ..` &.~ ^ [ .., + X X X @ @ # q q q e @ X @ e r w w s s s d d q.w.>.w.7.f.u.s.r.4.t.D f D y.e.y.>.p.a.b.K.f.>.p.S.m.Y.<.J.i.F.B.G.<XN.n.T.T.T.n.Y.L.u.s.z.j.A.Y.D.m.h.j 0 g.a.L.F.'.]./.`.<X'.V.T.U.U.T.R.R.Y.Y.L.A.P.J.j.z.j.qXK.K.pXwXwXpXpXgXgXwXL.A.L.L.:XwXh.z.;Xj.d.A.f.a.a.a.j.d.K.S.v.M.S.b.i.d.z.t.n Z z C & o N J l.y.y.t.x.y.S G G G G G F l.l.c v A v a A d h wXT.H.M.S.Y.Y.S.R.:XJ.S.T.,XG.G.2XdXsXfXdX<XfXdX[.2X2XdXS.A.f.K.T.1XT.T.I.J.j.p.L.P.f.a.m.P.r.e.t.s.J.f.s.r.D # r qXp.L.F.G.B.F.R.m.A.S.D.a.A.P.J.b.T._.!.).).}.!./.}.~.%X).|.Z.^.].Z.C.C.'.U.n.N.n.N.V.C.2.Z.Z.C.V.N.u.5.>.>.3.,.,.h b v q o @ u a w p t r q # @ o X $ > 1 , , , , < 1 $ 1 B 7 + $ 6 7 , 7 4 2 < > , , , < < < , 4 5 6 4 4 4 4 2 , > 6 ) 2 6 ] ^ 5 4 4 ~ < 4 R < 4 7 7 7 1 $ $ $ $ 1 $ * $ $ * M M e u t c b f h 4.p.u.7.7.,.,.u.u.i.N.2.N.N.2.N.<.b.f.3.h h D f D h g u.7.7.7.4.n F S 0 e.r.k.7.u.b.M.F.n.8.8.b.b.8.8.8.b.v.9.b.9.i.7.5.p.,.5.q.Z w h 6.6.4.4.>.g g g h l S p w q q e e e e r y u r e # & ",
"m f s a Z v r r y p p p s b b s c a p s a c y q u r u u u v a c g g g q.w.w.5.7.a.A.a.m.A.m.u.>.a 9 m p.i.b.b.n.n.B.B.G.^.C.G.G.^.G._.T.Y.u.t.e.q.5.m.A.x.a a G J J A A p l.h.A.8.j.g.F K N C V / B P ( | ..$.-.] ] ] @.%.$.` [ ~ ^ ! 6 5 4 6 4 , < , 6 2 2 , > 6 , 3 W W W 6 5 5 P 6 7 B / / / B 5 ! [ ` ^ ] -.^ %.] ~ ' ] ' %.~ ' ! ^ $.( +     X @ # # # 9 q r r e @ o @ e r w w s f S s f t.p.,.p.u.f.d.p.s.q.g.F b F F D y.>.p.m.m.K.a.,.f.K.M.L.<.K.m.F.C.^.dXn.n.F.{.'.F.Y.I.u.s.z.z.A.I.n.n.z.j 0 h.d.Y.n.U.'.^.].[._.N.T.U.I.R.R.Y.K.J.L.j.P.z.s.s.c.qXd.P.Y.:XwX:XgXP.j.P.z.k.k.j.P.wXA.P.;XJ.d.p.u.s.s.P.z.p.P.P.f.J.F.v.i.d.j.e.f c z N @ X M H G D q.u.P.5.p.p.z.h.;X;XP.;XP.r.D y.D D F h >.pX:XY.S.K.Y.R.Y.K.L.J.K.I.'.G.^.2XsXsXaX]._.fXpX{.].4XdXY.A.u.S.T.U.T.Y.S.s.w.5.;X;Xd.K.Y.P.h.g.x.s.j.r.s.r.F # r eXd.S.n.F.n.S.L.a.J.D.D.8.A.J.J.b.U._.Q.).}.}.!.OX}.).oX).}.Z.^.].B.Z.C.I.I.m.b.n.N.V.C.0.C.C.C.V.N.p.q.>.>.3.u.,.,.f v e @ @ u s j f s p w 9 # @ o o $ < , 1 , , 7 > 1 1 > 7 6 < O * < , , , 2 2 < , , , , , , , , 4 6 6 6 5 ! 5 2 ; , ~ ~ 5 ~ ~ 6 ^ > 5 ! 7 6 7 , 1 B 7 $ $ * $ $ $ * * $ $ $ 1 M M u y a c f m q.r.w.w.1.1.w.w.u.9.2.N.v.<.N.2.v.i.g h f f f e.f g p.,.,.7.4.g F S 0 q.w.d.7.7.i.M.F.n.8.8.b.a.8.7.i.n.v.9.n.v.i.,.5.p.,.4.D Z w h 6.5.4.5.>.g g g h S S p t i r e e e e r r u r e @ & ",
"m f b s v a w r a p p p s b c s s p p p a c v q r i r r t v a s f g >.w.w.5.5.7.a.A.a.a.A.m.7.>.c 9 m w.i.b.b.n.n.n.B.G.^.G.G.C._.^._.U.Y.u.t.t.r.p.S.P.x.t w G J J A A t G g.k.4.g.G K K M C { P ] ] [ ] $.:.&.] @.| ] &.=.] 6 P ` ~ < 4 ^ ~ , , , 6 6 2 4 4 , W 3 6 4 4 W 5 3 5 5 ! ! B 7 6 P ! ` [ ^ ` ] ] ] %.^ ! %.&.:.&.P ' ~ ~ &.* X   X o @ # # 9 q q w w r e @ o @ q r w w s f f s f t.s.,.A.u.f.d.u.s.4.g.F b F F f D >.p.m.m.S.b.,.d.K.S.L.,.m.M.F.G.C.<XB.n.M.{.T.B.F.K.u.p.J.j.A.F.H.F.P.j 0 h.j.Y.n.T.<X2X].^.G.F.T.I.I.I.R.L.m.a.L.J.P.z.s.c.c.P.p.P.J.J.L.wXgX5.h h.t.r.p.P.j.L.J.j.P.P.z.f.s.z.z.P.P.s.J.P.f.J.R.S.m.A.s.e.S Z x e X   M N A D f.d.Y.7.D.b.:XL.L.:XR.Y.S.8.u.r.t.e.e.h ,.pX:XY.K.J.:XY.:XK.L.J.J.m.'.G._.2XvXvX.X_.G.fXfX{.].4X<XT.a.u.S.T.F.H.Y.b.,.>.7.L.j.J.I.I.a.z.x.x.s.P.t.s.4.e.# t eXd.A.n.n.n.m.m.u.j.d.D.7.A.j.d.v.F._.Q.}.}..XQ.OX`.oXoX~.].Z.U.'.B.n.n.S.m.i.i.v.i.V.G.0.B.Z.C.V.v.w.4.g >.w.u.7.5.m c e @ @ y m h h h d w w i 9 # X X + $ < , , , - 7 1 $ < 1 1 < $ $ > $ > 7 7 < < , 2 4 4 , < > , < < , 4 4 6 5 6 O , ! ` ~ 5 ` 5 4 , 6 5 6 6 6 6 B 1 1 M $ @ $ * $ O $ $ $ * 1 M x e e y a c D e.q.4.h h 4.4.5.8.N.i.<.<.N.2.9.u.h h s f f F f h s.,.1.8.6.h S c 0 D 5.a.7.8.8.M.M.v.<.8.a.i.7.<.i.S.9.9.M.b.i.,.7.p.,.4.D Z w h 6.5.5.5.4.g g g h S b p t r r e e e e r r u u e @ & ",
"f f b s a t q r a p p p c c b c p p p p p a a w u r u t t v p s f g 4.w.w.5.5.7.a.d.a.a.a.m.u.q.Z 9 m w.a.v.v.b.S.n.V.B.G.G.G.G._._._.G.T.b.z.c.p.i.S.J.x.t w G J J N K u F G g.g.S y N  .} B B / [ ~ ' #.! ! #.%.` [ $.%.) ! _ [ 7 7 ! ] ^ 6 4 < 5 5 , 4 6 4 6 L 5 Y 2 > 6 W 5 5 4 4 5 B 6 B ^ ] P 6 ` %...' =.' ' =.' ` ] ^ ' ] | ^ $ X   X @ @ # # 9 9 r t t t w y @ o @ e u p d f s s s d q.s.,.J.f.i.u.,.s.g g.y.b S F S f >.u.m.m.I.m.,.j.S.S.K.,.m.F.F.'.B.'.V.B.B.T.G.9.I.I.u.f.J.A.S.Y.U.H.P.j 0 h.j.L.F.,XdX2X]./._.'.T.F.M.I.R.R.L.A.L.P.P.z.h.x.h.s.u.Y.:XL.a.qXwXw.4.x.e.r.h.P.A.L.:Xa.A.P.z.z.z.P.x.j.P.j.p.z.d.d.L.K.J.d.w.e.F Z N 1 X   C H G g.s.J.:X8.Y.D.:XL.i.R.{.T.F.S.A.a.P.h.t.>.5.pXR.S.A.J.R.L.:XR.:XR.A.b.,X'.].2XvXvXjX.X_.gXfXpX'.5X2XR.i.u.I.:Xn.F.T.K.,.u.L.I.<.K.V.I.b.A.p.r.s.qXs.r.m n # A eXs.m.b.n.b.m.f.r.h.a.A.8.j.p.u.a.M.U.Q.|..X[.C.Q.`.}././.[.n.I.{.F.n.n.M.m.i.i.i.8.U.G.Z.0.Z.Z.C.b.w.n g g 3.u.8.5.n Z e @ @ a q.,.1.h h f d w q 9 # @ X X $ 1 < - 7 * * 1 1 1 1 1 1 $ $ > > > < 2 , 2 4 4 , , , 2 , > O O > < < < 6 W < > 4 ^ ' Y ^ 4 , , , 6 Y B B 7 1 M 1 $ $ $ $ $ $ $ $ - - $ $ 1 M M e q y F S D m j h g g >.v.N.<.<.<.N.n.9.u.>.s d S S c b f s.,.1.p.6.f S s w y.w.a.8.v.b.n.b.8.<.7.i.a.7.7.8.n.9.9.n.b.i.7.7.p.,.6.D Z w h 5.w.5.5.4.g g g f D b p t u u r e r e r r u u e @ & ",
"f f m s a t q r v p p p s c c c s p c s p a y r u r u t t a p s g g 4.w.w.5.5.u.d.d.a.7.i.m.u.r.S 9 m w.a.i.i.b.S.b.V.B.H.G.B.C.C.Q.^.G.U.b.z.h.7.7.b.A.l.p t G K K z N y A F G K K H { / B B / ! ' ` ~ ' ' ] _ [ &.%.` ~ ~ ! 5 6 5 ! 6 ! ! ! 6 4 ~ ^ , , 2 , 4 W 4 4 2 2 6 Y ^ , 4 Y ! 5 5 ~ ` , ! ] | | ` ^ P ] ..P $.$.P $.' 5 7 +   X @ @ @ # 9 q 9 9 w d p p t z @ @ & e y a s f l D S S g.s.,.J.f.i.7.w.s.4.y.F s s S S f >.u.m.b.F.m.,.d.F.F.K.,.v.U.G.[.C._.'.I.U.T.U.N.F.I.i.f.J.A.S.T.T.F.;Xj 0 t.j.S.Y.pX<X^.!.|.|.^.T.I.n.n.Y.R.Y.P.L.P.P.z.z.x.x.s.m.Y.:X:Xa.P.x.t.t.c.x.x.P.A.D.pX:XA.J.P.z.z.z.P.P.k.J.D.a.A.d.f.A.A.J.p.>.q.g.Z N M o   N J l.e.e.z.L.7.:XD.:Xm.<.R.<X'.T.F.J.a.J.d.s.5.u.pX:XS.A.P.L.K.T.T.:XwXd.J.,X[.].2XaXsXcXjX'.dXgXpX_.[.2XR.u.u.K.R.b.S.T.:Xi.7.I.{.v.T.U._.S.D.a.k.z.d.s.s.6.e.9 Z *Xz.a.b.b.v.a.p.t.h.p.j.a.j.k.w.A.S.I.U.[.`.'.Z.C.Q.`./.^.{.n.Y.:XF.b.m.m.d.u.u.i.8.T._.C.0.Z.Z.U.m.w.n g q.3.u.8.5.n F x @ # a w.<.,.,.1.h h d w u 9 # @ X X o $ < $ < 6 6 < * 1 1 1 * $ $ - > > , 7 4 6 4 , , , 2 2 4 4 < > < < > > 5 4 , 2 , 6 ] ` ] 2 , 7 < 6 5 5 5 6 1 1 7 7 $ + O - < - O O > O > 1 1 % e y A A l S d d S f g i.N.<.3.<.N.B.n.d.w.l d F S p s f t.>.>.u.q.b c a 0 t.w.a.8.N.N.n.v.8.<.7.i.a.7.7.8.n.9.9.n.v.v.i.7.a.5.w.D Z w g 5.w.5.5.>.g h g f m s p y u y r r e r r u u u e @ # ",
"m m b s a t w t v a p p s c c c s s s s a a a r u u t t t a p d g g 4.r.w.5.7.p.d.a.a.7.i.A.a.h.S 9 m w.a.v.v.m.b.9.V.B.G.G.n.B.Q.Q.Q.C.U.n.J.d.7.8.9.b.x.p a G G A u N N N K K H C V I / / B / | ' ~ _ :._ ` _ %.$._ W ^ ~ W 5 5 B ^ 5 6 4 5 ^ 5 ~ ^ 5 6 6 5 W L 2 , , 6 5 6 W 5 4 6 ! ! ~ ~ B ` ] | | ( [ | =.P ^ %.] ~ ..~ 4 O .   o   X @ e q r r w w p d d d p N # @ & e y p d b D F y.F g.s.,.f.f.d.u.p.h.q.D D b s S S s w.a.m.b.F.b.,.d.I.I.L.1.b.{.G.2X_._.<XI.T.U.'.B.F.I.i.f.J.d.S.T.F.K.qX0 j g.j.S.Y.,X[.C.!.|.|.C.T.I.F.S.I.Y.L.J.L.P.j.j.h.h.h.z.P.R.Y.K.A.J.j.r.e.c.x.x.P.A.:XpX:XA.L.P.j.x.P.P.D.D.Y.Y.Y.F.m.K.L.J.P.z.r.g.l.F K N o X N J g.4.q.x.P.p.:XD.:XA.i.R.,X{.I.m.d.p.d.a.j.,.7.pX:XL.J.P.J.Y.T.'.T.wXj.P.{.].].3X.X2XbXcXdXfXgXpX[.2XdXR.f.f.m.Y.b.S.{.T.b.i.B.[._.dX[.C.F.>X:XP.L.,.s.h.k.g.9 a y.P.a.S.b.b.d.f.t.t.k.k.j.j.P.5.P.m.I.V.'._._.N.V.C.^./.^.{.b.J.R.K.b.b.m.d.w.u.u.8.U._.^.0.^.C.U.m.q.D n q.u.u.8.7.m F N @ # s w.<.<.,.1.h h h d p q q % @ X X o $ < $ $ 1 B 1 $ * $ < < $ $ - < > < , 4 4 4 2 , , < 4 6 4 , < < < > + Y 5 > 4 6 6 O.4 ] ^ > , , , W 6 4 6 B 7 1 1 1 O + > , < = = O O O * 1 M k u A v Z p s S l h u.m.3.w.<.<.n.n.d.q.F l F S a p f t.>.>.6.4.b s a w y.w.a.9.9.9.b.v.8.<.7.u.p.7.7.8.b.9.9.n.9.v.7.5.a.7.r.D Z r g 5.w.5.5.>.h h g h f s t t t y r r q r r u t u q @ @ ",
"m f s s a a w u v v p p s c c s s s s s a Z v u A y a t p s d f g g w.r.w.5.7.a.a.a.a.7.a.J.f.x.F 9 m w.i.b.v.m.m.8.b.9.n.V.b.F._.^.^.G._.B.K.m.i.i.b.d.x.s s F G v e N N N H H M M / ( P B B ( [ ' ^ ! ~ _ ] ` :.~ 5 W W 6 3 Y L 5 5 4 5 4 5 6 ! 5 5 Y 6 4 5 5 4 4 4 3 3 3 < 5 6 6 ! ! 6 6 ^ ` ' | ..] ` $.] 6 %.$.^ [ ` 5 , +     o X % # % # e i i i t s f d d p N # @ & z t p d f S F F b q.s.,.u.a.A.u.z.z.q.f F G S S F s s.j.m.m.I.n.,.d.T.T.P.1.m.pX^.4X`.C.[.V.T.V.T.B.F.I.a.d.J.d.S.R.F.K.qXj j x.A.S.T.,X<X[.]././.^.G.T.R.R.Y.L.L.J.:XJ.d.z.j.r.z.;XA.wXR.m.Y.K.P.w.z.x.x.w.A.:XpXR.Y.A.;XP.d.P.P.J.A.L.Y.H.,XT.n.R.Y.J.P.P.p.t.g.Z K M X X N G g.t.y.x.z.7.Y.S.L.d.f.Y.R.T.S.i.p.j.A.A.J.>.1.wX:XL.A.J.m.R.T.'.G.pXm.:XT._.].sX]..XlXnXsXfXfXpX_.'.dX:Xj.d.m.R.M.T.<XG.M.I.V.].`..X3XZ.G.,X:XA.:Xa.7.a.A.h.# r g L.A.Y.F.M.A.j.c.p.j.j.A.j.P.5.L.i.I.M.U.U.T.V.I.T.G.^.G.R.f.j.L.J.a.m.J.j.r.u.f.v.F.^.^.Z./.Q._.b.4.D D q.p.f.i.7.h Z z @ # Z u.<.,.<.,.,.>.g d 0 t r q % # X X   + , < $ 1 < $ 7 < $ < 1 < $ $ - $ $ > , 4 6 6 4 , > > 4 6 , = = > 4 < 4 6 < < 2 2 ! ! ` ^ > > , 2 ! 5 , 5 R 7 - - , < O O < < = O O ; > > 1 M M k z N t a Z a d ,.a.3.w.,.<.9.b.d.g y.F S S Z p f w.>.h 4.m S a Z w y.w.a.v.v.8.b.v.8.<.<.u.7.<.8.8.b.b.v.v.8.v.<.,.p.p.r.f v t h 6.5.4.4.>.h h f d f d t t t y r i q r u t t u e @ @ ",
"b b d p p t w t v v a p p p s s s s p p a v y u A y Z a Z d b f g q.w.q.w.r.u.,.,.s.w.5.u.J.u.h r 9 f 5.i.n.b.b.A.a.a.D.D.d.j.d.F.U.G.G.(.(.F.K.L.p.s.s.y.D m g.F J e q N H V M C P ^ ^ ! ! ^ [ ^ ^ ` ' ' _ Q _ _ ~ ^ 3 2 2 ! 5 5 5 4 2 2 6 ! ` Y , ] 5 6 ^ 4 , 2 < 3 4 , 4 6 4 5 ^ 5 < ~ &.( ..] ' ] ] [ ^ ` %.] ] [ ! B < .     X @ # # 9 q q e 9 # 9 w d f h h f Z # @ % t s s d s F s S e.q.f.u.m.u.P.d.d.h.w.D l s G G p s s.u.i.K.V.V.<.m.U.,XL.,.m.{./.8X}.Q.[.V.T.T.T.N.F.Y.J.d.P.d.K.R.C.T.P.j p x.m.1X'.[.[.{.2X].<X_.G.{.R.A.eXeX;XP.;XL.z.z.x.z.z.j.L.K.R.R.Y.S.:X:Xj.,.p.A.:XpXR.K.wXJ.;XqXP.P.z.P.j.A.L.F.F.U.'.,XwXs.h t.c.x.g.F A x @ X N K g.c.f.d.J.v.,XF.m.R.P.L.pXR.Y.u.J.f.L.J.qX>.w.qXwXY.b.K.S.wX,X,XT.'.Y.R.,X[.[.aX.X[.sXmXfXnXfXdX<X_.5XdXP.f.m.M.T.'.^.].'.U.N._.}.}.`.Z.Z.[.{.G.C.I.b.8.;Xx.# y x.n.F.T.F.F.R.m.a.d.A.j.j.p.P.d.J.7.I.M.T.I.I.R.A.b.Y.T.F.L.j.s.P.A.d.j.r.x.t.s.J.M.C.Q./.!.!.Q._.N.,.q.D e.h.t.q.q.f F A @ @ A p.<.<.<.,.,.,.>.h j d w q q % & @ o   + * * 8 , , , 1 1 1 1 1 $ $ $ $ % 1 B 7 6 5 > 4 > < 2 6 6 6 < O > , 6 W 6 3 2 < 5 Y ! ' ! < > < 4 W 4 , 4 , , < > > > O O > < , = O > > > 1 M C M e N N y y s 4.u.w.w.h ,.<.i.i.u.q.q.D F s c D e.4.h h f c v A p e.s.d.8.<.<.b.i.i.<.u.<.i.8.<.b.M.n.v.i.u.,.5.4.u.p.w.q.l d h 4.r.q.4.g f b d d d d d a a a u q 9 u u t t u % @ @ ",
"b b s s a t w t a a a p p p p s s s s p a v y u y t p t s s D m g >.q.q.>.w.w.>.5.s.w.5.w.j.w.f y 9 b 5.8.9.b.b.A.u.p.j.j.j.j.j.i.M.F.G.G.G.B.S.i.s.x.g.F b f b K K z N H I V B ( ( ` ^ ~ ~ 5 ~ Y ~ ' _ W _ ` ~ W 6 4 4 , < , 4 5 2 , 2 5 5 4 , , ~ ! , [ 6 O 5 > 5 6 , 4 2 , 5 5 6 6 ` ] ] &.] ] ' ] ^ W ] $.] 5 ~ ^ 6 O     . o @ # # q w r i q % % # i s m h g f Z # o % p m D j l F F f r.p.d.u.m.u.K.a.p.s.>.D S l F F s b s.p.u.M.I.V.i.M.G.T.P.,.b.{./.8X/.!.[.V.T.R.T.N.M.R.d.d.P.A.:XT.B.U.P.j t x.m.'.].]._._..X].(.0.`.[.:XP.eXeXqX;X;X;XJ.z.h.h.x.P.L.K.:XY.R.R.:XY.L.S.wXgXpXpX:XwXwXP.;XP.z.z.z.z.d.P.L.K.Y.,X,XY.z.g.q.t.t.x.l.A N x o X x A G h.J.m.E.n.dX_.I.pXwXwX:XY.m.a.J.d.Y.J.z.h >.eXwXA.b.Y.M.K.S.T.<X<XU.U.[.{.[.aX[.[.dXnXnXnXsXdX<X[.<XdXP.z.J.M.'.].^.^.].G.N._.}. X|.C.C.'.[.[.'.G.F.9.;Xx.# A ;XF.G.'.G.F.F.n.b.b.A.A.A.a.J.a.A.i.M.N.Y.M.b.S.d.d.D.L.F.L.p.t.;XA.w.s.r.x.t.s.A.v.C.!.!.~.!.!.Q.W.,.q.D e.t.q.g h f F K # @ A p.9.v.<.<.,.,.,.>.h h d t r q % & @ o   + $ < > O - 7 1 1 1 * 1 M $ % @ % 1 $ 1 P 4 , , , < > 4 ^ R < > 2 2 , ^ _ 2 2 < > 5 ~ #.4 > < < 4 6 4 2 , 6 < , , < = > > O = > > > > < < $ - M M x e y z a m w.4.>.h >.,.u.f.u.u.r.q.e.b f g e.q.4.n m v v u w F r.j.i.v.v.v.8.i.<.u.<.i.i.8.n.M.n.9.8.u.,.>.>.5.p.u.q.l p h 4.q.q.4.m b b d d s d s s c a u i 9 u u t t u & @ @ ",
"m b b s s t w w y t t a p p p s d d s s v v a t y t t w d f D n 4.q.w.w.w.4.5.5.p.p.5.5.w.d.w.n A 9 b w.a.9.i.a.j.p.p.p.p.h.h.s.7.m.F.G.G.G.B.M.d.w.e.S p 0 w G x V V H V C I | ^ P P ` ^ ! ] P ~ ~ ^ ! ] ' ! ^ W L 6 W 4 6 4 6 4 2 2 4 5 5 4 2 ^ , < 4 < , ^ , 2 4 2 , 4 ! 5 , 7 ` [ / ` ( ` ^ ~ P L ] %.[ ! $.^ , +       . X o @ # 9 i w r u # % % # 9 p m h >.g S 9 o % y m D d S S F f r.p.A.i.A.u.J.i.u.r.g D D S S S F D t.s.7.m.I.U.m.m.G.,XL.,.i.{./.@X/.!.[.U.T.T.T.n.M.:Xa.d.;XJ.wXY.N.I.;Xd w l.b.'.`.|._.<XaXsX<XG.].'.R.L.gXeXqXP.P.P.P.z.c.c.x.z.A.S.,XF.T.pX,XI.:XY.L.wX:X:X,XpX:XP.;Xz.s.z.x.z.d.J.L.L.R.,X'.S.z.x.t.t.q.l.l.Z K x o X x K l.h.J.I.R.2.]._.M.b.R.wXY.Y.8.L.L.L.Y.J.s.h g gXwXb.b.:XY.K.S.T.,X'.I.T.pX[.[.aX.X.XaXnXMXsXsXsXdX<X<XpXwX;XJ.E.T.[.G.G.'._.V._.}.+X|.C.Z.C._.]._.B.n.8.D.g.# A ;XF.G.'.G.G.F.S.S.b.A.A.A.J.J.a.m.m.M.M.R.N.8.S.s.p.a.D.Y.L.w.t.wXA.5.p.r.z.p.d.M.N.Q.~.~.~.~.~.OXN.<.q.q.y.g.q.h h f F J # @ Z u.9.N.2.<.<.<.<.,.,.>.h d w w q & # @ X X   + > < , $ 1 1 1 1 * $ M M M @ @ 1 1 $ 1 B 7 6 5 , = < 4 6 , O ; , 4 W ~ Y 4 < > 5 ! #.! > = < , 2 , < , 4 < < , < ; ; = ; > > O O > > 8 $ 1 1 M x e e y b D n q.h >.3.u.u.,.p.p.r.e.D f h q.6.4.D m a u u t e.r.a.8.i.9.9.8.i.<.u.<.i.i.9.n.n.v.8.8.u.u.>.>.5.p.5.4.l d g >.4.n m m m s d d s s s c s a r i i y t a t r & @ @ ",
"b b f s a t w w y t t a p t p c d d s s c v a t t a a p s n D g >.4.w.w.w.4.5.w.p.p.>.5.w.j.r.e.A # s r.j.8.7.u.s.r.w.6.4.r.t.w.p.m.F.F.G.G.B.S.7.4.S a u N u e V } / B B ( ( P P ! ` [ ] ] B ~ ) 6 ^ O._ ! W ! 3 3 , 2 > 2 , , < < 2 4 4 4 4 6 , ~ 5 6 5 4 5 6 6 ; 4 ~ 5 , 6 W [ ! ' ..` ( [ [ 5 ` %...! ! ^ , 8 .       X o o & # # q w w t t 9 9 q q 9 t f h >.4.F q @ % t b b D D D f t.p.p.d.i.m.7.K.a.7.>.>.q.D F F S g.D q.h.w.a.I.I.K.b.G.,XL.,.<.{.|.XX|.Q.[.U.I.I.T.b.n.:XA.u.P.J.:XF.N.I.qXd w l.D.5X`.3X[.dX`.|.'.(.[.'.,XY.gXqX;Xz.;Xz.d.s.c.x.c.s.A.M.,Xn.U.pXpX:XI.I.S.pXgXgXpXY.L.P.;Xj.s.x.P.P.z.z.J.L.:XT.U.M.P.x.x.c.q.e.g.G J M o X M J l.r.v.R.pX9.].[.I.<.P.wX:XR.8.L.S.L.L.A.j.h >.eXwXA.b.,X:XY.I.R.,XT.I.I.pX[..XaX.X3XaXnXMXdXfXnXfXpX<XpXpXwXL.E.U.{.U.F.`.].U.'.).+X XQ.Q.[.[._.G.G.n.b.;Xg.# A ;XU.Z.^.G.T.'.T.Y.b.m.A.m.Y.K.m.m.S.I.T.T.v.b.Y.j.p.a.m.Y.L.>.t.wXj.5.p.p.h.p.j.M.C./.oX~.%XoXoX}.N.i.r.t.t.s.w.g D f F J # @ a u.9.B.N.2.<.<.<.<.,.,.>.h d t r q # & @ X     + $ 1 7 $ 1 7 1 1 1 $ $ 1 M $ & 1 1 % * B B B 7 6 4 O < 6 4 > , 2 2 Y 5 7 6 < + , 6 ` ` , O , 5 2 = < 4 < < 2 , < < < < = O ; ; O 8 , < $ $ 1 M x e e a b b D f q.3.u.,.1.u.u.u.w.q.h g 4.5.4.n s t i u t y.r.a.8.8.8.v.8.i.<.i.<.i.i.9.n.n.9.8.8.i.i.>.>.7.7.7.4.l d g 4.4.n m m b s d d s f b b c s t w i A y t t u & @ @ ",
"f f s s a t w w v t t a a t p c s s f b c s p p p v c c s m n m h g 4.q.4.4.w.r.r.w.>.5.r.j.r.g.A # c r.k.7.5.r.e.q.4.g >.r.s.r.d.m.S.F.U.G.n.D.,.m F A e e M { X.P B ( ..( 5 P 5 P ! ] ^ B [ 4 ! ~ _ ^ ~ W , 6 3 2 3 < , , 6 , 2 2 4 6 6 6 4 4 ^ ~ 2 > 4 Y 5 6 8 ^ ~ 2 4 L W W ] ' ..~ ~ ' ~ 5 ] %.' ! ! 5 8 .       o X X o @ & % q w p d p p i 9 e e r w s g ,.5.y.w @ % y b b e.e.y.g r.a.a.i.<.a.<.L.m.u.5.r.e.D D F S g.b m h.r.a.K.S.K.n.G.'.Y.,.<.{.|.XXXX^.{.I.I.Y.I.n.b.K.P.w.d.J.K.S.n.I.qXd 0 l.D.5X/.3X[..X/.`.'.'.[.[.<XT.gX:XP.P.wXJ.d.u.p.x.x.x.S.n.pXG.T.pXpX,XM.:XpXgXgXgXfX,XL.P.P.z.h.z.z.P.j.J.J.K.Y.R.T.m.P.x.x.c.y.y.l.l.H x o X M K g.w.M.U.{.V.].G.S.u.,.A.,XT.b.S.Y.:XY.a.z.h t.eX:Xm.S.:XR.K.K.I.,XpXI.I.{.[.[.2X.X3XaXnXMXdXdXnXfXpX:XwXgXgXL.J.T.U.I.n.].|.[.`.).+XXX/./..X[._.G.H.9.b.L.y.# K qX_.C.G.G.'.<XpX:Xb.b.A.i.Y.S.m.b.M.I.T.T.9.b.L.s.r.p.a.L.P.>.t.eXp.5.a.a.a.u.A.n.C.|.%X%X%X%XoX).0.m.p.t.e.p.s.q.y.g F K # # Z f.N.C.Z.Z.N.2.8.<.<.<.7.,.g f d w i q @ @ @ o     + 1 B B $ 1 7 1 1 1 + % C 1 & % M M % 1 B B 6 7 P < < 6 L 4 , < ; 2 6 , ~ ! O ; 4 ' ^ 2 O > 4 , > = , 4 , , 6 6 > < > > < < ; ; > > < - $ 1 M M e r a v S f D >.,.,.1.i.i.i.u.w.h >.w.r.6.n s u u r r F t.d.i.v.v.b.9.i.<.i.<.i.i.9.n.n.9.8.i.i.i.5.,.7.7.7.q.l d 4.w.e.4.g f b S d d s f f b b s s 0 9 A y u r y # @ @ ",
"f b f s a t w t y t t t t t p c s f f b c s p p a c s c s b b D g g 4.4.4.q.w.r.q.w.g 4.r.x.r.F A # v e.p.5.5.y.y.e.e.q.4.r.s.r.u.i.b.S.T.F.b.a.n c Z e % M / &.6 ~ $.' [ ( ~ ^ L ~ ` ! [ ] R ( ] ~ ` ^ 6 W 6 ; 3 ; , < 2 > , < 2 4 4 4 2 , 6 Y , 6 5 Y 6 6 , 6 6 4 4 6 ! ! ^ ] ' ' 5 ^ ] 6 5 ' ;.^ 5 ~ 6 + .   X     o o o & & # 9 w w d d d s w 9 i u t w h 4.7.p.g.i @ % z S S f e.q.r.5.a.m.<.,.a.<.K.A.j.p.r.e.q.f y.S F f f t.t.u.S.M.M.M.G._.Y.,.<.{.|.|.|.C.U.M.M.Y.Y.S.i.A.R.w.d.L.S.Y.F.I.qXj 0 g.D.5X(..X[.aX3XsXdX,X{.[.<X{.pX:X:XR.wXJ.P.a.i.z.x.P.Y.T.dX<XpXpX,XR.F.pXpX,X:XpXfXpXL.P.P.z.h.s.t.z.s.P.J.d.J.:XR.b.h.x.x.y.y.g.l.G N % o X e A g.s.I._.{.N.].G.Y.<.,.a.pXU.n.S.:XpX:Xa.j.h s.wXL.i.I.:XY.S.K.M.T.,XI.K.T.'.[.2X|.4X3XmXMXaXpXfXfXdXR.Y.gXgXJ.A.I.I.J.b./.}..X.X+X+X X}./.`.`.[.U.9.b.i.d.n # K :XG.'.G.C._.,XpX,Xb.S.S.i.K.m.m.m.M.n.T.T.v.v.J.r.t.p.a.D.P.q.c.eXp.,.d.A.A.a.S.n.Q. X+X%X%X%XoX).0.S.p.r.>.w.s.>.q.D F G 9 # Z f.N.C.C.Z.N.2.2.2.9.9.<.<.,.h h d w r # # @ @ o X X X $ B 7 $ < 6 7 7 7 * $ M M e % x N M % 1 B B 7 B < O 6 ^ 4 ; , 5 2 ! 6 [ W , , 2 ^ ` , + > , 2 > > < > > , 4 2 , , , > ; ; ; ; ; > > $ $ 1 1 M e N N A Z D n >.7.,.i.i.i.i.,.h h 4.w.4.n a u y u u G g.A.i.i.v.b.v.i.<.i.<.i.i.9.n.n.9.8.8.i.u.5.5.7.7.7.w.S d 4.5.r.n g f f s d d s s f m f f s w w Z u i i x @ @ @ ",
"f b b s a t w t y y t t w t a s s s c b c s p a c a p Z c c s m b n 4.n 4.e.r.q.4.e.g n q.g.D c z # v F e.q.q.e.t.t.g.h.p.s.s.p.,.u.a.m.S.d.u.r.s y e % V *.| 6 ~ ` #._ ^ ~ ! ! ! ] ~ ! ^ / ( ^ _ ] ` ! 6 2 < 6 , < , 4 , > < < < < , < > > 4 ! Y 5 2 5 6 Y 5 5 4 2 ! ~ 5 ^ ' ' ^ ! ! ~ 5 ~ ;.$.! ' ~ > .         X o & & @ @ % 9 q w d h h h f s w w p d j g w.i.a.s.0 @ % z S m f 4.5.d.7.b.m.<.<.m.<.A.m.J.J.w.e.y.d y.D D S f D t.w.A.m.m.S.G.(.Y.,.<.T.`.`.].C.F.M.b.L.K.S.b.L.;Xp.z.L.Y.R.G.Y.qXh 0 g.D.'.2X2X[.[.4X<XpXL.T.{.[.<X1X<X:XY.L.J.R.K.M.P.d.P.R.,XfXdXfXgXpXF.M.R.pXpXpXgXpX:XL.P.P.z.h.t.w.z.s.j.d.d.K.R.R.J.z.y.y.n D y.g.A A % o o M K l.d.F.'._.N.<X<XpXd.J.J.pXT.n.S.I.,X:XA.z.h 4.wXL.b.S.R.R.K.L.M.T.Y.Y.M.U._.[.3X4X3X.XMXMXdX[.dXfXfXL.J.gXwXp.j.R.I.d.i.^./.|.}.+X#X+X X|.`.`.[.'.n.n.S.L.e.# K :XU.'.C.C.'.1X,X,Xn.S.K.b.m.m.m.S.S.9.U.{.n.M.K.r.s.d.d.L.P.q.t.wXp.,.j.J.A.a.F.n.^. X#X%X%X%XoXoXZ.M.a.p.>.p.J.3.n D F K # # Z f.W.Z.Z.Z.0.2.2.2.0.2.8.<.<.,.h h d t r q @ @ % & o   X o - 7 7 < 7 1 * 7 M % % N N x x e x M 1 * B 6 ^ , + 4 5 2 6 , 6 > 2 > R ! , < < ! ] Y O O ! 4 O O > > O < 4 4 7 , > ; > < ; ; ; = > > O - 1 M N N N N Z b 4.w.,.<.i.i.a.,.1.h >.5.4.m p r e k r G c.P.i.8.8.b.8.i.<.u.<.i.8.9.n.n.9.<.8.i.i.7.7.8.8.7.r.S d 4.5.6.n g f s d d d s f f g g h d p p Z r q q e @ @ @ ",
"m b b s p w w t y y t r r t a a s s c b c s p s c p t F Z Z p s b D D m m q.q.g g q.g m D g.f t % @ y S e.q.D D D q.h.x.D.J.J.j.7.i.f.d.k.r.e.G A % e / ( ^ ! ] ' _ _ W 5 ~ ~ ~ ~ $.] ! ] $.( ] ` ~ ^ 6 2 6 2 < < 3 2 2 ; , , < , , , 2 6 5 5 6 , ^ 6 5 4 6 4 , 5 ! W ! ] ' ~ ! ! 6 ^ Y ^ &.] 6 ] 7 +     X X o o o X o & # @ q 9 w d f h h h g D f s d h h w.i.8.8.h.w # e y Z b q.4.p.a.I.S.S.i.u.K.<.m.a.J.P.4.e.l.d y.D m F s S g.4.A.S.b.F.(.(.Y.<.<.T._.`.[.V.I.K.b.P.S.m.a.R.P.s.J.J.Y.Y.U.I.wXh 0 g.D.U.5X2X[.'.dX,XgXeXY.pX'.<X'.4X:XL.wXK.Y.S.S.Y.j.L.:X<XpXpXfXgXpXS.b.M.pX:XR.pX,X:XP.;X;Xz.x.c.t.x.z.p.u.L.wXY.Y.R.x.D f h y.D g.J H % X o N J l.p.R.C.B.C.4X_.R.u.j.d.:XF.m.Y.I.pX:X;XP.>.h wX:XL.n.Y.Y.m.L.K.:XR.Y.S.I.U.[.sX3XjX.XmXvXsX{.dXfXgXJ.z.pXwX3.d.T.I.d.i.Q.!.}.}.#X#X+X).}.|.`.Q.U.F.b.L.;Xe.@ y A.G.'.C.C.[.pX,X,Xn.M.S.b.i.i.b.L.I.N.F.T.n.Y.R.p.s.j.A.P.;Xe.y.qXp.5.j.J.a.8.S.N.`.oX#X%X%X%XoX XQ.M.a.s.4.j.qXp.>.D G K 9 # Z a.N.Z.!.!.Z.0.2.0.Z.0.0.2.<.,.,.h f s w r 9 # & @ @ o X X + - 1 7 , * 7 1 * C M & C N N e e x M M M 7 B 5 7 < > 2 5 , + = < , 4 5 , , = < 6 ^ ! , > 4 > > , , < > < , < , 4 2 > ; ; ; > > = = > = + 1 M M M y A c b q.,.,.<.7.f.,.,.j >.r.e.n t i i e 9 S c.P.i.8.v.v.8.i.<.u.,.i.i.8.9.9.9.<.8.v.a.7.7.8.8.7.u.D d w.w.6.n n g f d t d s f g g g g j d Z Z q q q e @ @ & ",
"f s s s a t t t u t t w t t p p s p p c c s a c a a a t Z v v a S S S D D m m m f f f D F F S Z e @ q t F D f D D r.5.;XD.D.A.j.a.u.w.x.t.m A N e 1 } / B ` ' ' ~ W ~ ~ ^ _ :.' _ ! W ' &.[ ~ ~ ` ) ! W 5 4 2 4 6 2 > > 2 , > 2 < < 5 5 6 6 , 6 5 6 4 6 6 , 2 ~ ~ 6 ` ` ] ~ L ~ ! Y ^ ` ] ~ ^ ^ O .     X o o o o @ X o & # # r i p h h h ,.,.5.w.r.6.>.1.,.8.v.9.8.p.p @ % y c S n w.a.S.I.F.v.a.7.b.i.i.i.d.;Xw.t.y.f D S b D c G e.q.j.<.m.Y.'.'.A.,.,.wX_.^._.{.v.K.f.P.P.d.a.J.P.w.J.J.S.I.9.G.wXg d g.D.,X'.dXpX{.T.L.eXeXx.wXwX,XT.,XY.A.P.P.:XD.Y.:XP.J.R.,XT.,XnXdXpXI.R.pXMXgX:X:X,XY.P.x.x.x.x.h.t.x.h.j.J.J.P.Y.Y.J.x.q.g y.c.y.l.J N % X X N K g.P.I.{.U.N.[.B.A.u.s.wXwX:XA.L.S.Y.:X:XqXh r.wXA.S.S.:XL.i.A.K.:XY.Y.Y.:XT.<X].4X|..XmXvXdXU.[.nXgX:XJ.pXwX,.qXpXT.f.u.C.&X}.oX#X#X%X).oXXX.X.X'.F.n.A.:XD # K J.1X1XC.'.dX{.T.:XF.b.b.S.m.i.m.m.K.9.U.T.R.b.K.P.r.p.a.;XP.d g.x.s.5.j.j.a.8.F.G.aX X+X%X~.oXoX/.Q.M.a.w.w.p.s.w.>.D G G q # S a.Z.Z.Q.Q.Z.0.0.Z.Z.0.0.2.<.<.,.h h f d w w q % # @ & o X   + $ 1 7 * * 7 1 $ 1 C M x M C N N N N e 1 1 4 B 5 , < 2 4 < = > < < , 2 2 2 , ; = 5 ^ 4 O , 4 2 , , , 4 > > < , 4 4 < = ; > > > ; ; = = + $ 1 C N e u c m g >.5.p.,.>.>.h w.6.q.m p i i k 9 p D k.i.8.v.b.i.7.,.7.u.u.<.<.9.N.9.9.8.i.i.<.7.8.8.7.w.D d w.5.>.g q.g s d t a s f g >.>.>.h f c t 9 q e e @ & $ ",
"b s s p p t w t u u u r w t p p a p p a c a a a Z v v t Z z N z c c c b b f f f f f f s c a t q % @ e w S S f f f >.4.k.A.8.7.5.s.h h S p t N e B *.! ! ] ~ ` Y ) ^ ` ] _ &.' 6 ~ _ $._ ^ ] ~ ] ! ^ ^ 6 > < 4 , ; < < , 4 2 < < , 6 ^ 5 2 6 4 6 , 2 , < , 5 ! ^ ~ %.~ ` L L ^ ~ ~ ` ] ` ~ B < + .     X o @ @ @ @ & @ @ & # # w w d h g ,.,.,.<.p.p.7.5.<.<.9.n.9.9.p.p @ e y c b q.p.m.F.F.M.v.i.i.m.b.a.m.A.P.w.D D f F s b F c G D g s.<.d.K.1X1XD.,.,.R.U.G.'.{.i.P.d.P.L.a.a.z.z.>.z.L.I.T.B.T.wXh j g.L.,X'.{.U.T.pX;XiXiXeXeXqXY.F.:XY.L.;XP.;XA.L.L.A.J.m.pXI.T.fXdXT.pXwXgXMXgXY.:XpX:Xz.x.x.x.x.h.h.x.s.z.P.P.J.Y.R.Y.z.c.x.c.c.e.l.K N % X X N K F j.wX,X{.N.dXG.Y.3.t.qX:X:Xd.;XK.:X:X;Xz.j s.eXA.A.n.Y.L.A.K.S.R.R.Y.Y.R.T.1X].2X2X2XvXvXpX'.pXfXgX;XP.,XpXw.L.,XT.b.i.C.!./.oX+X%X#X+X XoX}..X2X'.F.L.:Xm # U ;XG.U.B.G.{.'.:X,XR.S.S.K.a.7.i.m.Y.b.I.S.I.M.Y.J.>.w.u.L.P.f l.qXh.4.j.j.d.b.F.C..XoXoX#X+XoX!.!._.M.a.u.r.s.p.r.q.D G K q # Z a.Z.Z.Q.Q.Z.0.0.Z.Z.Z.Z.0.2.8.,.1.g h d w t r q # @ @ @ o o X X + $ 1 7 $ $ B 1 $ M C % x N N A A e $ 1 7 4 4 2 2 4 < 4 4 < < 4 4 > 2 , , , O O , 6 4 , > < 2 , , , < > > > < , , < > > ; ; ; = = = $ $ $ $ M N N u p b f g q.r.g h g w.6.e.n s i e e r G c.k.<.<.v.i.i.i.<.7.u.u.<.<.9.9.9.9.9.i.i.<.7.8.8.7.w.D d 4.5.>.g q.m s s d a s f g >.>.h h f c t 9 q e e @ & & ",
"S s s a a t a v y u u t t u p a v t t a a a a a Z a y u N z z N y a a s s f f f f f f s F F Z z @ @ e t Z D S f e.w.7.d.D.a.a.w.q.y.S Z N M C / | B ! ~ ] ~ 2 ^ ) _ ~ _ O.` ^ ` ! ` ! ^ ~ ^ _ 5 3 ! 5 2 2 2 2 6 , 5 5 2 < ; ; < 4 6 5 2 2 6 4 , 4 2 2 2 6 ! ` ] $.! ^ 5 P 5 [ ~ ] ` [ ^ 4 $ .       X o @ & & @ & & @ @ e q 9 w d j h ,.<.<.<.<.8.8.8.7.<.9.N.B.n.b.p.j @ e z Z S q.a.S.F.F.F.m.b.m.A.i.7.A.P.;X>.g q.f F s F F c F F g s.p.z.K.>X1XD.h u.Y.V.U.T.T.i.J.d.P.P.p.j.z.z.>.P.J.K.F.B.G.wXh j x.L.Y.pX{.{.pXgXwXuXuXuXuXeXqX:XwXJ.P.qX;X;Xz.;XP.P.;XK.pXF.pXpXpX{.{.n.wXgXpXL.:XpXqXz.x.x.x.x.t.x.z.t.P.P.d.A.Y.R.Y.;X;XqXt.t.e.l.K N % X X N K F p.R.I.I.n.<XT.Y.r.t.qXL.:Xa.P.j.P.;XJ.z.j w.wXJ.I.n.F.L.K.Y.m.Y.R.:XY.Y.I.{.'.[.dX'.dXdXpXpXpXfXfXL.L.:XpXf.K.1X1XI.K.G.^./.6X#X#X#X+XoX~./..X.X'.F.Y.wXn @ J ;XF.{.G.C.U.T.R.Y.L.m.A.L.d.u.p.d.L.b.R.I.I.S.Y.J.u.<.7.L.J.f x.-Xs.>.s.j.A.b.F.N.Q.@X~.+X+XoX}./.C.n.a.w.r.s.s.y.q.D F A q @ Z a.V.!.!.Q.!.0.Z.!.Z.0.Z.0.2.i.,.,.>.h h d d t r % # # # @ @ o X X o $ * 7 1 $ P / $ - C M x x N z N C $ $ 1 6 7 , 6 5 2 < < 2 3 4 6 < = < 4 , = O = , 6 2 = > , , , 7 1 < > > > < < < < > > > > = = = O O O $ M M M z t w s F S d d D e.6.r.D Z r q i u l.x.s.,.<.v.8.8.u.u.w.w.u.7.8.9.9.9.9.9.8.i.<.7.8.8.7.u.D d 4.5.>.>.4.g s s p a f f g >.>.h h f c t 9 q e e @ & & ",
"F S c a t t u t z u t a a p p c v t t a c s a c v t u r N y N N y a s s b S l f D D S s c S c r @ @ y y S F D D t.6.5.7.k.5.r.e.G Z A N e C | &.~ ! ! ^ W 5 ^ ) ) ] &.] ^ ~ ~ 6 5 5 ^ ! 5 W 6 5 4 < 4 5 < < 6 6 2 6 4 , ; > 2 4 4 < < 2 6 4 , , 4 4 ^ ] ) ~ ~ ! ~ ^ 7 L ~ ^ L [ ^ ^ ~ ! 1 .     X   o @ & & & # & % & @ e r q p d h h u.i.<.<.8.8.8.8.<.8.9.B.B.n.b.a.d @ k N Z F r.i.n.F.G.I.Y.J.P.m.i.<.m.J.P.g q.y.d D S g.S c G y.D w.s.z.J.T.>XD.j d.P.n.U.T.T.a.J.s.z.J.u.j.z.z.>.P.J.S.n.G.F.:X>.j c.P.Y.,X{.pXpXwXqXuXuXiXiXeXqXpXwXJ.J.P.x.x.g.;Xz.P.:XwXpXT.dX[.[.<X_.9.I.pXpX:X:X:XP.x.x.c.x.x.r.x.x.z.P.d.u.A.Y.S.K.wX;XqXq.c.t.-XF A % X X N J F u.m.v.N.T.G.G.m.s.r.z.a.:Xd.P.p.A.;Xj.z.j q.qXA.I.n.F.I.K.Y.A.Y.R.Y.L.K.F.T.U._.pXG.dXpXpXfXpXfXpXY.pXT.pXm.m.].4XT.F.B.G.Z.XX~.#X%X+X+X~.!.}.].C.H.Y.:Xq.@ K P.n.'.U.n.n.R.:XY.Y.a.d.J.d.s.s.s.J.b.R.K.I.I.Y.J.j.m.m.L.j.f l.x.w.4.s.A.m.S.U.Z.Q.XXoX+XoX~.}.}.0.v.u.r.r.s.t.q.q.D Z A q # Z d.C.Q.OXOX!.Z.!.!.!.0.Z.0.N.i.,.,.>.h h h f a t q & e & @ @ & @ @ X X o 1 / 7 O , / B - 1 M x x N x M 1 $ + > 4 4 < = 4 Y 7 < , 2 , 6 , < , 2 4 , O O 4 6 < ; < , , , 1 , < < < < > < < < < < > = = = = O $ $ $ $ M N e q z A p w s l q.4.e.D c r r u u F r.p.<.8.i.8.7.<.,.3.3.w.7.8.9.9.9.9.9.8.8.<.7.8.8.7.u.D d 4.5.>.>.4.g f s d s f f g >.,.h h f c t 9 q e e @ & & ",
"0 0 0 w t a Z A y u t v v a a c v t t a c s c Z a t u r N x N N y c Z Z S D D g g D f s s S s q & @ y A S D D f e.n 6.6.h.4.n S y N % & { =...! W ^ W W ! ~ ' ;.%.$.^ ! ] ~ Y ] ^ ^ ^ 6 6 ^ ! Y 4 4 < > 6 4 , 4 4 , < , , < < > , , , 6 6 2 4 6 Y W W 6 3 ^ _ ! ^ 6 ' ~ 6 ] ! ~ P ! B * o X X X o X o @ & % % & % % & # e r q t g h ,.u.i.<.2.v.9.9.8.<.9.N.B.B.n.b.s.j @ k N Z F r.b.B.G.G.I.E.m.K.m.S.i.m.j.P.>.y.y.s S s G s c F y.D g w.t.j.Y.Y.A.j z.J.b.I.F.Y.a.z.s.s.z.p.p.s.s.g P.P.K.F.'.F.L.h j t.P.R.G.{.pX,X:XwXuXuX0XeXqXqXgXpXK.K.R.z.x.g.x.z.P.:XR.fXpX<XsX^.].dX'.pXgXgXwXP.j.r.x.x.x.x.t.e.x.z.P.P.a.a.L.K.M.Y.:Xz.qXw.x.c.l.A H % X X C J y.s.m.M.n.T.B.G.i.,.>.w.7.Y.j.P.d.P.wXx.h.j r.wXA.b.S.Y.I.S.L.A.Y.Y.A.K.m.S.T.I.V.T.I.gXpXpXgX{.fXT.wXgX,X{.M.N.].4X`.U.n.I.0.|.~.#X%X+X+XoX~.}.|.C.,XY.L.q.# H ;Xb.T.T.n.v.Y.:XL.L.A.k.s.w.w.w.e.z.b.S.i.K.T.Y.m.m.Y.I.Y.j.f l.x.r.r.z.L.A.Y.'.^.}.}.oX@XoX!././.Z.i.u.r.t.t.w.q.D S v A e # Z m.C.!.!.OX!.!.!.!.!.!.Z.0.N.b.7.,.w.1.>.>.m s t r e e & @ @ # & # @ X @ X @ B R , > 4 B 7 1 M M x M 1 $ $ $ $ + O 2 4 < 2 5 6 > O < 4 6 6 2 4 4 2 < < > ; , 2 < > , < < , , , , < < < < > > > > = = < = O = = O $ < * M M e z u u u S D D e.m s r u u r D 4.p.8.8.8.i.7.,.,.,.w.w.5.8.8.9.9.9.9.i.8.<.7.8.8.7.w.n d 4.7.4.>.4.g d s d s l g g >.,.h h f s t 9 q x e @ & & ",
"d p p t t u u r y u w a c c s a a t t a a s s Z c v v u N N N z y Z S S S D n g h f g f D g.G A e @ u A F D D D D m e.g.g.F s A N % C yX=./ ! ! W 5 3 _ ] [ &.' ~ ^ ) ) _ O.' 5 ^ ^ 2 5 ! W ^ 2 3 4 W 6 > 2 ! ! 5 6 6 6 < ; ; ; 4 5 4 4 6 6 W 5 4 4 6 5 ! ) ^ 6 6 ~ L L ] 5 [ ! ! 7 +     X o @ o o @ & % % # @ & % @ @ q r w p 4.,.,.u.i.2.9.N.9.v.v.8.<.v.N.N.v.a.p.j @ k N Z F w.b.F.G.V.b.i.m.L.i.S.i.d.A.P.q.D S S Z p S s S y.y.D h e.e.r.Y.Y.h.j z.J.8.S.F.Y.d.d.t.y.z.r.p.s.w.g z.;XI.T.T.F.P.h j t.J.Y.T.2XdX,X,XeXuXiX0XqXqXP.gXpX'.T.wX;X-Xc.x.P.P.R.S.,XdX2X.X0.4XjXsXdXfXpXwXP.s.r.x.c.x.x.t.t.x.P.x.z.j.A.K.S.S.:XP.k.qXr.s.e.g.G H x X X N J g.s.J.K.R.n._.1XS.,.u.,.<.Y.A.J.j.P.wXx.x.j e.wXP.D.Y.R.I.S.Y.S.R.Y.m.L.m.K.R.R.M.R.K.pXR.pXgXT.fX{.:XgX,XT.V.B.4X6X4X'.M.I.N..X).7X+X+X+XoX~.}.|.^.'.H.L.e.@ A ;Xb.:XR.M.v.S.K.A.d.p.w.w.q.t.t.y.x.a.m.i.Y.T.I.A.K.T.T.Y.a.f l.x.t.s.j.L.b.T._.`.|.oXoXoXoXOX/./.^.b.s.t.t.r.q.D y.S a N e # A a.Z.!././.!.!.!.!.!.!.Z.0.N.b.7.>.w.,.,.>.g s r i i e % & # # @ @ # # o o o o < 6 4 7 4 5 6 < 1 M M $ 1 1 $ O > > O < 4 2 = < 5 4 O = , 4 5 5 6 , , , > O > 2 < > < < < > > > < < < < < > > = = > < > > ; ; ; ; ; O $ 1 M M M x e u Z D D e.b s w t t t y.r.p.7.8.i.a.7.,.,.3.q.w.u.7.8.9.9.8.8.i.i.<.7.8.8.7.w.n d 4.7.5.>.4.g h s d f g g h >.,.h g f s w 9 r x e @ & & ",
"p a a p y y y u y r w w a c c a p t t p p p s S c c v r N N N x a Z S b S D n g h g n m D F F Z e @ u A S D D D m m e.g.S Z r e % X.tX| B 4 ! ] ) Y #.~ L :.! 2 ) ! W ! ! 5 6 5 4 , ^ Y 6 3 > 6 5 6 > > ! ` ! 7 6 6 5 4 > > 6 5 6 5 4 6 5 5 ! 6 ! 6 4 5 ^ W 5 ! 5 4 , ~ P ! 6 7 $ .     o X X o @ o @ & # # # # & % # # e y u s 4.,.<.<.v.W.N.v.8.v.v.i.i.i.v.N.i.a.s.w # k N Z F 6.8.C.U.V.i.,.K.Y.8.i.,.a.J.P.q.D s G Z p S Z y.y.g.e.f y.n q.:XD.p.h x.J.i.S.Y.Y.d.p.w.q.h.5.s.z.r.4.s.:XS.Y.M.I.:Xh j l.A.F.'.2X<X(.1X:XiX0X-XP.J.m.{..X2X[.<XR.;Xt.x.J.S.U.I.U.<XsX/.!.hX3XsXsXdXR.P.P.z.x.x.y.x.x.t.x.x.;Xj.j.A.L.K.S.I.:Xj.k.wXs.w.y.g.J H M X X N J y.s.J.M.R.n.<X<XR.K.J.7.b.:XL.j.d.J.;Xx.-Xh 4.qX;XY.Y.R.Y.L.R.S.R.,XA.R.m.K.R.wXK.R.R.R.R.wXMX,X<XpXT.,X'.,X{.^.4X8X).(.b.b.N.|.}.+X%X%X+XoX).oX}./.G.T.:Xy.@ N qXS.S.S.b.i.A.L.J.A.5.4.4.e.x.c.D c.p.A.K.wXR.T.R.K.I.U.H.a.h l.l.q.w.a.S.9.G.G.Q.}.oX~.~.oXoX|.`.G.A.s.t.e.q.g D F F p N e # Z a.Z.!.!./.!.!.!.!.!.&X0.0.n.b.,.>.w.u.,.>.g s t r i e e e q # @ # % & & o X X + - 6 5 , > 4 ! 1 $ B M 1 - 1 7 , = O + = 7 6 2 < < , < , > < 4 4 4 6 , 2 , O ; < < > < < < > ; ; > = = > < > > > < , = < < ; ; ; ; O O $ - 1 M x % e a l f q.n s w t t p g.s.a.<.8.i.i.7.,.>.>.>.,.w.7.i.b.9.8.8.8.i.7.7.8.8.7.5.n j 5.7.5.4.4.g f f s f g g h >.>.h g f s t 9 r z e @ & & ",
"p p p t y y N y y r w w t c c a p p p a p p s S s c v q z N N x y Z S b b D D g h g D D F F F A e @ e y p s S f F c S F v N q M =...B 4 ~ $.' ^ ^ $.~ ~ ` W ! _ ! 6 W W 4 3 6 < 2 W Y 4 , 2 4 < < , 6 5 4 , , , 4 , , < < 6 W 4 , 4 6 ^ ! 2 6 5 5 ~ ^ 5 Y 6 4 6 6 5 ~ ! ^ 5 > +     X X o @ @ @ o o @ & # # % q % e % # e y w d 4.7.8.<.2.2.9.v.<.i.b.b.v.b.N.N.v.a.s.p # k N Z y.5.8.n.U.V.i.,.b.R.i.i.,.a.j.h.g F s G a Z G S c.t.t.y.g t.g >.:XD.r.h x.P.a.S.R.Y.d.s.e.q.s.>.r.z.r.w.s.wXS.T.M.:XwXj 0 x.J.Y.1XdX1X(.1X:XuXuXqX;XR.K.<X.X3X/.1X:X;Xs.z.L.Y.T.T.pXU.dX2X|.|.XXaXvXdXI.A.z.x.h.qXt.-Xx.t.x.x.;Xx.j.J.L.L.R.T.R.7.a.wXz.s.x.g.G H M o X N K F r.j.b.M.G.5X].F.pXJ.u.F.pXwXA.j.j.wXP.-Xj n wX;XD.Y.Y.R.R.:Xm.R.pXA.wXA.S.Y.wXL.wXgXqXgXgXMXpXG.pX,X,X,XpXpX'.4X8X3X^.b.m.C.2X X8X).oXoXoXoXoX}./.].1X:Xe.@ K eXb.S.S.m.v.b.S.S.a.p.r.q.q.t.t.D c.z.J.A.:X:XpXpXb.I.Y.Y.a.f g.y.g 4.p.J.i.F.G.Q./.&X).oX~.~.}./.C.S.d.e.D m f S F G v A e @ Z m.C.!.!.~.!.!.~.!.!.&XZ.B.n.a.,.g r.u.,.,.g f p t r u u u q # # # % # # & & @ X   + > ! R , , ! 6 > 1 1 1 < , 4 2 > > O O > 2 4 , ; < 4 , > , 4 2 2 4 2 > > < < > < 8 > 2 2 < > > > O = < , < > > < 2 < ; < < ; = ; + > - $ 1 M M % r p d D F c w r y p e.p.a.<.8.i.7.,.>.>.q.g >.,.7.i.b.9.8.8.8.i.7.7.8.8.7.5.n j 4.7.5.5.w.4.g m f f g g h >.>.g g f s w 9 r z q @ & & ",
"p p a a y y u u r u # i v t Z p p p t p w t p Z b b p t z x M M z b c b b f D m b f b S F F A N & @ e u z c c c u y N N e % V X.B 6 5 ~ ` ~ ^ ` ~ ` ~ ^ ~ ~ ~ ~ 6 ^ 6 4 6 4 6 3 , , 2 , < < , 2 6 6 4 4 6 6 , > 8 - , 6 [ 7 - 1 , ^ ! , 6 L 6 4 :.~ 5 6 5 Y ! ^ W ^ ^ B 7 O + .   X @ @ @ @ & & o o o @ & & # e e e q 9 r t t d g <.<.N.2.2.9.i.7.f.u.i.M.n.9.V.C.b.t.0 # k z A D 4.d.D.S.m.J.1.M.S.a.u.>.w.r.s.g e.s G s G S q.d.u.h.h.6.w.,.A.L.J.x.j y.j.b.S.Y.Y.j.s.q.D c.t.s.h.s.P.p.L.K.T.H.Y.qXh j c.;XY.1X2X'.,XwXqXeXuXP.qXP.f.pX2X|.|.<XS.P.q.j.L.m.R.pXS.pXpX[.].3X3X4XjX|.U.K.P.x.qXP.x.z.x.q.h.P.;Xh.h.z.J.Y.Y.'.'.n.8.wXa.d.h.g.J J x X X M A F s.r.3.I.0./.].,XR.f.<.M.gXgX:XD.8.:X:XqX0 q.;XP.A.Y.Y.F.T.I.I.pXpXL.f.wXL.L.:Xj.;XgXqXeXMXMXpX>X,X,XgX:XpXgXm.U.sX`.2XN.B.C.[.3X XoXoX+XoXoX!.`.].|.^.:Xr.# A qXu.A.A.a.b.n.n.V.b.a.w.r.t.s.x.t.h.J.J.d.m.Y.pXpXA.R.J.R.>.y.g.l.n n t.d.J.n.Z.`.!.!.}.~.!.!.OXOXQ.N.K.w.b S d f y.F v N e @ Z K.Z.!.!.OX~.~.~.~.!.&X0.B.b.d.r.D t.w.<.u.w.n d t w p s a r 9 # & % % & # # # @ X X   * B B 7 , 6 6 < , , , , , 6 5 < O O > < < , 6 > , , , < > , , 3 2 2 < > ; < 2 > < < > < , , < < O + ; , < > = O < 3 3 < ; ; ; ; O O $ > < 1 1 % u c b c v r q u t h.a.9.9.<.b.u.3.>.g g n n 4.7.8.8.9.9.8.8.v.8.8.i.<.7.u.g h 5.5.5.5.6.5.6.4.f f f h h h h h h f b w 9 r N # @ & & ",
"p p a p t y u y u y 9 u Z a Z a p v t a w t p c S S c v z x M x z Z c b S b m b S b c c Z v t e & @ x N A v t w r e M % 1 / } ^ ~ ~ ! 5 ~ ' ' ~ _ ^ W ^ [ W 6 5 5 ) W 3 6 6 5 2 2 , < > > > < < , < ; > < , , < 7 P 7 4 1 B 1 6 5 6 6 5 6 4 ! ' 4 , 4 5 ! ~ ~ ^ ~ ! 6 < O . .   X X @ @ % # % & & o @ @ % % e e e z q 9 u a p d >.<.8.Z.Z.0.N.i.7.f.u.8.n.n.9.V.B.n.c.0 # k y Z e.5.a.d.A.a.d.1.b.S.d.s.>.t.s.x.g e.s l.Z F m w.M.8.j.h.m h.a.b.J.z.l.d D x.i.n.Y.Y.j.s.y.y.c.t.s.s.w.z.p.L.S.H.n.D.;Xh j c.P.S.V.dX<XY.J.qXeXeXP.qXz.u.wXdX4X].U.S.z.w.z.J.A.J.wXL.wXR.U.[.aX.XjXjX|.<XwXqXx.qXP.P.P.;Xt.z.P.z.r.r.x.P.R.F.'.4XH.i.wXa.A.j.e.G E N X X x K g.x.t.r.T.C.4X|.U.i.1.,.I.gX1XD.D.L.pX:XqX0 F qXP.k.J.S.F.G.T.I.pXwXJ.R.L.A.L.:XqXqXqX-X0XMXMXwXL.gXY.gXwXwXgXK.T.<X^.[.0.N.B._.4X|.XXoXoXoXoX!.].[./.^.,Xh.9 K eXz.a.K.K.K.F.U.'.Y.J.s.h.z.j.z.h.h.J.d.J.Y.m.8.m.A.J.J.;X>.D y.l.D q.t.s.b.N.Z.`./.).}.oXXXXXXXOXZ.N.K.s.F S s S g.c t N e @ A A.Z.!.!.~.~.~.~.~.!.&XZ.C.m.p.e.b y.3.<.u.u.e.f p d s s s t q % # % q q q q q # @ @ @   X 1 R 6 2 6 5 2 4 , < , < , 5 , $ > < < > O 6 = ; < 4 6 < , 4 4 , ; > , < O < < , < < < 2 4 < 4 4 < O > , , > O ; ; 2 4 ; ; ; O O O > > , 1 M M y z v v e % r t k.9.n.9.<.i.u.w.n g l D D q.7.8.8.9.9.9.9.v.9.8.8.<.,.w.>.h w.w.5.5.5.6.4.g g f f f f g g h h f b w 9 r N # @ & & ",
"p p a p t t t y u y r y A v c a v v t a u t p S F S c z z x M M z A A S S c b b b s s c v v t e # @ x x z v z z q M M C | ( B / ! Y W ~ ~ ! 5 W ! ^ ! ! ^ ! 5 L 6 W 4 , 3 4 4 , , , < < < , < > 5 6 4 , , , , , < 7 4 4 B 6 7 6 , 5 ^ 6 , ~ ] < < 4 5 ! ! W ! ^ W , O + .     . X o & # q # % # % @ & k C k N q z z q 9 t S s h ,.8.9.Z.Q.0.B.v.i.f.u.7.b.n.0.C.Z.M.x.0 # k y A e.4.7.a.A.d.J.,.m.K.J.d.q.s.x.z.n q.s g.S F n r.K.i.P.g.h z.J.i.A.z.g.c F x.d.S.K.K.s.t.y.e.c.t.s.r.>.h.p.L.S.D.Y.L.;Xj j c.P.L.,X,X:X:X;X;XqXeXwXwXj.>.R.pX<X'.Y.Y.z.w.d.J.L.K.Y.K.wXY.U.[.aX3X3XjX6XsX:XP.z.qXP.;X;Xx.w.z.P.P.x.h.x.;X;Xb.(.dX,XS.wXm.K.J.g.G 0XV X   e K G c.y.s.R.^.4X2XU.v.m.K.pXnXdXY.D.;XpX:Xx.0 b x.x.s.P.J.Y.F.R.M.pXR.J.P.J.j.P.qXqXqXqX-XqXeXMXwXP.gXJ.wXwXwXgXR.I.U.[.2XV.C.V.'.aX4X/.~.+X@XhX.X2X<X/.].:X6.# N x.w.j.J.a.a.F.T.T.b.A.u.d.z.j.A.h.s.d.i.P.R.u.1.,.A.A.j.P.g g y.g.D s.A.m.n.B.!.|.).+XoXoX+XoXoXoX!.Z.M.s.e.D f D y.d w N e @ Z m.Z.!./.}.!.!.~.~.!.0.Z.G.M.p.q.f y.<.<.<.u.e.l s p s d p t r q # # # 9 q q i 9 # @ o o X X $ 7 5 4 2 5 4 4 4 , 4 < 4 R 6 > > 2 2 > + 4 6 4 < > 6 3 2 2 2 , < > = = = = > > > > , 4 < < 2 4 2 < > ; ; < ; , , < 2 < > ; O O = > > < 1 1 x x z z e q r p p.8.n.9.<.u.u.w.g f l D D 4.7.8.9.8.<.8.i.i.9.8.8.<.,.w.>.h 5.5.5.4.5.5.4.g g g f f f g g h h f b w q r N @ @ & % ",
"p p c p t t t y t v t v c s c a p a t y u y a S S S v z z x M M x A A Z Z s s b s s c c Z v v u & @ e x z z z z M & V ..P 6 ~ 5 6 ! ! Y Y ^ ) ~ ~ ` ~ 5 6 6 6 5 5 4 2 4 6 , , 4 < < , , 4 , < > > > > 8 8 > < < , > , , ! 7 6 6 4 ~ 5 5 | ~ < , 5 ] ` 2 , ! ^ 7 < O .       . o o @ # # q 9 e & k % k U  .H k r z z q 9 p D D >.u.i.N.0.C.0.C.n.b.d.u.u.b.b.n.G.B.F.x.0 # k y Z n >.5.p.A.A.L.i.S.Y.J.f.q.s.s.h.g n d y.l D q.d.K.m.P.r.h z.A.u.f.s.F s F l.p.b.S.J.s.y.e.y.t.t.h.s.5.j.a.L.S.n.:XL.;Xj j c.P.P.L.:X;XP.P.eXeXwX:XwXc.g c.wX,XY.wXwXP.r.J.L.:XR.Y.S.P.R.'.].aXjX|.vXvX4XI.J.P.P.;X;XP.z.r.z.;X;X;Xh.x.;XqXS.T.<X,XF.R.i.v.A.t.F H N     e K J l.D c.:X_.2X].'.M.wXpXfXgXdX:XP.a.:X;Xl.0 p y.g.h.P.J.K.n.K.v.R.Y.R.z.P.x.qXeXx.qXqXqXqX-XgXwXwXgXpXwXgXgXgXpX{._.|..XC._.C.^.aXXX/.~.@X#XlX3XsXfX/.].:Xr.# N -Xs.J.L.p.u.S.T.G.v.m.,.p.d.a.j.j.s.d.i.A.K.u.7.p.A.j.d.z.g e.c.c.g A.S.F.G.Q.!.oX).+X~.~.+XoXoX X/.Q.n.5.D m n y.y.d r N e @ A d.N.Z././.!.&X~.).!.0.Z.G.M.a.w.g t.i.<.<.,.g f Z Z s p p u r q q q q q w w w i 9 % & & @ X   . > 6 , 6 ^ 7 , B 4 7 < > 7 R 5 > > , 6 O = , 6 5 > , 4 < < 4 2 O O < O + + O > < > ; 5 , > , 6 4 , < ; ; 6 2 > , ; 3 < < < > > O = O 8 > 1 x x x e e r p p.8.9.2.u.u.u.q.g f l D D 4.5.a.9.8.<.8.i.8.9.8.8.<.,.w.>.h >.4.5.4.6.5.4.>.g g f f g g g h h f c w i r N @ @ & & ",
"p p c a p t w a t v p p c s s s p v t v u u a Z Z Z v z z x M M e N N A Z a s b f b b Z Z v z e % @ e x N N x % M } / 6 ! ~ ! ~ ^ ! Y Y ! ~ ^ W ~ ! 5 5 5 2 4 ! 5 , , 6 4 < > , O < 4 6 4 , < < > < , , , , , , 4 5 , 6 , 5 7 7 6 7 6 ! Y , , 5 O.5 , 5 ^ 6 < < +     X o o o + @ @ % 9 r i e e C H k 0XrX0Xk N u z w 0 s D 4.5.i.<.8.2.Z.2.Z.N.m.a.u.u.i.v.n.G.G.K.x.w # N N Z e.6.7.a.A.d.A.i.S.K.f.w.g t.r.w.g D h e.f g w.J.A.K.z.e.m h.5.a.d.w.F p F y.s.i.m.J.z.y.e.y.t.z.h.k.p.P.d.L.Y.H.A.A.P.j j y.x.z.x.;X;Xh.g.;XeX;XT.,Xz.D y.x.K.m.Y.z.;Xs.P.wXS.Y.:XY.K.R.{.[.3XsXjXcX8X4XF.L.P.P.;X;Xx.P.x.P.P.;Xk.h.x.-XqXL.T._.{.T.R.v.v.P.x.G A N     % H G g.l t.Y.{.2X].'.V.R.R.pX,XpXI.J.z.:X;XJ i w F c.x.z.z.J.K.A.A.:X:XP.s.x.x.qXqXy.l.y.qXeX;XwXwXwXgXgXpXgXgXnXdX|. X X X/.`.OX!.6XXX6X+X@X+X+X}.sXnX4X2X,Xh.# y l.x.w.h.r.p.K.S.F.Y.b.7.u.a.a.A.j.j.J.u.m.m.d.J.P.J.p.r.s.>.t.x.t.4.S.I.F.G.C.!.}.~.oX~.oX@X XoX XQ.Q.n.u.w.4.q.g.l.b u z % @ A d.N.B.^.Q.0.&X!./.!.Z.Z.C.b.a.w.g w.v.2.<.,.g f Z v s c v w q e e r r r w w w w q q % & @ & @     O 4 6 7 B 6 $ 7 6 , 4 4 , 7 6 6 < > 6 < < < < 5 < < 4 2 = > 2 < + = O O = > > ; O , 4 4 , , 4 4 > ; 2 ; 2 2 > 3 = < < < < > = O O ; ; > 1 M M * % % r y.p.b.8.u.u.p.e.n f f D D >.5.a.i.8.<.8.i.8.8.8.8.7.5.w.>.h >.4.5.5.5.5.5.>.g g g f g g g h f f c w q u N @ @ & & ",
"w w a p p p t a p c c s c s s c p v a A u u t Z Z Z v z z e M e e u N y Z Z s S f b b c A A z q # @ x x x M M C ( ( ! L _ ' _ ^ ^ 5 5 ^ ~ 6 2 6 5 4 , 4 W ! 5 5 < > , < > > > > < 4 5 6 , < < , > < , , , , , , 7 7 4 6 4 7 4 5 ! 5 5 ! R 7 5 O.4 4 7 7 6 6 $         X o o o @ @ # q q t u y e H  .N 0XuX0Xy y u v p w f n 4.5.8.2.8.N.V.W.B.N.M.a.u.u.u.v.M.G.B.m.c.0 # N y Z e.w.p.d.L.A.J.m.A.J.u.>.>.s.s.r.4.e.g y.f g r.J.m.P.h.n m g.,.j.d.>.S t G y.P.m.a.J.z.q.D y.r.z.h.j.k.;Xd.Y.Y.:XD.j.P.j d g.x.-XeX-XqX0X-X-X-X;XT.,XqXl.y.x.J.m.L.u.P.r.P.:Xb.R.:XpXY.R.'.2XdX.XjXjX6XsXF.A.J.;XqX;Xz.P.z.P.P.wXk.z.-Xx.z.j.Y.,X'.[.pXI.M.Y.x.G J H X   & K A S S y.d.F.<X2XpXU.R.I.{.,XpXm.j.P.eX-XK q t g.l.c.z.x.J.R.L.P.;X;XJ.z.r.c.x.x.x.g p.eX;XwXwXgX;XwXgX,XpXdXfX2X X+X#X#X@X@X}.!.7X8X@X+X#XoXoX}.aXvXjX2XpXh.# i l.t.h q.g w.L.S.S.F.m.f.a.i.m.A.d.j.P.<.a.d.d.J.j.z.q.e.t.e.h.c.e.w.K.I.F.G.C.Z.`.~.oX~.}.}././.`.Q.N.B.a.s.r.q.t.l.F t z % @ N s.N.V.G.G.Z.Z.^./.Q.Q.Z.B.b.b.p.>.w.v.2.2.<.>.S s a b F S w q e u q u u w w j 0 w q # & & @ @ @ X   . < ! , , ! 6 < B 4 , 7 7 7 6 Y ! < < < < , > 6 6 2 2 4 7 > = < > < > = O O ; > O > , , , , , > > 8 2 ; < 4 ; = > > < > > > O O O ; < , 1 1 1 * & q S r.d.<.<.3.w.q.f h f D D h 5.8.8.7.<.8.i.i.8.<.8.7.5.5.h h 5.5.5.5.5.5.4.h g g g f f f f h f f c w r y N @ @ & & ",
"t w a p p v p v p c c c c b d c p v a Z t t t v S S v z z e M e e e N y Z Z p c b c c v A A z e @ X % % M M R { | 4 5 _ ) ^ ) 5 Y ^ W 3 2 W ~ ! 6 L 5 5 ! ! 4 > > 8 7 , 8 , , 7 4 6 6 4 , > < , > < < , 4 6 6 4 4 8 , > 4 < B ~ 6 Y ^ 4 < ~ ` , < , 4 , - +       X o o @ @ @ & @ # i w t t y u A 0XU 0XuX0Xl y y Z p p m 4.4.5.9.N.8.n.N.B.Z.n.n.i.u.r.u.i.M.F.N.a.c.i # k y Z e.w.p.a.L.m.L.K.m.J.u.q.q.x.z.s.w.r.D y.n q.p.m.m.A.h.m h h.p.J.f.g d w S e.J.m.p.j.h.g D y.q.z.j.j.s.P.j.:XY.:XS.A.;Xd d l.qX0X0X0X0X0X0XiXeX;X>X,X-Xl.J *XP.S.:XJ.P.w.z.:XI.:X,X<XS.I.'.2X.X_.3X3XjXfXS.d.J.qXwX;Xz.z.z.L.L.wXJ.x.x.t.t.p.Y.<X].].{.U.V.Y.c.F J V     % H K S F y.u.S.1XdXdX'.T.I.{.I.pXi.u.t.qX-XK e u G x.c.z.d.m.J.P.x.;Xz.;XJ.u.z.P.P.qX5.;XpXL.:XpXgX:X:X,XpXdXdXvX3X8X9X$X#X+X+X~.&X8X+XoX).#X%X@XoX4X3X X].pXz.# y 0Xx.e.t.g q.L.:XI.S.A.m.a.i.m.m.7.d.A.,.a.A.p.s.r.x.e.q.e.r.x.h.q.p.K.I.U._.C.Z.`.OX}./.!.0.Z.C.C.C.0.V.a.s.h.q.e.g.F p N e @ N s.b.F.F.F.B.B.G.^.^.C.B.n.b.b.a.,.u.v.N.N.i.w.D c d n D S a r e e q N t d d d d p w 9 # # # # @ o o     X 4 B 7 4 5 O , 5 4 7 7 2 < 4 5 2 , < < 4 < = Y ^ 2 = 4 6 > < 2 , = O O = = < ; = > , , , 4 > , > > > ; , > > > > ; ; > = O O = > > > < , , * % y S t.>.>.>.q.n f d f D n g w.7.7.7.<.7.u.i.8.7.8.7.5.5.h h 5.5.5.5.w.w.4.h g g g f f f f d m b c w r y N @ @ & & ",
"a t a t t v a c p c c s c b d s t a y v w t w a F S v v z e N x q i y y Z Z p s b c v t z N x % & X $ 1 V / / / 5 ' ] W 5 W W W ) ^ 5 6 5 W 5 4 6 5 L ^ ^ 6 , , , O , , $ 8 > 4 6 4 7 , < < > > 7 , , < , , , < > , , , , ! 5 , 5 6 < 6 ) 5 < 4 5 6 7 O       X o @ @ @ @ @ @ @ # # r i t t a y k 0XiXrXuXU F y t Z p p n e.6.5.v.N.<.N.v.N.N.n.b.7.w.r.w.u.M.V.n.a.c.w # k z G e.w.7.a.A.u.A.A.i.d.p.q.q.x.z.s.w.t.q.y.q.s.d.m.K.m.s.m h x.P.K.:Xh.f c S g.P.A.a.j.s.f D g.q.j.D.A.p.J.k.;XL.L.a.k.qXf d l.l.0X0X0XiXyXrX0X0XqX:X:Xx.l.G -XP.Y.:X:XP.d.P.:X:XY.,X'.v.T.'.]._._.2XsXjXdXK.L.;XP.P.P.z.J.J.L.L.L.A.h.h.g.x.A.Y.,XsX.X].[._.I.z.g.J H     % U A a S c.j.R.<X2X<XG.N.{.dXF.R.m.z.t.-XJ V k u G x.x.P.f.d.f.;Xx.qX-XqX3.u.P.P.:XP.a.D.:XpXD.gXwXwXY.I.pXpXpXfX.X@X+X#X#X@X@X~.&X7X@X+XoX#X%X+X).|.|. X|.pXz.# u 0Xy.t.x.D g P.:XY.Y.m.J.b.i.S.m.,.f.m.,.J.z.s.z.t.x.t.q.g e.x.x.4.u.m.F.U.{._.Q.OXOX~.~.!.0.!.Q.C.B.V.I.u.w.j.r.e.y.F p N e @ z t.m.J.A.m.b.n.V.G.G.C.B.n.v.b.i.7.i.v.v.v.i.w.q.b d n D F Z N u e q y p d d h h d w w q q 9 # # @ o o       $ 4 6 4 R , , 6 5 2 2 6 < 2 5 5 2 > > , 2 = < 5 6 < > 4 2 2 , = O > ; + = 2 4 , > < < ; 2 , < O O > > > < < > = = > = O ; O O O > < < 8 4 1 e z S d f b F S f s f e.e.4.u.5.,.7.8.7.7.7.8.7.7.,.,.>.h >.>.4.5.5.w.w.4.g g g g f f f d d b c c w r u N @ @ & & ",
"u u y u a Z a v w p c c c c s p p a c v a p p a c S p v A z z K A t a a a S c p c w z e e N e % @ X B *.] ^ ~ 5 ) ) ) ) W 6 ^ O.W 2 5 W 2 3 5 2 , 4 5 5 4 < > < 8 < $ + 8 < , , , , , , > ; > , , 4 , > > > < , < 4 , 4 ^ 6 > 5 2 < W ) 4 ; , ^ ! > .         X o @ @ # @ # & # # q w t p a v v y 0XiXiXuXJ l t a Z c p b n h 5.b.n.v.<.v.v.N.V.n.a.s.w.w.d.K.S.b.j.x.t 9 z A S e.h d.A.L.7.8.Y.d.u.q.g d c.h.s.r.w.c.c.s.p.7.K.b.L.p.4.h ;XA.K.A.P.D p l.x.f.m.a.x.r.e.t.q.w.j.a.A.k.z.a.:X7.D.j.z.qXf d 0X0X0XrXuXrXX. .rXiX-X:XwXl.G F x.A.S.:XL.:XP.P.wXD.I.1X1XY.T.'.dXpXdXdX2XfXfX:XqXz.z.z.R.P.j.J.J.i.:XL.k.;Xx.;Xj.:X1X2X4X]._._.T.z.D A z X   & H A p F g j.K.,X'.[.U.pX{.pXI.wXm.z.l.l.H { x r l.x.j.L.f.P.P.c.qXuXeXx.x.qXJ.P.;XA.;XD.wXgXgXL.:XL.R.pXK.pXpXgX2XhX).+XoX).!.}.!.hXXX@XoX%X%X%X+X X}.~.4X1Xp.9 N l.q.D x.F f s.A.S.b.A.b.m.K.M.i.d.d.d.a.p.d.s.h.e.c.y.g f y.g.r.r.j.b.F._.'.`._.OXoXoXoX~.!.}.`._.C.V.b.p.p.h.r.e.e.S v A % @ N t.z.f.f.u.7.i.M.I.U.V.n.n.n.S.b.8.i.i.i.<.7.r.q.f g r.h.D p y e q u y p j g 4.g f d p w w 9 q 9 & @ @ o X X   + - 4 , L 6 < 6 5 2 2 2 6 , , 6 5 7 = < 2 2 < 2 Y Y 7 2 , 4 5 < = O O O > = 2 6 4 6 , O > 2 2 > O = , < > > < < ; = > $ $ $ O O 8 < , O < * e z u t A Z S a Z S D h 4.5.7.,.,.7.7.<.7.8.7.7.5.w.5.h >.>.5.u.5.5.4.4.>.>.n D g f d f f s s p q r e e @ @ @ & ",
"u u y u y Z t a p c c s c s p p p v c c s a a a c Z t v v z z K Z t a a p S b c w u e x M e & $ . &.tX^ ^ ! 6 %._ ) Y Y _ #._ 6 W 4 2 2 6 6 6 4 5 5 , O O < , > $ O O , 4 , > < > > < , , < > > < < < , 7 > > 5 6 , 5 ^ , , ! , 2 ~ 5 ; 2 ! 5 , O .     X o o o @ @ # & # # % & 9 r p p p d p v y 0XuXiXuXJ l u a Z Z p c D f 5.8.v.i.i.v.b.N.n.b.d.s.e.w.s.A.S.A.j.l.r # z A S y.6.p.u.A.A.A.A.j.p.g d d x.c.>.r.w.s.t.r.d.i.Y.v.m.r.4.m x.A.K.L.;Xe.j F x.d.A.j.j.e.y.c.t.s.j.a.A.p.j.s.;X7.D.p.r.x.d w 0X0X0X .yXyXyX*.{  .0X-XqXl.G S x.D.F.T.Y.:XA.A.wXJ.A.1X,XR.R.{.pXpXpXpX<XpX:XP.;Xx.h.P.P.z.u.J.L.S.:XD.P.;X;Xz.L.Y.'.^.4XdX[._.T.j.D G z X   % H G F s q.P.Y.,X,X<X_.9.<XpXI.R.R.P.g.l.H { M q l.g.p.J.J.L.J.x.qXiX0Xx.x.x.s.P.wX:XP.wXMXqXgXwXgXwXL.gXgXgXgXpX<X.XXX XoX}.OX`.Z.=XXX@XoX%X%X#X+XXX X X/.dX;X# y eXf t.-XF h >.a.S.S.K.m.m.K.M.i.d.d.d.d.d.z.t.t.D c.y.D D y.c.y.e.p.b.F.F.U._.Q.OXoXoXoXoX~.|.`._.N.n.a.p.h.p.r.q.F F v A q @ z y.z.z.z.j.u.u.m.M.n.S.n.9.b.S.n.b.b.u.u.u.a.s.r.n n w.h.n d A N e u a s d g 4.>.g d d p p t w i # # @ @ o X X X + $ 7 , 4 6 4 2 3 6 4 < 6 4 > 4 Y 6 2 < 4 6 2 7 Y Y 4 4 , , ^ 4 > O < > = = < < , < , ; ; > < ; O O , < = O > 2 < O $ - $ + O O O ; 8 O $ M x e e e A Z a a a s b y.w.5.5.,.7.7.7.i.,.<.5.,.,.5.h >.,.5.w.5.5.5.4.>.g g g f j d d f s c a q e e e @ & @ % ",
"u u u r y v w p p c c p p p p p p p a s c s p p S S p v v y z A c p c s a Z A A z e M % % % $ B tX:.6 6 5 W ' _ Y 6 Y ) ~ 5 6 W 6 W 3 2 5 4 3 5 4 < > < , < O O $ , 7 7 7 < 8 > , < < < < < 2 2 , > < < < 5 Y > 2 6 5 , 6 4 = 6 ! 3 2 6 5 2 $ +     X X o o @ @ # # # % # % e e q r t s s d p A y 0XVXuXuXF l t a Z Z a c b s n p.b.i.i.i.i.i.v.a.A.s.q.w.p.p.A.A.s.y.9 # z A Z D w.k.u.a.A.A.d.s.t.g j j g.t.g w.r.t.g 4.j.m.I.b.a.r.n n h.m.A.K.P.4.0 n x.d.m.A.k.q.y.c.t.j.j.p.d.w.s.r.;X5.j.h.y.l.p t 0X0X0X{ rXyX*.*.{ X.0X-XqX0XJ g.x.;X>X:X:X:XA.A.wXz.k.:X,XY.L.:XR.R.wXpX:X:XS.z.x.x.c.p.j.P.j.d.P.L.;XA.A.z.;XP.:XT.'.4XsXsX<XG.v.r.F G x     % K F g.g.P.P.L.R.n.C.N.1.{.{.I.L.R.x.e.G K V C r -X-Xx.f.L.L.J.c.x.0X0Xl.x.x.c.h.;XwXx.qXMX-XuXqXeXqX;XwXgXgXgXwXpX.XaX).}.`.Q.Q.0..X XXXoXoX%X%X+X@X XoX}.<Xz.# r 0Xe.g.x.y.f >.u.m.m.K.m.A.S.m.a.s.h.h.h.s.s.t.t.D y.e.m m y.g.e.n 6.u.a.b.m.E.C.OXXXoX~.oX).}.`._.v.i.u.r.g.r.e.D F S v K e @ y y.z.c.z.z.p.f.m.m.b.M.b.9.v.S.M.b.v.d.d.a.d.h.t.m g 5.w.4.s A N u u Z s h g 5.>.g j j d d d p w q # # # @ @ o X     + 7 7 < 6 W 4 , , 5 > > 4 < 4 Y 7 6 2 2 Y 5 7 Y 2 ! 6 , = ! 5 , < 4 ! > O + > > < , > + O 2 2 O ; > < < > O = > 8 + $ - $ - , $ $ 1 $ $ 1 1 $ 1 e u N u t Z F g q.w.>.,.,.7.7.u.,.7.u.,.>.w.>.>.,.5.5.5.5.5.5.4.4.g g h d d f b s c a q e e % @ @ @ % ",
"u u u r y v w p p c s p s p p p p p p p s c s p Z Z p v y y v Z c c S c v A z z e x % * $ 1 / %.^ > L ) ) ) W Y 6 W ^ ! 5 5 5 5 W ^ 6 3 6 3 < 6 O O < 6 6 > + O < 6 6 , 8 > > < 4 , > > < < 2 , ; , , , 4 , , 5 ^ 5 > 4 2 > Y ^ 6 < 4 L , + .     X o @ @ @ @ # # # 9 q 9 q e e q r t s b s Z A y 0XVXiXiXl l d p Z Z a a c p f s.m.i.<.<.i.i.i.p.j.p.4.r.r.w.h.j.h.G 9 # z A Z e.4.r.p.a.a.a.A.r.y.S p w F e.q.q.q.t.h >.j.A.S.m.u.t.m n 5.a.b.m.P.e.j n x.d.b.D.h.e.t.t.t.j.j.p.j.p.s.q.x.r.h.x.g.l.p y 0X0X0X{ rX*.| X.| X. .0XiX0X0X-X;X:X:X:X:X;XL.A.;Xx.P.Y.:XP.J.wXL.P.qXwX:X:XL.x.c.x.x.p.j.;Xx.s.J.A.j.a.k.x.z.P.:X<X5X2XvXfXF.n.S.x.F J N X   % K K l.c.z.u.K.wXn.U.{.2.dX{.R.wX;Xz.t.l.J H N q -X-Xk.s.J.L.d.s.x.0X0Xl.qXqXx.c.x.eXx.g.uX0XeXx.l.g.;XR.pXpXgXdXdXaX|.}.).`.`.`.Z.XX|.|./.~.~.~.). X|.!.4XT.r.9 q G qXx.x.y.n >.u.m.S.L.b.m.m.a.a.t.t.x.t.q.e.t.c.D D D f f e.g.y.D D q.r.w.u.m.E._..XoX~.).~.OXQ.U.i.w.q.e.y.r.n l S S Z K q @ y y.s.f.f.f.d.d.A.J.m.b.b.v.b.S.M.v.i.a.f.i.p.t.e.b f 4.r.q.f a u u t c f h >.5.5.g j j d d f d p w i 9 # # # & @ X X X . < 5 , , 5 4 5 < 4 , < 4 < 2 6 2 6 6 2 5 Y < 5 < 5 , < O Y ~ > , ) ! ! < O + > = > < > O ; 2 < ; ; < < ; O > O > $ O , 1 $ < - $ $ $ $ 1 7 1 1 # e x A y S b q.q.>.>.5.5.5.p.,.7.u.>.>.>.h >.>.5.5.5.5.5.5.4.w.4.g f f f f S s v v q e e % @ @ @ % ",
"u r u u y v p c p c c c c s p v p p p a c c c a v v u v t a Z Z c S F v z N e e x % 1 $ 7 $.| 5 ; ! 6 W ^ 3 W 6 Y ^ ~ Y 4 4 5 W ^ L 4 2 2 , < ; > < < > $ > > < 4 < 8 - < > > , , ; O > 2 2 > O , = 4 5 > , Y 6 6 O Y ) 6 5 6 4 , 5 2 O +     X o o @ @ @ # & # % 9 i r q q e e r t p d b S Z y y 0XVXuX0Xl S s a Z F v v v a s q.u.u.<.i.i.i.d.p.j.r.4.r.e.g 6.p.h.l.i # z A F y.h >.u.j.A.a.A.r.D s p t F F t.q.q.t.h 4.j.A.M.b.3.t.f m 4.a.m.A.z.g.d n ;Xa.b.A.s.w.t.t.t.j.j.a.A.h.h.q.l.y.l.g.F J y y 0XJ -X0X0X .*.*.X.}  .0X0XE -X-X-XP.A.P.P.P.J.d.;Xx.;XP.;Xz.h.wXP.qX;XqXP.:X;Xx.y.x.-X;Xj.x.s.s.P.P.p.h.z.x.z.d.S.'.5X0.9.n.n.T.A.c.G J C X   & N G y.s.J.d.wXpXV._.<XG.dXT.I.wXP.x.g.g.l.H k q -Xx.g.x.h.J.J.s.x.qX-XqXqX-XqXx.qXeXl.l.iX0XiX0Xl.F x.wXpXpXpXfXdXaX}.).}.}..X.X/.8X X4X|.~.~.~.).|.|.~./.,Xh.# e 0XeXqXx.y.h >.u.m.K.L.a.m.b.i.p.e.e.x.y.g D y.x.D f F D D y.g.g.F F y.y.y.q.f.m.V.OX}.!.)./.OXC.T.u.q.D D e.e.n l S Z Z K e # y y.f.j.d.d.A.m.b.b.m.i.b.b.m.S.M.v.b.u.u.7.5.e.F S b h q.q.f p t p s b f h >.5.w.q.d d d f f f d d w w q q q q # @ o o X   o 6 5 , , 4 5 4 5 7 < 5 < = 5 5 7 6 2 < 6 2 4 < 6 2 , = ! ! O < 6 ' 5 > = . ; , > O ; ; O < , , ; = > > ; > O > < > > < + @ * $ o $ $ $ 7 1 % 1 % e y A c D D g g 4.5.5.w.5.5.5.>.h h h 4.>.5.5.7.7.,.,.,.4.q.g f f f f s s v z q e e % @ @ @ % ",
"u r u u a c p c s c c c c s p a p t p p a v v v v v t A u y Z Z c Z A t z z % % % $ 1 &.' 4 6 > 6 5 ~ ) W 3 3 Y ^ 6 2 6 5 6 4 5 W 3 3 3 > > > O ; O O O > < , 7 < > O O > > > < ; ; > < < > < < 2 5 2 > 4 ! 5 , , ! 4 4 4 , 6 5 4 > + .     X @ @ @ @ # & & # # q q r r q r u u r y p d b S Z y N U uXuX0XF D f c S G v v Z z p g w.7.<.i.u.u.r.r.h.6.4.r.r.m g 4.r.l.i # k A G D n 4.w.p.J.D.A.g.S w w p G D y.e.q.g.h t.j.m.b.u.>.y.b b 4.j.A.J.j.g.p b x.i.b.A.a.6.r.t.t.j.j.p.j.h.c.F g.g.g.F Z J u y 0XJ J J 0X . . . . . .rXrXE -X-X-Xx.x.t.x.x.p.7.P.;Xx.x.x.t.g.qXx.qXx.;XP.;X;Xx.D x.-Xx.h.x.x.c.P.P.h.x.x.g.x.j.:X'.].B.<.<.i.:Xd.e.Z K C     @ N K D g d.m.K.K.I.pXdX_.,XF.8.P.;Xx.h.g.l.K e u -Xl.x.x.g.z.L.j.z.P.j.;XqXx.qX-Xl.0Xl.l.uX0XuX0XG F e.:XfXR.gXpX<X].`.}.}.OX.X.X}.8X X2X].OX~.!.~.]./.|.|.gX-X# M iXl.qXz.t.n w.f.b.M.L.a.A.a.a.h.D F e.y.D D q.g.f D y.F F y.g.y.F G G F F q.f.m.V.`.oX~.%X).}._.I.u.D S S F F m l l Z Z K e # y y.p.J.M.M.M.M.b.v.b.i.b.b.b.m.m.b.m.a.a.7.>.D S v a f g g f s l b f f m h >.5.w.e.h j d f g g h d j p w w w q # # @ o X o     O 4 4 4 5 5 , 6 ! , 5 2 > 7 R 3 2 7 7 < 4 5 < 4 , 2 > ^ , < > 5 6 6 6 < + + > , ; O < O < 4 2 > ; ; > ; 2 ; = , > $ $ $ o $ $ $ + $ * $ 1 B % % e A t Z S f g 4.q.q.r.5.>.4.>.g h h w.5.5.5.7.7.5.,.,.>.q.n f f f f s a v z q e e % @ @ @ & ",
"u r u u a c p b c b b c c c p v p t t p p a v v Z A u A u u A a Z Z z q q e & & X ^ *.` , , 4 6 6 ~ 2 5 ) ^ ) ! 4 ^ ~ 6 , 6 ! W 6 3 2 2 ; O ; ; O + O , 4 , < , > , < O O < < < ; > 2 2 < < 3 Y 6 2 6 5 3 , 2 6 6 5 ^ 6 4 5 4 , O .       o $ X & # # q q 9 9 9 q q r u r r y y u y p d b S S Z A K 0XeX-XF D b m m F v t A y t n w.u.<.u.u.w.e.t.r.6.6.r.g.F f g y.l.i # e A F f e.r.w.>.A.D.;Xt.F w i t G S e.t.n g.g h.d.a.i.,.h e.D b e.j.A.A.u.e.j s x.u.b.D.k.4.q.h.s.p.a.7.p.t.g.e.l.l.g.G G  .z y 0Xl.J G 0X0XH H  . . .rXrXE 0X-X-X;Xl.l.0Xx.r.7.P.;Xx.g.x.F l.l.l.x.x.x.;XP.;Xg.g.-X;Xr.g.x.x.c.x.x.x.x.g.y.x.wXpX2X5XT.wXwX<.J.;Xx.r A V     & K J D d.P.P.J.i.N.V.U.'.,XR.m.A.qXh.x.;X-XK e N K A G l.g.j.P.P.J.D.D.;X;Xx.qX0Xl.l.y.e.eXqXeXl.S G y.J.pXR.wXwXI.'.'.`.`.C.'._./. X}.].'.`.OX!./.].^./.].pXl.# M 0Xl.;Xf.c.t.p.d.i.b.S.u.A.a.a.z.F F S F F e.D y.f D e.F F F F G F S S F D y.d.M.C.oX%X%X%X%X X/.G.i.q.S Z F F m l l Z Z K e # y y.f.M.V.V.N.N.n.n.v.v.b.i.i.i.a.i.a.m.m.u.>.D A y y Z l D D S D 4.n f D g >.5.w.q.h d d f g g h j j f d p w w q # # & @     o   . 4 4 , , 6 7 4 ^ 7 6 7 < 6 R 6 2 4 6 , , 5 < , , , > 5 Y 4 , , 6 2 2 < O + O , , < < O O , 6 2 ; = < = ; : = < < $ $ $ $ $ * % & % - 8 * B M % 9 u t p s f D q.4.w.>.4.w.>.4.4.h w.5.5.7.7.7.7.,.,.>.q.q.g f f f s a v y 9 e e % @ @ @ % ",
"u u t w a a p c c b c c c s p c a a a p a a v Z v y u A u u A z A A e # & % & $ | =.! < 2 2 6 6 Y 5 5 _ ^ 6 ~ ^ ) 5 2 2 5 W W 5 6 3 ; ; ; ; O O O , , , < , , > 6 , O O < , , 4 < ; ; < 6 Y 6 3 ; 6 6 , 4 6 6 6 6 6 , , 6 4 < O .     X @ @ @ & & # # q i q 9 i i r t t r r y y y a a c S S Z G K A J 0XG D g g f b S a t z y r S q.5.5.w.r.y.t.t.r.r.p.s.h.g.n 4.g.l.r # e A F D D g 4.>.j.A.P.q.F p 9 w Z c F g.m t.g z.a.u.u.>.h e.F f y.j.d.a.5.e.d b x.p.A.P.P.4.4.h.s.w.u.5.s.t.l.l.0X0Xl.G K  .e e  .J G -X-X0XJ  .{ { E 0XrXE 0X;X-Xx.G 0X0Xx.x.k.P.x.l.l.l.F l.J l.0Xl.y.;XP.;Xg.x.qX-Xx.g.l.l.g.l.g.x.g.y.qX-XwXY.dX2X1XY.R.p.P.g.G u N C     $ N K f s.u.A.:XI.wXT.{.{.'.R.L.a.qXe.x.P.x.N e K N u J G l.t.z.;XP.A.:X:XL.s.-XeX0Xl.y.q.x.eXx.g.g.l.l.z.:XwXwXgXJ.R.U.'.'.V.U.G.C.[.'.T.U.`.`./.`.]._.C.N.P.l.@ e 0X0X*Xt.t.y.r.d.d.J.z.w.j.s.h.x.F F S F F F F y.f D D D F F G F S S S G e.t.d.m.V.}.#X$X%X%X+X/.^.m.y.Z S F F S Z l s v K e # A y.i.n.U.F.9.9.n.n.<.i.b.i.i.i.i.<.<.8.i.7.4.F Z v y a S y.y.g m 4.n f D g >.>.4.q.d n f g g >.g h j h h d d w w q q # & o X o X   o > , 4 4 7 < , ! 5 6 5 5 6 6 6 7 < 2 , < 6 6 , , 4 2 = , , < 4 6 4 2 < O O O = > > > = O ; < < ; ; < = = > < < > $ * $ $ $ 1 % $ + > O $ % C e # i u t p S D n e.g 4.w.g >.q.>.>.5.5.7.7.7.7.,.5.g g D f f f f s a a y 9 q % % @ @ @ % ",
"y t t t t p p p p c s p s p p a c v a p p p a a Z t t y y r r N N x % % & @ 7 &.' , 3 6 , 6 6 6 ! ! ! W 4 W ) 6 6 6 5 ^ W 2 6 6 ; < < > ; O O O 4 > > < < , 4 , 8 < > > > < 4 < > O 2 5 6 3 < < 5 6 6 5 5 6 4 6 < , 2 6 4 > +     . X @ @ # & # % 9 q r w r w w r t y t t a s c p a r y Z Z F F a G G F g.F f S f m S c v y y r c b n h q.t.q.e.r.h.h.5.5.d.j.u.u.t.l.y # e F F f q.qXq.4.h.A.J.e.S a w r Z G b S S D h p.A.a.>.h D y.n h q.s.p.p.5.e.0 S g.s.j.w.h.h 4.r.z.h.p.w.r.g.x.G l.0XK K H V e e  .l.l.r.x.-Xx.G l.l.-Xl.l.l.qX;XqXx.y.eXiX0Xl.t.;X-X-Xe.qXl.J K J l.g.h.qXx.-XS 0Xl.-Xx.y.l.l.x.-Xx.-Xx.x.l.c.eXpXdX2X2X:XR.z.x.y.F K H M     $ C y s e.w.J.J.K.Y.pXT.I.pXY.a.z.x.g.g.g.l. .# H H q J -XF x.x.c.s.P.Y.T.>XD.z.eXiX0Xl.t.qXqXj.x.x.g.l.eXeXgXgXgXwXR.Y.'.1X,X:XS.Y.pXY.M.T._.^.|.`.C.V.E.J.qX0X@ % 0X-Xg.y.D y.s.w.s.x.x.y.l.F l.G G F F Z G t F F F S y.l.g.b F S F F J Z D t.r.f.E._.oX%X%X~.).!._.b.D F F F F m f F Z v K x # Z c.<.K.K.v.m.v.<.i.u.J.u.<.u.m.b.i.i.b.i.a.w.q.l u Z s n w.5.w.e.D S f D q.q.q.n f g m g g g >.h h h h g f d p p w w 9 & o X o o X   . + < 6 5 6 , < 4 5 5 6 5 ! R 6 2 2 2 2 3 2 2 6 < 5 4 > , < > 6 < 2 6 2 = O = = > < O + O < < , < = 2 ; ; , ; , > > * $ $ $ & 1 $ O O $ $ $ % M % e e z A c c F e.q.n g >.>.>.>.w.w.5.5.7.7.7.5.g f D f f b s c v v r q e e & @ @ @ % ",
"u r w r t y a a p c s s s p t a a a p p p s s a p a v y u r y N M % & @ o P =.~ 2 2 < < L 5 3 W 5 ^ ^ 6 5 5 2 Y 6 6 5 4 2 6 6 4 , ; ; ; O + ; 6 4 ; O , 2 < < < 5 4 < < , 4 2 ; < 5 , Y ! = < 5 4 6 6 6 6 6 2 > 6 5 5 , O         X o @ # # % # q q i w t w w r r t u t t d d d s s r y Z Z F y.c G F S G F S D f f b s t y u q v v c b F e.g r.4.r.r.5.7.j.K.m.a.f.g.t @ e F D g.e.f 0 D x.A.d.q.S a r a S G S b S q.h a.j.s.4.l F y.g h q.c.j.p.5.e.0 c g.t.p.r.z.>.w.s.x.h.r.r.r.g.x.G J 0XK N V H M e J l.x.x.z.z.x.g.-Xl.x.x.x.0X-X;X;XqXx.-XeXl.S q.g.-X-Xg.-Xl.F A l.0X-X;XqX;Xx.S l.J -Xx.x.l.g.g.x.x.h.;Xx.x.x.qX:X1X4X^.I.d.q.c.G F A N 1   . - V A D c.c.z.a.i.S.R.V.T.pXY.a.j.x.l.g.-Xl.J # N H % e A c l.x.c.c.P.pXT.T.L.x.qXeXx.x.J.wXwXd.z.c.l.l.x.qXeXeXqX;XP.wX,XT.:X:XA.J.wXwXE.T.T.^.5X].C.n.<.d.qX0X@ % 0Xl.G l.e.D y.y.t.e.l.S F Z Z Z G J a A J A A A Z G F G F b F Z F A G Z e.x.t.r.f.N./.~.%X%X@X`.'.i.D F F F e.D S F S Z A x # Z t.u.A.i.u.7.,.,.,.3.p.u.5.u.d.m.S.S.b.a.d.p.t.D l F D 6.5.5.>.g s s f D q.q.D g f f g g g >.4.>.h h h h h d d w 0 w r % @ X o o o X   . + > 7 4 6 6 4 2 5 5 7 4 5 6 4 6 6 4 2 < < 6 ! , 5 ^ 4 < > O 2 > , 5 6 > = > < 4 2 = O O > 6 , > , > > , > , < > > < 1 * $ $ < O + O $ $ $ % V % % e y t v p F D f h g >.,.,.,.,.,.5.7.7.7.4.f f D f f S c c v v r q e e & @ @ o % ",
"t t u u t t a p p c s s s p p p a p p s s s s p Z a t y y e e e x % @ & } &.4 , 2 5 6 5 ! Y 6 5 6 ! 6 4 2 Y ) < 5 W 2 5 4 > 4 < < < ; O O , 2 < O O > < , < , 6 6 , , , < > > 4 4 ; Y Y O 2 ~ 4 , 5 ! 5 4 4 4 , 6 , $ o           X @ @ # 9 q q i i r t t w r u t t u u p p d d c a u y v Z F y.c F S Z F F S D m S b v a z u q z y v Z S D f e.4.r.w.5.5.a.S.m.m.a.g.t # e F D D F j 0 g.h.p.u.e.D S p F F G S c F e.g a.j.d.q.D F y.g f t.c.h.k.h.g.p c l.t.w.z.z.w.w.h.z.r.4.h.r.4.g.l.l.0XK K N H e # A l.l.x.h.h.r.r.-Xh.x.P.z.eX-XqXz.P.h.;XeXF S s.r.-X-Xh.;Xx.G S l.g.h.-X;Xx.g.F F G 0X;Xz.l.e.r.x.x.z.;Xj.P.;XP.m._.4X_.T.m.>.x.l.F v N M     $ V A e.t.z.J.d.m.I.T.V.U.,XY.a.j.z.x.g.x.l.J q N K e # t s y.t.c.t.A.:XY.F.K.J.qXqXj.A.Y.T.,XY.wXP.eX0Xl.qXeXeXqXqXP.wX:XH.Y.wXP.j.qXwXR.{._.'.5X|.C.N.v.J.qX-X# # 0Xl.F l.F D e.y.t.y.G c K G v F G F Z A G A Z Z Z G F b F F F S G Z S s e.h.s.p.A.E.OX~.~.~.|._.T.d.y.F D D D b f S S A K x # A y.s.J.u.d.u.3.f.3.f.p.w.5.7.a.m.m.8.b.8.A.d.w.y.F F t.r.7.7.,.h f f g q.q.q.q.g h h D 4.4.w.w.5.>.>.h h f s d w 0 w r % @ X o + o o X     . O < , 6 4 6 2 4 R 5 6 ^ ! Y 6 6 5 6 2 , , ~ 4 < ~ ! = = O O = = 2 Y 5 , > 2 4 2 > O = 2 , , , > > > < < , > < 1 7 7 < $ - $ $ $ O + $ $ $ C M % e u y a s f f g q.4.,.,.,.,.,.,.5.7.5.4.f s S Z c S c c v z r q e e % @ @ o % ",
"v t t t t t a a p s s s c s p p c c s s c c p t t u y y e e e x & @ M X./ 1 5 , W ^ W ^ 5 2 6 , 5 4 4 2 6 6 < ^ 2 > 4 6 4 2 > , < = O < 2 , ; O O , , = = < , 6 4 , 6 2 4 5 3 3 , , 6 > , ! 6 6 4 5 Y 6 , , 4 4 8 +       . X   X X & & q r i i r r t p p t w t y u u y a a s d S s t y a Z e.e.b F S S F F l s b D S Z Z A z e x z N A S D m e.q.r.r.5.5.a.b.b.v.a.h.p # M F D s s s c l.t.s.u.w.D F p G c m c c F e.>.a.a.d.q.f F y.f f y.q.r.j.h.l.p s l.g.w.z.z.w.>.t.h.r.4.4.t.g.l.l.G l.0XE N H % & N 0Xl.x.h.;Xx.r.;Xk.:XwXqXeXiXeXP.J.J.wXeXx.c.P.z.qXx.h.z.qXl.l.-Xg.z.-X;Xg.D F G G -XwXA.c.c.h.x.P.;X;XA.:XR.K.i.C.].[.,XJ.w.x.x.y.S K M X   $ C Z y.s.L.P.K.I.{.{.U.U.{.Y.m.A.P.h.t.g.l.K q K K z r a c y.q.x.c.a.:XY.K.J.J.wXwXA.n.'.[.].,XwXd.qX0XJ 0XeXeXqX;Xz.z.L.F.Y.wXP.f.P.R.U.U.T.^.].].C.N.I.R.x.G # % 0X0XG G S D y.q.t.g.G Z G -XA G F c Z A A Z Z Z Z G g.s F F G F G Z G D t.j.w.w.f.b.`.~.~.&XC.B.K.j.y.F F n n b f S S A N x # y F s.h.r.s.u.u.f.3.p.w.r.u.u.a.a.8.,.9.8.m.a.w.y.F D t.r.a.b.a.w.D y.>.w.w.w.w.>.h h >.g >.4.5.4.h h h d f s p p w w r % @ o + + @ @ o .     . + O < 5 < 2 5 4 Y ~ R 4 Y ! R 5 4 4 5 , 6 ~ 5 > 4 ! > , = O O ; > < 2 > ; > < , > = O < , < < > ; < > < < < , , 1 1 1 $ $ $ $ $ + + $ $ $ M C e % M N p f m D q.>.>.,.,.,.,.,.5.7.5.>.f s S Z Z Z v v v z r q e e % @ @ o % ",
"t t t t t y v c p s s d s s p a c c s p s c p w r z N e e x % @ % B X./ 7 6 4 ^ ) ) 5 W 5 , 4 4 6 ^ < > 6 2 4 , , ! 4 5 4 < 5 = ; O ; 2 < ; O O < 2 > O > 2 2 , O 5 ' 5 , 6 4 < 2 ! > 3 ~ 4 , 6 W 6 , , 4 , 8 + . .   X X o o o o X & # q u w r r t p d p p t u y u r u y a a s F c Z Z v S y.g.F F F S F S l s d b F Z v N z e N N A A F y.y.r.r.r.5.5.7.a.m.v.m.a.h.v # k F n e.d F m e.c.d.d.s.e.y.Z G s S b s F e.4.d.a.d.4.d S y.h s y.f q.h.h.l.p t l.y.4.h.g.q.g s.z.s.r.4.r.r.g.l.G l.0X .C { M % H 0XJ x.-XqX;Xh.A.a.Y.pXwXeXiXeXwXL.L.eX-X;XP.L.L.qXl.x.P.qXl.x.-X;X;X;XqXg.F F l.g.x.wXS.z.x.z.x.j.A.:XS.T.T.F.N._.`._.T.A.w.z.x.c.G J N X   % K F c.P.P.m.n.T.pX[.'.'.,XR.S.J.P.s.w.t.x.K # K K A A c D t.r.x.x.A.:XR.K.P.J.L.Y.S.G.2X4X/.2XT.7.z.x.0X0X0Xl.P.J.J.z.A.Y.Y.:XJ.p.S.V.B.V.G.G.^.^.G.V.M.J.m G @ % 0XiXl.l.S D e.q.e.y.G Z G J v G G F Z Z J A G a Z G l.d F F S F F c D D k.J.p.,.u.<.C.!.}.!.B.v.a.s.D F D n F F F G S A N e # y S t.q.t.q.s.s.q.p.q.4.w.p.p.p.a.i.8.v.9.S.m.u.r.y.q.r.7.8.b.b.u.e.e.q.r.r.r.r.w.>.g w.4.4.w.w.4.>.h h d l d w s p 9 r q @ o @ @ @ & o .       . + + O 4 6 , 4 2 2 5 6 4 , 7 5 R 5 6 Y , < Y ^ , > 5 6 4 < ; ; O O > > = = = = > > = > , , , < > < > > > > > < , 7 7 < $ O O $ - $ + $ $ @ & C M & e u s S f f g >.w.,.,.7.7.7.7.,.g l Z A Z Z Z a Z v z e q e e # @ o X $ ",
"t u t t t t a a p s d d s s p a s s p p p s p r A z e e % % $ 1 } | ^ 6 4 6 [ W ] W 5 ! 6 2 5 6 ^ O < 4 2 , > , W 6 5 4 , 4 , , O > ; O O > < = > ; O = < , , 4 5 6 4 , 4 W 6 < W < 5 ) 4 2 W , 5 6 4 4 , O .     X o o o o @ @ X o & # q t w w t p d d s v a u y u u y y y a c F p Z A s S e.g.F F F Z S S S S d b F Z v z u e x N N v Z D t.q.r.r.6.5.7.a.a.i.n.d.x.p @ e S m l.d g.F n t.s.d.h.r.l.F F b g.F s F e.4.k.a.j.>.f S y.d f y.f q.h.g.g.c w G e.6.r.t.t.4.x.x.r.q.s.r.g e.l.l.l.G 0XH { M & I rX0Xl.-X-X;Xj.j.a.S.R.P.0Xl.qXP.wXP.x.g.-XL.F.Y.0Xl.x.;XqXt.x.x.P.P.;X-XG F F l.g.x.:XS.P.z.j.P.J.a.Y.Y.1X_.T.U.[.].'.T.Y.p.j.h.x.l.J N X   % H F x.R.a.v.n.pXdXpXG.<X,X:XL.L.J.s.q.x.0XA # K J K J S y.x.t.x.z.A.:XI.E.K.m.i.b.n.U.2X|./.2XT.m.;XeX0X0X0Xx.L.K.L.L.D.Y.H.S.d.u.n.Z.N.B.F.G.H.(.'.U.M.J.D -X@ @  .0XG l.D f D y.g.e.G Z K J A K J J G A J A J Z Z G l.d G F F F F c e.e.j.J.a.u.d.m.B.Z.`.Z.B.v.f.r.D F n b S S S F S Z N e @ N F D g t.e.c.f.3.s.w.r.q.4.4.p.A.A.b.n.n.F.S.i.u.q.q.s.u.8.b.i.u.>.>.4.u.r.p.s.w.>.>.r.w.q.r.w.4.>.h f s l t 0 Z c w u e & o o @ & & o o o X     . . + + , 4 < 2 6 < , 6 6 4 2 4 5 ! 5 5 4 > 2 ! 5 > ; Y Y 3 3 4 > = = > 2 < = = > < = < 2 2 < < > < < > ; > < 2 , > < - O O O $ $ O O O $ @ @ M C & q u v Z l f h >.,.,.u.u.7.7.,.>.S Z A v a A y A z z e q e e # @ o X $ ",
"t t t t u t t p s c s s c s p p p p p p p v a r r e e e $ $ B &.| 6 1 , < 5 _ #.~ 3 W Y , , 4 , O 6 2 < , ; < 4 > > + , 2 < 4 , < O + ; < ; = < < < , , > O < , 5 4 , 5 5 4 6 ! 3 , ^ 5 , L 5 6 4 6 6 < + .   X X X o @ @ @ @ @ o X % 9 w a w p p d d d s c v y y y u y y u a Z c p Z A p b e.e.S S F Z Z S S S s S F Z v y q # e N y u d d q.w.w.5.5.5.5.u.a.m.v.f.x.t @ e S n e.f l.G D r.s.p.w.4.g.F d s e.n d F n 4.j.a.z.g b S g.d D l.f q.h.g.l.Z w G e.r.t.t.x.q.x.x.r.4.w.t.r.g.g.F G G J K H 1 $ { rX0X-X0X-XqXx.j.K.R.L.;X0XG qXqXqXP.l.0X-XJ.F.P.0X0Xy.x.x.t.x.x.;Xk.h.l.J J G G l.;XD.m.z.j.A.;XP.J.L.Y.'.U.pX{.[.].{.{.wXj.d.z.;Xx.J N X X % H F c.A.i.Y.Y.pX{.pXM.,XT.R.P.J.P.z.r.P.x.A 9 K K G J F y.z.r.h.s.A.Y.F.V.Y.b.i.b.m.V.<X].]._.T.m.P.eXl.0Xx.J.Y.Y.S.n.Y.T.F.S.A.b.B.Z.C.B.I.F.F.U.T.I.S.P.g.0X& @ { -XS g.F m y.c.l.g.G A J J J J J J J A K K J K F l.l.c G G G J G Z x.h.J.A.u.u.d.m.V.Z./.Z.V.m.f.t.D D n b b s s l Z v N x @ N G b f q.y.t.q.>.w.q.t.n h h w.j.d.i.n.n.F.n.v.u.>.w.d.a.v.9.i.i.>.h >.w.w.r.s.w.>.>.4.g g g g g h f s p Z w 9 p a w r e & o o & & & o o o o           + + O 4 6 4 4 4 6 4 7 6 5 6 6 ~ 6 Y ! < O , , 4 6 4 Y ^ 6 > , > < 4 6 < = ; > = = 2 < , 2 ; > < < > > < < < > > > > $ O O O $ + O $ $ $ @ $ V % e u y Z s d h >.,.w.u.7.7.,.>.S Z A v y v y A N z e q e e # @ o X $ ",
"r u t t u t a a c c s s c s p p p a a p a v y r e M % & 1 ( ..[ 7 , - < L _ ) 5 3 W ! 2 5 6 > 2 5 = O > < 6 4 O ; > < , 6 5 4 O + O > < < < > O < < , , ; , 6 4 O , , 5 5 6 6 , 4 L 2 6 W 4 5 5 , 7 > +     X X o @ @ @ @ @ # # o X % 9 w c t p d d j j p v v y y u e e e i t c s w Z Z p b 6.e.b Z F S Z Z Z s c S S Z v u 9 # % y u t j j >.u.5.5.5.5.5.p.J.wXu.f.l.a @ e S D D D F F g.r.d.u.p.w.c.g.d b g.D d F m 4.j.s.x.g b m y.d D l.j h s.t.g.S w G e.t.e.e.g.n x.x.t.t.r.t.t.h.g.g.l.S A N V M % }  .E E 0Xl.-Xt.4.A.L.L.qX-X0X0XeXx.x.iXuX-Xj.D.P.0XiXl.qX-Xy.h.s.x.6.g.G 0XJ J v l.qXP.a.h.z.P.:X;XwXP.Y.R.Y.pXT.U._.C.I.:Xa.w.z.qXx.F x X   % H F c.z.A.gXL.Y.b.wXM.R.L.K.A.z.P.z.s.x.F K i A A G l.l.e.s.w.z.z.D.F.F.V.I.S.J.R.Y.n.{.U.,XU.pXP.P.eX0X0Xj.S.H.'.D.n.Y.Y.L.L.L.S.C.Z.C.n.A.A.m.F.I.n.M.j.e.J & @ rX0XG g.F y.x.t.g.g.l.G E K J K J E K K J  .J K A l.J c J G J J K Z g.t.A.S.a.a.A.m.C.Z.`.Z.U.L.a.w.n D n b b s s l Z u N e @ N G d b n c.t.w.r.>.t.g f m n n >.w.m.b.n.n.n.b.<.1.u.f.a.b.v.b.a.,.h >.5.w.r.s.w.>.g q.g g m D m g b d w p i 9 i t r 9 e & @ @ & % & o o X . X     .     . + $ < 4 6 < 6 5 5 6 4 7 4 , 6 5 5 6 6 , O 4 6 < = 6 ! 5 4 6 > ; , < > > = = O 2 > < 4 = > ; < 2 < > = < < > > < > > O O O < O + $ $ @ $ & M k e q u a s f g >.5.,.,.7.<.>.F Z Z a a a N A N z e e x e & @ o X $ ",
"t u u u u y t t a a s p s c a t a a a v v y y e M & & B | ..^ 7 > > 4 ~ ' [ L 6 6 6 6 2 , , , , 2 , > O O ; > > > 4 5 ! ~ Y < = ; ; ; ; ; O = ; = , 2 , , < < 4 5 5 , , , 5 4 L 6 5 ! 5 5 6 6 7 6 8       X o @ @ @ @ # # # # % o o % q p p d d s d w 0 p a y r y k k k e q r A p s Z c p F g.m b G F F Z Z S p Z c Z F Z r 9 9 9 9 p S D r.s.p.u.7.p.p.w.u.w.h ,.w.g.A & e A y.D b n g.6.r.a.a.p.s.t.D f D y.F d S D q.p.h.s.m b F e.b D g.y.q.w.r.x.G r F x.r.4.y.t.g y.c.c.4.r.s.h.e.g.g.l.F Z z H x % X. .E J -X-Xg.l.e.d.wXj.qXrXyX0X0Xx.x.iXiX-Xl.h.x.0XK l.qXqXy.q.e.h.e.e.l.K K A K J -Xx.x.g.h.:X;XP.;XP.d.:XwXK.Y.,XG.U.v.A.,.h 5.w.x.-Xe X X & N F x.P.qXwX7.P.d.d.d.L.wXJ.P.z.x.x.t.x.e.G 9 A J J l.g.r.p.7.z.p.D.b.T.v.S.K.:XP.J.A.R.K.K.:XP.x.eXl.S x.J.S.,XT.9.H.Y.:XP.s.:Xm.U.B.I.m.u.w.7.u.i.<.b.P.l.0XX $ rX0XZ l.y.D x.t.l.-Xl.K J H K J E E A K H K K K N J J A -XG J  .K K S e.j.A.7.d.p.J.n.^.]._.G.Y.A.u.y.D D D c S F F F a x % & N A S m q.t.w.u.p.4.q.D s S f f q.4.f.v.9.F.M.m.<.u.u.f.d.8.b.b.d.>.h >.r.>.>.w.q.e.g j f f d d d d s S a a t u q t A r % & @ & & % & @ o X X       . o X     + + O , R 6 7 , 4 5 5 6 5 4 6 4 , 4 6 2 ; 2 Y 2 O 4 ~ ! 5 6 2 ; > > = O = < < < < , < ; 2 < ; = > 2 < = < > < < > 8 8 O O 1 < $ $ $ & @ & 1 M % # r v c f g >.5.u.<.,.>.F a a Z v Z A y N e e % e % & @ o @ & ",
"u u u r u u t r p p s v v v a t t y y y y y e % @ % / | | ^ 7 > , P ^ ^ [ L 4 5 5 5 3 , , , 4 4 4 > O > < > > < 4 6 6 5 6 < ; < < > ; O ; ; > > > < > > > , 4 Y 6 , , 4 ! 2 5 W ^ ! 4 4 , 5 4 , + X     o o @ @ @ # # # q % 9 e @ @ e r s s s s s d d j c v y u y e e e e % q v c Z S Z s D y.n m F F G G A A a Z v Z F A y e q v Z S y.q.h.d.a.7.u.p.r.>.w.r.h >.y.F N # % v S F D F g.r.h.a.a.d.r.y.g.F S F g.s S b n r.s.t.m c S g.D m t.t.r.p.r.l.F t l.x.g.4.e.g.g e.x.c.e.r.r.h.t.g.e.g.F J K H M & X.{ H  .0X0XJ y.q.h.j.z.qX .rX .0XqX-XiX0XJ J x.0X0X .0X*Xx.D y.g.x.D F l.J N N K J J g.g.l.h.L.A.P.qXx.h.;Xj.,.d.R.T.I.b.j.5.4.z.h.l.J e X   & H y.x.h.P.P.5.P.J.P.z.;XqXt.s.c.x.c.4.;XF Z 9 G -XJ l.g.r.f.u.z.p.Y.n.T.S.S.A.J.A.j.A.K.a.p.h.x.-XiXJ G x.L.T.Y.:XD.L.8.P.qXx.;Xd.I.I.E.J.s.q.>.w.u.<.b.j.x. .o $ rXE v G F g g.y.g.l.G A K H J E H H H N V V K N N E K N J K J E K K S e.j.J.a.j.s.d.n.C.].(.F.9.8.p.y.S F F S S F S S A N x & N A c m q.r.5.u.u.w.c.y.S S s b D q.s.i.9.n.v.m.<.u.p.f.i.<.b.b.a.>.>.g w.g g e.e.e.g f D b s s s s Z a i u y u q t r r e % X @ & % & @ o X X   . . o + o o   + . + O , B ^ 4 < , 6 6 4 , 2 6 4 4 , = < < = 6 5 O O 5 ! 6 6 3 2 3 6 < , = > = < 2 > > ; > > ; = = = = = > ; = < > $ < $ O < 1 $ @ $ & $ + * M M % 9 u t S e.q.4.5.,.h m a c Z a a Z y A N M % % % & @ o @ @ ",
"t t u r r u u r t p p a a a u u u y y z e e & & M / | ( 6 , , 7 7 P ! ^ ~ 5 6 ) 6 6 3 2 2 2 , , O O > < < > < , ~ 4 , 6 6 , < < < > ; O = > > O < > > < 2 4 4 , < , L 6 4 ~ 5 6 L 4 6 , 6 < > +     X o @ @ @ @ # # # # q q q q @ # r w s s s p w d s p v y y e u e e e % % q u Z Z Z Z s F e.e.b s s G G Z Z t Z v Z K A A y q v G D g.w.J.p.a.5.5.r.5.4.r.s.s.p.t.F z & % A b D F F g.g.h.7.a.w.s.g.S s S F F a Z s m r.s.t.s p S g.D g r.s.d.A.d.x.D w l.l.h.n m g.f D l.t.t.t.r.h.g.l.D D F S A K k &  . . .J J 0Xl.y.x.qXc.x.0X .rX .l.qX-XE  .H J l.0XrX .l.x.l.F F y.l.g.F -X0XA A K J J l.l.l.g.;XA.z.x.l.l.x.r.w.P.:XI.K.i.d.5.w.P.h.F K e X   & H l.s.s.z.h.z.z.h.z.w.h.x.h.x.x.x.x.q.;Xe.a # G l.G x.h.w.d.a.z.p.:XS.m.A.A.P.;XP.a.D.A.A.P.x.0X0XiX .J g.J.:Xa.;XP.k.r.-XeX0Xx.s.A.K.K.P.x.D D t.d.i.m.A.l.J @ + X.{ Z G F D y.e.g.F c A K J K H A H  .U H H V N N { H N K N H E N K S D p.j.u.s.w.7.S.C.(.G.'.F.F.a.q.f S S v a l l l Z N x # N K s f q.s.u.d.A.p.t.y.b s p s D q.s.u.v.b.9.m.7.,.r.s.u.<.a.a.p.>.q.g e.g g q.D q.m f f s p s s c c v q z A t r Z t u e e X @ & % & & o o X X X o + @ @ @ X o     . $ - 7 ! ^ B 7 , 6 7 4 4 < < , 3 < = 3 > = 4 2 = 2 ~ ^ 2 2 6 5 ! 6 2 O = < ; 2 , < > > ; > < < > ; O ; < O > , < > 1 $ $ 1 $ @ $ $ + + $ 1 M % # q t Z S D w.5.g b a c c p p a a A N N e % % $ o o o @ ",
"u u r r r u u u y a t t t u u u y e e e % % 1 B ( / ^ 6 , , 7 4 ^ P ` [ 4 ! _ 3 6 6 2 , < > > ; < 4 4 ; = 2 5 5 4 O O , , > ; O ; ; ; ; ; < > O < < 4 5 4 2 2 > 4 , 6 6 ^ < ^ 4 , 4 , 6 $ $     X X o @ @ @ # # # # 9 9 r i q e # # y t c c c p w t a t v r e e e e % % % % e y v Z Z a a F g.D S c c G F v Z Z Z Z Z A v z y r p F m n w.z.p.p.p.w.r.t.w.4.w.s.f.s.F z & M A F S F S F g.x.u.f.>.h.g.l c G F s p a s n t.g.e.d p S g.D q.s.d.A.S.A.;Xq.w G t.x.e.f g.d m l.q.t.t.r.t.e.g.F D S c A H e & U  .U -X-X0Xl.l.*XqXy.l.-X0X0X0X0XqXl.H  .H J l.0X0XJ l.x.l.G F y.x.l.g.-Xl.J A K K l.l.J l.g.;XJ.x.x.y.l.x.r.h.qXL.Y.R.J.P.h.z.;Xx.F K %     $ H l.s.h.z.h.qXqXz.qXx.t.x.x.x.x.x.x.t.x.l.Z # A l.G qXs.,.m.m.j.u.:Xb.,.f.j.;X:X:X8.d.D.P.qX-XiXiXrX0XJ l.;X:Xs.qXx.g.g.x.iX0Xx.x.J.L.J.J.g.F S y.j.J.S.j.g.H o o o. .A G y.D y.y.g.S v K K E K H N  .H H H V V V H H H N K N E H N K J F s.s.w.s.w.u.a.F._.0.'.T.T.7.t.S S F v Z F S S Z z e @ N J s b e.s.w.j.:Xs.h D s s p s D e.r.7.a.b.b.A.u.>.q.s.s.5.u.a.s.q.D q.y.n g D D D b D f s s s Z Z a w 9 z N u r A Z r e % o & & % & & o o X X . + $ & & & @ o X       O 1 1 7 P ! 6 , , 6 5 2 > < 2 , 2 + > 4 O < 6 2 < W _ 5 2 6 6 ! , , O O < = 2 < < ; = ; < < ; = < ; = < > O , < $ $ $ $ * $ o + O $ + + * 1 % % 9 i a F D n f s a c s s s a s v y k e e & $ o o o & ",
"r r i q q r r r y z y u u u u e y e % % % M / ] P 6 7 4 B P ! ! / ] ! 5 ` W > 6 3 2 < ; O O > < 5 5 4 < , 6 2 O O O < , O O = = ; > > ; ; > > = > , 5 5 < < 4 5 4 6 5 6 8 [ 4 , 4 1 7 O O   X X @ @ @ @ # # # % 9 q q q r r r r # % y t c s p t u t a t y r e e e e % % % % e y y Z Z t p F y.n S F F G Z Z A v A A A A y y y u Z S f j w.r.p.w.w.r.r.r.w.4.q.r.u.r.D z & e A G S G Z F G x.t.s.w.t.F G l.G c a t a p m g.g.D p p c F n q.j.J.M.n.S.P.q.j y.t.z.g.n g.d D l.q.t.t.e.e.n y.F F Z Z A H q q H J J l.x.x.y.x.x.c.y.-XG -X-X0XeXqXl.rXyXK J G 0X0XE -Xx.y.G G l.l.g.x.-Xl.J A J J l.J G l.g.P.j.x.x.y.l.z.p.w.s.j.wXY.K.P.;XP.P.c.F K %     & H c.z.P.;Xh.;Xs.x.qXqXx.x.x.s.s.z.P.h.x.-Xl.9 F l.F x.t.,.m.m.z.a.:XD.u.d.d.j.P.;X6.p.P.h.x.l.iXrX{ E J x.;Xj.h.qXe.F -X-X0X0Xl.x.j.A.b.p.S Z F F s.J.M.j.n K X o  . .Z F y.D q.q.g.S A K A H H E K  .V V H V V V H H H N K N H H C K K F h.s.r.r.t.s.i.I.pXB.T.F.Y.7.y.b b F v Z F F D S A x # N J S F y.r.>.f.L.p.>.D D S S S D w.w.5.d.d.A.A.u.>.t.t.t.4.>.p.s.e.D q.q.D g n D m D F b c c c a t w 9 q z N A y a y w # % @ & & % & @ @ o .   . o @ & & & @ @ X o X     o $ > 8 7 ^ 6 , , 2 4 , > < > 4 6 + = 4 ; 2 4 4 ; > ~ _ 6 < 4 5 < < = + < O < , 2 < = = = > , = < , O = , $ O $ 1 < $ $ 1 $ O O O O + + $ 1 * & % e A c s c a a a s c s s c s y y e e & $ o o + @ ",
"r r i q q e r i r y y y u e e e % e e 1 B / ^ 6 7 7 6 ! / ( ( | / 7 5 ~ W , 3 3 > > ; ; O O > , 2 , , 2 2 , O + ; < 2 < O = < < > ; ; ; O = > > < < , 2 , 2 6 6 5 , > L ! < 4 4 4 1 + +   X   o @ @ @ # # # # # q i q q u u u u # # y p c s p y u u u r r q e e e e & % % % e y y Z Z w p F F m s F G F Z a v u v v v v t u y y Z s D h s.q.w.g h r.r.4.r.h.s.u.u.u.e.v & e A F S G Z Z Z g.y.y.t.t.S Z G G c c a a p b y.g.F p a c D g >.A.M.n.G.T.A.w.d y.h.h.x.D g.f D g.q.y.t.e.q.m e.e.F Z G K N q q  .l.y.y.c.c.q.x.s.x.-Xl.J -Xl.-XqXx.x.rXyXJ J G 0X0X-X-Xz.y.G G l.l.g.-X;X-XF F F J J l.G l.g.x.x.x.y.x.x.z.d.p.r.s.L.A.m.J.;X;Xz.x.g.H %     % K g.J.L.wXP.z.w.s.x.s.z.s.P.s.p.A.L.J.x.qXl.9 G l.D t.s.,.b.b.J.d.:XS.b.A.A.d.j.P.p.s.z.g.l.l.0X .H E l.x.;Xw.x.-XS F l.l.-X0Xl.c.a.b.m.w.s Z G F q.J.S.m.e.J o o  .U Z G y.n y.q.e.F v A K H H E K E  .{ { { V M C H H N A K H V V N A S g.h.r.r.t.t.d.m.Y.F.R.S.S.a.D p c Z v Z Z l l S J z # N F S F D e.5.u.f.5.w.n D S D D q.p.u.w.s.p.a.p.r.q.c.y.q.g h r.r.e.D D D D g n D m D n s c S c a t r u u z y K A Z t u q % @ % $ % & @ @ o .   o o @ & & % @ @ o @ o         + , 7 < R 5 2 , 2 , , 2 > < , 6 > O 2 = ; , 6 2 = 2 ^ 5 , , 5 , < < O O = < < , < < > = = , > = < > O > > < > > 1 $ + 1 > O + O > O O O $ $ % % e y A Z y y y a Z s s s S a y e e & @ o X o @ ",
"u u r q e r r r r u y u e e e % % M C B P P 4 8 4 W [ ` ( ( / / B ! ~ 6 > 2 6 O ; ; ; > > ; ; < 2 , , < > = < 6 < , < O = < > > > = O = ; ; > , 2 , > < 6 6 2 < , 4 4 4 , 5 > < $ + .   o X o o @ @ # # # 9 9 9 q r r w t y u u # 9 z c F Z Z A u u u r y q e e e e % % % & e N y A v t Z S m D c F F F Z v A u t t z v y t y y c s D y.c.q.q.g e.t.r.4.r.s.w.,.i.a.e.v # e A S Z Z Z Z a F F D t.g.Z w Z F Z c v v p b e.y.F p v c S g 3.J.M.B.(.1XA.w.h D h.h.x.e.y.f D e.e.y.y.D q.D y.D F S J J N q q J l.y.h.z.P.s.s.r.j.P.y.0X-X-XqXx.P.z.0XiXJ J G -Xl.l.k.x.g.g.F l.l.x.;XP.z.n F S J l.0Xg.l.l.P.P.x.F *Xh.A.S.J.z.s.z.m.A.P.;X;X;Xx.g.K %     & K t.A.J.J.L.R.P.qXqXP.s.p.qXJ.d.A.L.P.P.-Xl.9 F l.D t.h.u.b.i.J.d.:XY.b.S.L.j.j.x.x.x.g.l.l.l.0XE H 0X-Xx.qXr.P.qXl.l.F S F x.x.h.L.F.b.p.b A J G r.K.F.D.l.J @ o rXJ v y.y.D g.D D F a A H H N H H H E V V V C M V H H x A H H V V N A Z l.g.g.g.g.g.s.<.8.v.M.m.b.u.F v v A Z Z Z S l c G r # N a S Z F D h ,.u.,.4.g D f b q.w.d.p.r.r.5.p.5.w.q.y.e.f g g r.n D F D g D g n D m D F s b F c Z F v A u r i y A A t u i e @ % & % & & @ + X . + o @ & & % # @ @ $ o +         . O 7 , 6 5 5 5 2 < , < < , < 3 < O 2 < O O 3 ! 2 < 6 < , , 6 6 < < = O O O = < , < = = O = > O > > O , O > , > $ > O O $ > > O + O O O $ $ % % e y y e z y y Z s d f S s v r e # & o X + + ",
"r r i q q r e r r r u e e % % % M M B / B , < 4 ~ ( [ ! P ^ I P P 5 6 6 , > > > , > ; ; > ; > < O < , , < < , , = , < > < < > < > O O > , < , 2 2 4 < < 2 2 , 4 < 5 L > , < < O .     X X o @ & @ # # % 9 q r r q r w w t y t u # # y a S d r y y u u u A z x N x e % % % & e z y a p a S Z c G c Z Z A A y N u z u z A A v v v F S D e.n >.y.t.t.q.h 4.h.w.4.f.i.a.e.v & e Z c Z A A A y F F D y.e.s Z J K v F v v p S g.g.S t Z Z F g w.J.V.B.B.1XD.w.j f z.P.x.g.g.D e.F g.y.e.n e.e.g.S S F A A N # e J qXx.h.z.qXP.p.w.P.x.t.qXg.-XuXqXwXh.0XiXK J J 0Xl.h.P.P.y.F F x.x.P.P.A.r.g.F S F 0Xg.y.x.x.z.z.x.x.x.s.A.S.A.J.P.;Xa.A.j.z.x.-Xx.S K %     & H g.A.L.a.A.;XqXP.x.qXqXJ.wXm.d.J.P.d.;X-XJ 9 Z G F x.z.d.d.u.J.a.Y.Y.L.S.:Xs.s.g.x.x.F y.l.J 0X-XJ J -XD -Xm l.-X-X0X0Xl.n x.x.h.D.b.a.s.S Z J l.s.L.H.8.h.K @ X rXK a G y.D c.g g D F A K N A H J K E { E U C C H C H z K H K N H x A s y.4.e.4.e.y.w.d.d.i.7.a.a.p.F p t v y t Z S F d A 9 # H y Z Z G S 0 j i.p.>.e.e.s f 6.u.m.u.s.t.w.j.w.r.q.y.y.f g n y.d f y.q.>.q.g m D f F m p s c p p Z v A r z y u v S i 9 q e @ $ $ % @ @ @ + . . + $ @ % & % # @ @ & @ X o +         + > , < > 2 2 < < 4 < < < = > 3 ; < < > = ; 4 5 4 2 ; > , 6 , > < > < < < > > < < O O O O > > = O + > > 8 > > O > - $ O O O O O O O O + $ % % & % e k u y a p d S d p v y e & @ o o o $ ",
"i r r q r u y e e e e e & % M 1 * P ] 7 - 4 P :.' ! 5 ! [ ! 6 7 / P 4 , > > > , < > > = O < , = 2 < > < < < > < = < > = > , < O O < 2 2 < < , 2 3 < < > , 6 6 2 ^ 3 ; > < 8 +       X o @ @ # # # # # q e e e e r r r r p a v y 9 q a p l j d S Z v c Z Z v y u N z z N k e u v p Z d b S a Z y A N N N N u N e u N z r v Z a p Z s g.g r.w.u.w.s.h.t.q.t.t.4.5.7.j.l.q # e A F F A A N z Z S S f y.d S G Z Z Z Z c a s G G F w Z v s f p.m.F.n.B.U.D.4.j f h.j.P.r.n e.D D l.e.D D e.y.l.c Z A v N N & e J -Xl.x.x.qXx.h.P.J.;Xz.x.l.l.eXqXx.x.G iXJ 0Xl.-X-Xh.z.z.g.g.h.p.i.Y.Y.j.h.l.m S S l.l.g.x.g.j.;Xz.qXP.z.A.a.p.P.P.A.u.p.x.e.y.l.l.K H %     % J e.d.u.wXwXA.qXn y.x.L.:XR.m.r.*Xx.s.z.qXG 9 F J l.x.h.s.u.u.m.b.K.A.A.J.;Xx.m l.x.y.l.g.x.-X0X-X0X .A F J A -X0X0X0X0Xl.-Xg.x.g.r.p.t.e.F F y.y.r.A.b.D.x.J @ @  .U A S D t.r.q.t.F G A K H H H K 0XH E H  .V C H H E A J A H H K A G S e.h.p.5.w.r.t.x.s.j.u.a.j.s.S t u z A A A S F b c u # N y v Z F S 0 h d.5.r.t.d Z F p.A.p.p.e.q.p.w.w.t.D D g g D D f d g r.u.p.w.4.e.b s F s s s p c S F Z A y y A a Z d s r e e @ $ $ % & $ o . . o + o @ & & @ @ @ @ & & @ o o o X       + O , 3 , , , , , < < > > < > ; < > > < < > > < , < > > , 4 , O = ; = > < < O O > < < > O O = < O O O > > < > O > ; > > ; ; O O O > > $ $ - $ $ % e e e y p s s f d p z e & @ o X o @ ",
"i r r q q e e q e e e % % 1 7 7 / P > O L ..' L > P ~ ^ ^ P P ` L 7 > , 7 4 6 6 , > > < > O > , = < < < < , 2 , 4 < > > < > O 8 2 , < < < , , 2 < , ; , 6 < , 2 ; ; > O +         X o @ @ @ # # 9 9 # 9 q q q q q i r w a v v y # q v c D j s l s s c b S v z N A A N N N y v Z d s h q.F Z A y z u u i e e N e x N z r a Z l l S s c.g u.u.a.u.p.w.4.h 4.t.w.p.a.h.J e # u A F G A z z z K F S D F p Z Z Z Z a a c S c F S S t A A Z f p.S.I.n.B.T.L.5.d S h.j.P.s.r.t.D f l.y.e.n m b G c K A K A N & e E -XF g.l.l.F 4.j.z.;X;Xg.G J 0Xl.-X-XJ 0XJ -Xl.-Xg.x.P.h.y.y.h.j.S.T.R.P.x.g.b F S F l.g.g.g.P.P.z.z.j.s.K.m.p.J.;XL.k.x.l.G l S F A H %     & K e.z.z.P.A.;XqXF F x.A.F.T.m.q.x.x.t.x.x.G 9 K J y.x.r.w.p.p.m.b.L.a.a.j.z.e.d g.l.x.e.e.-XqX-XJ E J K J E H  .E E 0XJ J J G g.y.r.g.D e.e.D e.y.w.k.m.j.x.J @ @ } V A S D t.s.s.x.y.Z v H H J H A J J E H H N N H V K z H A K H A v G D t.j.d.p.p.t.y.g.q.r.s.j.A.r.F y y y u Z A S m m F y # C x A A Z l j >.p.,.h.r.f Z S 5.A.a.4.t.y.t.5.q.y.D q.g g D e.f d g p.5.u.5.q.y.S p s s Z Z s s Z Z v r u A y a S f s w r e @ $ $ $ @ @ o . o + + o @ & & o o @ & % % & @ @ @ o X X     + O > , , < < , < > > < , 2 < < < < < < > > < < < < , 2 4 , > > = < < > > < > ; ; > > < > = O > > = O ; > > > ; > 8 ; > ; > O O > > O > > = $ & & % e e u t d s d p t e @ X X X @ & ",
"e e e q e e e e e e % & 1 B B 5 - $ P ^ [ [ , 6 P P P 5 6 ^ ( P ! L 4 , 6 P 6 8 > 7 < O = , , O O 4 Y 2 = > 2 4 > ; > < < < , 6 , < > > < , , < , O , > < R 4 O > > O +     X X X o @ @ # # # # q 9 q q q q q q 9 q r t v v v u # 9 a F D f f f f s s c c v y N N y y u e e y Z p s h e.G Z A A A z u r u r N e z N z r p S S F S f h.>.u.f.b.a.d.w.w.n g r.r.u.a.w.Z q # e v Z Z y u z A K F S y.F p F Z Z Z Z p Z F Z F S F t A A F d w.K.I.9.F.T.Y.w.f S h.k.P.s.r.t.D f y.y.D n n F G Z A A K A N & e H J F l.l.l.F r.J.J.z.x.y.G 0X0Xl.-Xl.J J J J l.qXF -Xx.s.y.g.g.P.:XwXL.P.x.e.b l.g.F l.l.F g.P.P.z.s.s.s.J.J.j.;X:XL.h.l.y.l.d l S A H x X   & K c.P.j.u.P.P.eXS l.l.P.T.:XL.r.qXx.h.P.c.G 9 J l.F x.6.4.p.j.A.b.L.a.a.x.x.f 0 S l.x.l.g.qXqXl.G 0X .H J  .J E K K 0XJ G J F g.e.e.t.m y.y.D F D >.s.j.h.x.J @ @ I V A F D q.t.s.h.e.Z A H H K K K G H J K A N M H V K z K A K H A v S S r.j.a.7.r.t.y.y.y.r.j.j.j.w.F y y y u Z A S F D G N # M e y A a S f 5.d.p.z.t.D Z S 5.D.d.w.y.D r.q.q.q.D y.e.n e.g.S f q.h.5.w.w.r.y.S p a v Z Z c c c c a i y A i v S D S t e % @ @ o $ @ o o . + + + o & % & @ @ @ @ % % @ @ @ @ @ o X       . + > < < < $ , 4 , > ; , 6 < < < < > > > = = ; < , 2 , , 2 = < = O < < > , 2 > O O = > > ; O > > > ; ; ; ; ; O < ; ; < O > O > > O = > O $ $ & % % e e u a p p t y e & + + o @ $ ",
"e e e e e e e & & % % 1 B 7 > > 7 5 5 ` ` 7 7 6 7 P 5 6 ^ B , 6 ! 6 6 ! P , < , , , > > , , = = 2 4 2 > , 6 4 > > < , , , , , , O > < < < < < < > 3 ; 2 6 O > 4 O O .     X X X o @ @ # # # 9 9 q i q e e e q r 9 q t y A A z u q % u G D f f l S c s s v t u y y u r e e e y c s d f y.F v A A K A A N N u N y z z z u p S F y.m h s.5.i.b.b.a.A.p.h.r.>.w.w.7.u.4.Z 9 # e Z Z a y N A A Z S S F s p G Z a Z Z c S S c G G F r N A A d w.A.Y.9.G.T.L.w.s S h.A.P.w.g q.D S F F m F F g.G Z A A v z N % % V J G G l.0Xl.h.A.j.r.x.l.G 0X0Xl.0XJ K J J J G 0Xl.x.x.t.G l.l.;XwXwXL.h.g.F F -Xl.g.l.l.F g.x.P.h.s.h.s.J.J.P.qX;Xj.g.D S l.F y.l.G H %   X % J g.P.p.u.wXz.qXJ 0Xy.J.S.Y.L.r.*Xx.s.P.t.G 9 K l.D x.q.g p.z.A.m.R.d.k.x.x.f p S G l.l.g.l.l.l.G E E J J E J E K K 0XE G J S F e.e.e.D y.D D F f g h.h.h.-XJ @ @ V H N G D D w.r.t.D F K K K K K G J K H J A N M H V H z K A N H J Z Z l r.k.8.7.w.t.y.c.x.s.j.p.d.r.S u y N A A Z Z g.e.F u @ M e u A s F q.u.J.A.p.q.d w s 5.7.w.w.l l q.e.D D S D e.e.y.y.S f e.h.p.r.w.e.D s s Z a Z Z v v v v a u N N 9 a F S S t e % @ @ o $ @ o o o + + o @ & % & @ & @ @ @ @ @ @ @ @ @ @ o   . .   . + $ < , > - $ > < , < = > < < > > > > O O O ; < < < , 4 , O O ; O < 2 = 2 , > O + + = < O > > > ; ; ; O O > O ; > O < = > < > O = O O O $ $ $ % % % e r q r r e % @ + o X + $ ",
"% e e % % & & & B B 7 7 7 * 8 , ^ / ' ! 4 6 , P P 5 P P 7 6 ^ / 6 ! ^ 5 , < , 6 7 6 7 < > O O < ; 2 6 4 , , , 2 2 , < < , 2 < O > , , , > > < < , < W , O 2 < O       X X X o @ @ @ # # % q q q q i i q r r r u r u z z N N N e % # r S D m D D f b c c v z y k y u u u e e v S Z s g e.S a A A A A A A A r A N z z z y s D e.y.n g k.u.i.m.b.i.d.p.j.r.>.5.u.u.a.r.F q @ y G S a A K K A v l S F c c J Z v Z F c Z c s G F F i y y a d r.A.I.n.H.F.L.r.f D x.P.P.w.g D D S S F m F S F S v A A v z H % % V E G v J 0Xl.h.a.z.s.l.l.A J 0X-X0Xl.K H H H J 0X-Xl.x.t.F G g.x.qXL.qXt.F F F g.l.l.l.g.g.y.h.z.t.x.x.t.j.j.h.P.J.s.n d S l.l.y.l.G K %   X e J g.P.J.J.P.qXg.0X0XF j.b.I.L.r.x.P.s.P.g.J i A G D h.t.g r.z.j.d.qXj.p.h.g.f S G S F S g.l.l.-XG G J E { J J  . .K E 0XJ G S G g.t.q.e.g.F F F d f x.h.g.-XK @ o V H u F F D t.t.t.D F G H J J J J J K H J K V M V V H z K K N H J Z F F h.k.7.5.r.t.q.t.x.h.j.u.a.t.G u y A A v t p g.F S y # M N A A s F t.s.J.j.,.4.d 0 d 5.7.w.y.S F F D b s l S D e.e.D s b e.r.r.w.q.D f p a Z t y v a y a a v u A N u p S d S v e % @ @ o $ $ o o + + o . @ % & & @ & & @ @ @ @ & & @ & & @ X o .     . . + - $ * < > $ $ > < > < < > > < > = O O O > < < < , 4 6 < O , > O = > , 3 2 O + + + > > ; O O ; > ; ; O > O O < O < < , > O > = O O + + $ $ * % & & e e e e & @ o . X o $ ",
"% e % & @ & * B / P 7 1 , , 5 [ ( ~ O O , 7 P 6 > 5 6 7 ^ ^ B B ^ ~ B , , B B 7 ! / B > O < , > < < 2 5 Y 6 , < , < < , , < , , 2 , < > > , 3 4 4 3 O < 6 O + .     X o @ o @ & # # # # q q w w i i i i r u y y t y z z A N N M & & y Z F D D D f b b c v y e e y u y y e e v Z F s n D a A A A A A K Z y i A A z y z v c D t.e.q.4.j.a.i.M.i.i.j.p.h.6.>.5.u.d.A.h.G e @ N J F A A N A A Z S l F S S G c a v G a Z S c F Z S u y e y s s.d.S.v.F.F.L.h.S D h.P.z.r.e.D S S F l.F F b F F F A z A z C % 1 V E K J J J F z.j.P.r.l.F A U iX0Xl.0XK H N H H J J l.x.t.F Z S g.z.j.x.D F S F F g.l.l.F G F t.z.e.x.x.t.z.s.e.h.P.P.m w F l.l.F l.G E x X X e J c.P.P.j.P.;XS J K Z P.K.R.Y.f.x.z.s.z.g.G i A G y.x.g.q.w.h.z.d.P.h.s.h.g.D l.G s Z F l.qX-X0XG G E J { H K E 0XJ J 0XJ G F l.l.l.e.y.g.F g.F d S l.g.g.J K @ @ V H y G F F t.t.e.F F G J E E K J J K J E K N M C H H z K A K H A v G y.x.j.u.u.p.t.y.t.z.k.j.A.d.t.F u u N A a t p F G G A # k N A Z s D t.j.A.j.5.w.D t p w.d.s.y.S F S b s s Z S D e.e.b p s e.e.q.n q.F c a v v y y y y y y y z r N A A p s d F v e % o o o $ @ o o o + o . @ % & & @ & & & & @ & & & # & % & o X     .     . + 1 * $ $ > , < > < < > > < < < > O O O = < < > ; 2 , 2 2 O O > O O ; , 3 2 < O + O = = O = > > O O > O ; ; O , > , , < > > > O O O + + O $ $ $ % % % e % % & + + o o @ ",
"e % & & $ * B / 7 1 7 7 6 5 P P 7 < > 7 P L 7 , 7 6 P P ^ ( | ] ( 7 - 6 ! P ! ( / B 7 7 , < , , < 2 5 5 2 > > 2 , 2 2 , > > < , , < ; ; < 3 6 4 > > 4 > + + .   . X X X o @ @ @ # # # # q r w w r e r i r u y a a a z z N N N M @ e K A y.g D q.f b b c t u e e y u y y e e t Z F s D m t A A z A A F A v i z z u e y v c F t.4.w.5.a.8.8.m.8.7.p.r.r.g 4.r.w.d.j.e.A % @ x G Z A y z N A Z S S S b s Z p t t F c Z S S G Z S A N e y a t.m.m.8.F.F.L.s.f l s.P.j.s.g.D S F S G b F c G G G A y N z N % * V H N  .H A c -Xj.z.g x.s K 0XiX0X-XJ H H M V N N H J c.c.S a c y.t.y.g.S G c F g.l.l.g.F F S t.h.t.x.c.t.z.h.e.c.P.;XS t Z J F e.x.e.J x X X % J y.z.d.u.wXx.p # e r x.K.I.L.s.x.d.p.x.y.F r K G g.x.t.q.e.s.z.p.z.t.h.h.g.F 0XG Z l.l.l.0X-X-XG l.J H  .{ H E 0XJ J 0XG J G G g.g.D e.g.F g.Z t F F y.l.G K @ @ V V N J F F t.y.q.D S G K E E K G J K E E K N C C H H z K N H H A v F e.h.s.w.u.r.e.t.t.j.k.j.J.p.r.c u u y y A a c F F G K % e u Z v s f q.p.d.A.p.6.D r p r.p.r.D s F c s a a G Z F D F F c s F e.q.g D F S c Z v u u y z z z z z q z K A a s s S a e & o o $ $ o o o o + o o @ % % % & & & & & @ & % % # # % & @ X     . .     X o $ 1 $ $ $ < 7 < < > < < < < < > = O O = > > = = < > > < > = > O O ; ; 2 4 < + + O ; = ; > ; O ; O > = O > O > > < < < , < = O < = + + + O $ $ & & & & & @ + + X o + ",
"% # & % M B 7 1 P 6 6 7 7 P ! 6 8 6 6 6 7 < 4 7 5 7 , P ( ^ 6 6 , 6 B 7 7 ^ / / 7 7 6 7 < 7 6 , , < > > < < > > < , > O > 6 4 O O > < < 2 , , < ; > O O + . . .   X o @ & & & # # # # # q r t t r r i i i u t t t t z z N V C M & M J A y.h n e.f f c v z z M M N y z z e e y Z Z d g f w N A y t v Z A A r v z e q r v c D r.4.w.5.p.7.<.b.8.7.,.>.g h w.s.w.p.a.g z % @ x G Z t r z N A v Z l S S S S Z Z a J c c c c G Z S A e e y p g.J.L.v.F.H.S.p.d d r.P.j.t.e.f S G Z S c F s S c A A z z z V % % C V H H H J l.qXj.P.r.qXa J 0X0X0X0XK K H C C M N K G e.c.F y Z G y.q.y.F l.c b g.x.y.F F s F g.g.c.l.c.e.h.s.t.x.x.x.G t a G l l.;Xg.J x o X e J y.J.a.a.;Xx.i # # 9 g.A.S.K.z.;XJ.P.;Xg.S u G S y.x.g g q.t.s.>.q.4.t.g.g.F 0Xl.l.iX0Xl.0X0Xl.J -XK K rX0XE E 0XE E J A J G F S F f n g.F G a y G s m l.J H @ X V V z K Z S g.y.q.y.c A K -X-XK G J A E E K N H V V H z A N H H K F S D g.s.w.w.r.q.t.t.z.j.7.j.,.4.p y N y u A Z p S b c A % e u v p S S h 1.7.a.,.r.D w a p.7.w.D p F Z c a Z A a G n F F S p b e.e.f b F b Z A v e e u z z z z z u e N u p s b p t e & o $ $ $ o X X + + + o $ % % % & @ @ & & @ & e e # # % % @ o     . o .       o $ $ $ O $ > < > = > < < > < 2 < O + O < , < > O O > < , < O ; ; O O < , > + . O O O O = ; ; > > ; ; O O O O = > < , 4 , > O = = O O O + + + * % & & & @ + + X + + "
};
